fujiNC2.cube
#Created by: Adobe Photoshop Export Color Lookup Plugin
#Copyright: (C) Copyright 2026 汉图
TITLE "Ricotta调色优化.psd"
#LUT size
LUT_3D_SIZE 34
#data domain
DOMAIN_MIN 0.0 0.0 0.0
DOMAIN_MAX 1.0 1.0 1.0
#LUT data points
0.036224 0.038666 0.036224
0.036224 0.038666 0.036224
0.036224 0.038666 0.036224
0.036224 0.038666 0.036224
0.036224 0.038666 0.036224
0.036224 0.038666 0.036224
0.036224 0.038666 0.036224
0.097687 0.040588 0.037170
0.165619 0.042786 0.038055
0.234985 0.044891 0.038971
0.302368 0.046997 0.039856
0.368408 0.049011 0.040771
0.435333 0.051117 0.041718
0.503876 0.053192 0.042694
0.569824 0.055267 0.043579
0.629456 0.057037 0.044312
0.681946 0.058685 0.045044
0.727692 0.060059 0.045654
0.767487 0.061310 0.046234
0.802460 0.062347 0.046661
0.834656 0.063324 0.047150
0.867004 0.064270 0.047577
0.897675 0.065277 0.047974
0.920105 0.065918 0.048279
0.926483 0.066101 0.048370
0.926483 0.066101 0.048370
0.926483 0.066101 0.048370
0.926483 0.076355 0.048370
0.926483 0.095886 0.048370
0.926483 0.115601 0.048370
0.926483 0.135101 0.048370
0.926483 0.154694 0.048370
0.926483 0.175415 0.048370
0.926483 0.197815 0.048370
0.036224 0.038666 0.036224
0.036224 0.038666 0.036224
0.036224 0.038666 0.036224
0.036224 0.038666 0.036224
0.036224 0.038666 0.036224
0.036224 0.038666 0.036224
0.036224 0.038666 0.036224
0.098694 0.040588 0.037170
0.166931 0.042847 0.038086
0.235779 0.044891 0.038971
0.302429 0.046997 0.039856
0.368225 0.049011 0.040771
0.435028 0.051117 0.041718
0.503387 0.053192 0.042694
0.568634 0.055206 0.043549
0.627869 0.057007 0.044312
0.680145 0.058624 0.045013
0.725952 0.059998 0.045624
0.765533 0.061249 0.046204
0.800598 0.062317 0.046661
0.833344 0.063263 0.047119
0.865479 0.064270 0.047577
0.895477 0.065186 0.047943
0.918823 0.065887 0.048248
0.926483 0.066101 0.048370
0.926483 0.066101 0.048370
0.926483 0.066101 0.048370
0.926483 0.080475 0.048370
0.926483 0.099579 0.048370
0.926483 0.118652 0.048370
0.926483 0.137634 0.048370
0.926483 0.156891 0.048370
0.926483 0.177368 0.048370
0.926483 0.199554 0.048370
0.036224 0.038666 0.036224
0.036224 0.038666 0.036224
0.036224 0.038666 0.036224
0.036224 0.038666 0.036224
0.036224 0.038666 0.036224
0.036224 0.038666 0.036224
0.036224 0.038666 0.036224
0.100769 0.040649 0.037170
0.168701 0.042908 0.038116
0.237610 0.044952 0.039001
0.303955 0.047028 0.039856
0.369110 0.049042 0.040802
0.435547 0.051117 0.041718
0.503754 0.053192 0.042694
0.568939 0.055206 0.043549
0.627533 0.056976 0.044281
0.679565 0.058594 0.044983
0.725250 0.059967 0.045624
0.764465 0.061188 0.046173
0.799408 0.062256 0.046631
0.832703 0.063263 0.047119
0.864349 0.064240 0.047546
0.894165 0.065155 0.047943
0.917877 0.065857 0.048248
0.926483 0.066101 0.048370
0.926483 0.066101 0.048370
0.926483 0.067200 0.048370
0.926483 0.086548 0.048370
0.926483 0.104980 0.048370
0.926483 0.123413 0.048370
0.926483 0.141998 0.048370
0.926483 0.160736 0.048370
0.926483 0.181030 0.048370
0.926483 0.202789 0.048370
0.036224 0.038666 0.036224
0.036224 0.038666 0.036224
0.036224 0.038666 0.036224
0.036224 0.038666 0.036224
0.036224 0.038666 0.036224
0.036224 0.038666 0.036224
0.036224 0.038666 0.036224
0.103302 0.040771 0.037231
0.172211 0.042999 0.038147
0.240662 0.045074 0.039062
0.306335 0.047150 0.039886
0.371582 0.049133 0.040833
0.437805 0.051178 0.041748
0.504913 0.053223 0.042694
0.569305 0.055206 0.043549
0.627472 0.056976 0.044281
0.678986 0.058594 0.044983
0.723846 0.059937 0.045624
0.763031 0.061127 0.046143
0.797791 0.062195 0.046600
0.830841 0.063202 0.047089
0.862213 0.064178 0.047516
0.891571 0.065063 0.047913
0.916718 0.065796 0.048218
0.926483 0.066101 0.048370
0.926483 0.066101 0.048370
0.926483 0.077240 0.048370
0.926483 0.095428 0.048370
0.926483 0.112793 0.048370
0.926483 0.130737 0.048370
0.926483 0.148682 0.048370
0.926483 0.167023 0.048370
0.926483 0.186615 0.048370
0.926483 0.207947 0.048370
0.036224 0.038666 0.036224
0.036224 0.038666 0.036224
0.036224 0.038666 0.036224
0.036224 0.038666 0.036224
0.036224 0.038666 0.036224
0.036224 0.038666 0.036224
0.036224 0.038666 0.036224
0.105988 0.040833 0.037262
0.174255 0.043060 0.038177
0.242310 0.045074 0.039062
0.307831 0.047180 0.039917
0.372620 0.049133 0.040863
0.438812 0.051208 0.041779
0.505585 0.053253 0.042725
0.569214 0.055206 0.043549
0.626862 0.056946 0.044281
0.678253 0.058563 0.044983
0.722870 0.059906 0.045593
0.761871 0.061127 0.046143
0.796692 0.062195 0.046600
0.829742 0.063171 0.047058
0.860687 0.064117 0.047485
0.889740 0.065002 0.047882
0.915161 0.065765 0.048187
0.926483 0.066101 0.048370
0.926483 0.073547 0.048370
0.926483 0.090485 0.048370
0.926483 0.106934 0.048370
0.926483 0.123627 0.048370
0.926483 0.140686 0.048370
0.926483 0.157928 0.048370
0.926483 0.175842 0.048370
0.926483 0.194397 0.048370
0.926483 0.215027 0.048370
0.036224 0.038666 0.036224
0.036224 0.038666 0.036224
0.036224 0.038666 0.036224
0.036224 0.038666 0.036224
0.036224 0.038666 0.036224
0.036224 0.038666 0.036224
0.036224 0.038666 0.036224
0.095825 0.040527 0.037140
0.176392 0.043091 0.038208
0.243988 0.045135 0.039093
0.309998 0.047272 0.039948
0.375183 0.049225 0.040894
0.441406 0.051300 0.041809
0.507996 0.053345 0.042755
0.571228 0.055298 0.043579
0.627808 0.057007 0.044312
0.678619 0.058594 0.044983
0.722717 0.059906 0.045593
0.761169 0.061066 0.046143
0.796265 0.062134 0.046570
0.829224 0.063171 0.047058
0.860046 0.064087 0.047485
0.889099 0.065002 0.047882
0.925201 0.069122 0.048340
0.926483 0.085480 0.048370
0.926483 0.100006 0.048370
0.926483 0.114716 0.048370
0.926483 0.130127 0.048370
0.926483 0.145660 0.048370
0.926483 0.160736 0.048370
0.926483 0.177124 0.048370
0.926483 0.193726 0.048370
0.926483 0.212250 0.048370
0.926483 0.231567 0.048370
0.036224 0.038666 0.036224
0.036224 0.038666 0.036224
0.036224 0.038666 0.036224
0.036224 0.038666 0.036224
0.036224 0.038666 0.036224
0.036224 0.038666 0.036224
0.036224 0.038666 0.036224
0.036224 0.038666 0.036224
0.156281 0.042480 0.037964
0.246948 0.045258 0.039124
0.315918 0.047455 0.040039
0.383118 0.049469 0.040955
0.450806 0.051605 0.041931
0.517365 0.053589 0.042847
0.578796 0.055511 0.043640
0.633301 0.057159 0.044373
0.682220 0.058716 0.045044
0.725037 0.059967 0.045624
0.763672 0.061188 0.046173
0.799255 0.062256 0.046631
0.832306 0.063263 0.047119
0.863495 0.064392 0.047546
0.892853 0.078308 0.047943
0.921417 0.091919 0.048279
0.926392 0.109100 0.048370
0.926483 0.122742 0.048370
0.926483 0.136353 0.048370
0.926483 0.149963 0.048370
0.926483 0.163574 0.048370
0.926483 0.178253 0.048370
0.926483 0.192902 0.048370
0.926483 0.208588 0.048370
0.926483 0.225800 0.048370
0.926483 0.244690 0.048370
0.036224 0.038666 0.036224
0.036224 0.038666 0.036224
0.036224 0.038666 0.036224
0.036224 0.038666 0.036224
0.036224 0.038666 0.036224
0.036224 0.038666 0.036224
0.036224 0.038666 0.036224
0.036224 0.038666 0.036224
0.085388 0.040222 0.036957
0.211456 0.044128 0.038635
0.305573 0.047119 0.039886
0.383423 0.049500 0.040955
0.453857 0.051697 0.041992
0.521301 0.053711 0.042908
0.582184 0.055634 0.043701
0.635590 0.057220 0.044403
0.683197 0.058716 0.045044
0.725433 0.059967 0.045624
0.763672 0.069000 0.046173
0.798981 0.078308 0.046631
0.831818 0.087738 0.047089
0.863007 0.098083 0.047516
0.892700 0.108582 0.047943
0.919739 0.120392 0.048279
0.925964 0.131775 0.048370
0.926483 0.143921 0.048370
0.926483 0.156006 0.048370
0.926483 0.168304 0.048370
0.926483 0.181030 0.048370
0.926483 0.194153 0.048370
0.926483 0.207947 0.048370
0.926483 0.222351 0.048370
0.926483 0.238251 0.048370
0.926483 0.256714 0.048370
0.036224 0.038666 0.036224
0.036224 0.038666 0.036224
0.036224 0.038666 0.036224
0.036224 0.038666 0.036224
0.036224 0.038666 0.036224
0.036224 0.038666 0.036224
0.036224 0.038666 0.036224
0.036224 0.038666 0.036224
0.036224 0.038666 0.036224
0.130341 0.041656 0.037628
0.257263 0.045563 0.039276
0.362946 0.048859 0.040710
0.446777 0.051453 0.041870
0.517487 0.059998 0.042847
0.580048 0.073853 0.043671
0.634583 0.084534 0.044403
0.682526 0.092712 0.045044
0.724121 0.100006 0.045624
0.761597 0.107025 0.046143
0.796204 0.114105 0.046570
0.829010 0.121735 0.047058
0.859863 0.129974 0.047485
0.889618 0.139221 0.047882
0.916168 0.148499 0.048218
0.925842 0.158539 0.048370
0.926483 0.168304 0.048370
0.926483 0.179077 0.048370
0.926483 0.190063 0.048370
0.926483 0.201263 0.048370
0.926483 0.212860 0.048370
0.926483 0.225128 0.048370
0.926483 0.238251 0.048370
0.926483 0.253296 0.048370
0.926483 0.271332 0.048370
0.036224 0.038666 0.036224
0.036224 0.038666 0.036224
0.036224 0.038666 0.036224
0.036224 0.038666 0.036224
0.036224 0.038666 0.036224
0.036224 0.038666 0.036224
0.036224 0.038666 0.036224
0.036224 0.038666 0.036224
0.036224 0.038666 0.036224
0.036224 0.038666 0.036224
0.172852 0.046051 0.038177
0.300659 0.072723 0.039856
0.410736 0.091248 0.041351
0.505249 0.105408 0.042725
0.573090 0.116608 0.043610
0.630096 0.126831 0.044342
0.679382 0.134796 0.044983
0.721619 0.141693 0.045593
0.758728 0.146301 0.046082
0.793549 0.151611 0.046539
0.826080 0.157349 0.047028
0.856720 0.163666 0.047455
0.886292 0.170807 0.047852
0.912476 0.178406 0.048157
0.926178 0.187256 0.048370
0.926483 0.195435 0.048370
0.926483 0.204498 0.048370
0.926483 0.213745 0.048370
0.926483 0.223206 0.048370
0.926483 0.233337 0.048370
0.926483 0.244690 0.048370
0.926483 0.256287 0.048370
0.926483 0.270447 0.048370
0.926483 0.288055 0.048370
0.036224 0.038666 0.036224
0.036224 0.038666 0.036224
0.036224 0.038666 0.036224
0.036224 0.038666 0.036224
0.036224 0.038666 0.036224
0.036224 0.038666 0.036224
0.036224 0.038666 0.036224
0.036224 0.038666 0.036224
0.036224 0.038666 0.036224
0.036224 0.038666 0.036224
0.068665 0.047577 0.036713
0.213959 0.101196 0.038696
0.343262 0.127716 0.040405
0.454437 0.147217 0.041992
0.550201 0.159454 0.043304
0.618958 0.167175 0.044189
0.671356 0.174377 0.044891
0.715271 0.181641 0.045502
0.754059 0.186523 0.046021
0.789520 0.191162 0.046478
0.821930 0.194824 0.046967
0.852753 0.199280 0.047424
0.882294 0.204590 0.047791
0.909058 0.210785 0.048096
0.926483 0.217407 0.048370
0.926483 0.223846 0.048370
0.926483 0.231140 0.048370
0.926483 0.238678 0.048370
0.926483 0.247040 0.048370
0.926483 0.256287 0.048370
0.926483 0.265930 0.048370
0.926483 0.276459 0.048370
0.926483 0.289764 0.048370
0.926483 0.307343 0.048370
0.036224 0.038666 0.036224
0.036224 0.038666 0.036224
0.036224 0.038666 0.036224
0.036224 0.038666 0.036224
0.036224 0.038666 0.036224
0.036377 0.038727 0.041626
0.036560 0.038818 0.045898
0.036682 0.038879 0.050476
0.036896 0.038971 0.056580
0.037170 0.039093 0.065643
0.037231 0.039124 0.067627
0.112152 0.100800 0.037354
0.256775 0.155487 0.039246
0.389496 0.184723 0.041046
0.497528 0.203369 0.042603
0.586517 0.213165 0.043762
0.658508 0.216919 0.044708
0.706970 0.221558 0.045380
0.748810 0.227234 0.045959
0.786224 0.232849 0.046448
0.820251 0.237518 0.046936
0.851166 0.240356 0.047394
0.880981 0.243683 0.047760
0.908447 0.247314 0.048096
0.926483 0.252625 0.048370
0.926483 0.257355 0.048370
0.926483 0.262726 0.048370
0.926483 0.268524 0.048370
0.926483 0.275391 0.048370
0.926483 0.283112 0.048370
0.926483 0.291473 0.048370
0.926483 0.300903 0.048370
0.926483 0.313568 0.048370
0.926483 0.331116 0.048370
0.036804 0.078888 0.062622
0.036774 0.077728 0.062775
0.036743 0.074677 0.064758
0.036682 0.070892 0.067841
0.036743 0.065125 0.071716
0.036835 0.057953 0.076813
0.036896 0.051056 0.082184
0.036957 0.046600 0.085815
0.037018 0.043915 0.090576
0.037170 0.045654 0.096985
0.037292 0.051971 0.107056
0.037292 0.092346 0.108307
0.155579 0.152710 0.081787
0.302338 0.213501 0.042755
0.434509 0.241241 0.041687
0.535736 0.256775 0.043091
0.617493 0.264252 0.044189
0.685089 0.266815 0.045074
0.738342 0.269165 0.045807
0.782257 0.272919 0.046417
0.818542 0.278992 0.046906
0.851654 0.283356 0.047394
0.882202 0.287048 0.047791
0.910187 0.289215 0.048126
0.923859 0.291595 0.048340
0.926483 0.294678 0.048370
0.926483 0.298340 0.048370
0.926483 0.302399 0.048370
0.926483 0.307556 0.048370
0.926483 0.313751 0.048370
0.926483 0.321045 0.048370
0.926483 0.329620 0.048370
0.926483 0.341614 0.048370
0.926483 0.359161 0.048370
0.037598 0.132690 0.097839
0.037567 0.131378 0.097717
0.037567 0.131104 0.101105
0.037506 0.128387 0.104034
0.037445 0.124084 0.107758
0.037384 0.118073 0.111755
0.037415 0.109924 0.115723
0.037476 0.103851 0.119995
0.037537 0.100006 0.123627
0.037598 0.098694 0.128326
0.037659 0.100616 0.134186
0.037811 0.106842 0.144135
0.084076 0.145142 0.146057
0.199524 0.203979 0.122742
0.336273 0.257233 0.082825
0.460236 0.283020 0.042084
0.556030 0.296722 0.043365
0.633331 0.302612 0.044373
0.698273 0.305115 0.045227
0.753662 0.306122 0.046021
0.803162 0.307648 0.046692
0.839081 0.312683 0.047211
0.872192 0.319427 0.047668
0.902039 0.323639 0.048035
0.920044 0.325653 0.048279
0.926483 0.327484 0.048370
0.926483 0.329620 0.048370
0.926483 0.332825 0.048370
0.926483 0.337128 0.048370
0.926483 0.342041 0.048370
0.926483 0.348877 0.048370
0.926483 0.356598 0.048370
0.926483 0.367737 0.048370
0.926483 0.384613 0.048370
0.038147 0.178009 0.127533
0.038147 0.176880 0.127441
0.038147 0.177490 0.130310
0.038147 0.178101 0.135132
0.038086 0.173767 0.138031
0.038025 0.167816 0.141022
0.037933 0.161102 0.144897
0.037842 0.152954 0.148346
0.040680 0.146637 0.150574
0.049835 0.143402 0.153992
0.057648 0.143494 0.158478
0.063843 0.145355 0.164246
0.072144 0.152222 0.173676
0.126465 0.189728 0.175995
0.236694 0.245148 0.152466
0.367889 0.297638 0.117401
0.481903 0.322266 0.067719
0.573212 0.333923 0.043610
0.647247 0.339478 0.044586
0.710205 0.341370 0.045410
0.766174 0.342590 0.046204
0.816956 0.342682 0.046875
0.855865 0.347565 0.047455
0.891022 0.352783 0.047913
0.913635 0.359039 0.048187
0.926483 0.363251 0.048370
0.926483 0.364288 0.048370
0.926483 0.366211 0.048370
0.926483 0.369446 0.048370
0.926483 0.373718 0.048370
0.926483 0.379242 0.048370
0.926483 0.386536 0.048370
0.926483 0.396149 0.048370
0.926483 0.412598 0.048370
0.038696 0.220062 0.153748
0.038666 0.219269 0.153656
0.038666 0.219269 0.155273
0.038666 0.219940 0.159180
0.038666 0.219299 0.163696
0.038605 0.214569 0.166718
0.039642 0.208008 0.169617
0.060364 0.200897 0.173248
0.076080 0.193848 0.177063
0.085846 0.188934 0.179504
0.093475 0.184631 0.181183
0.100861 0.185760 0.185730
0.105896 0.187225 0.190887
0.114502 0.194550 0.200439
0.168274 0.231720 0.201904
0.274963 0.285431 0.178528
0.398163 0.335144 0.147034
0.503143 0.358978 0.106262
0.589355 0.369415 0.066101
0.659607 0.374634 0.044739
0.721130 0.377411 0.045563
0.776215 0.378906 0.046356
0.826447 0.379974 0.047028
0.869720 0.382721 0.047638
0.903503 0.386871 0.048065
0.925446 0.393402 0.048340
0.926483 0.399384 0.048370
0.926483 0.401947 0.048370
0.926483 0.404083 0.048370
0.926483 0.407043 0.048370
0.926483 0.412201 0.048370
0.926483 0.418610 0.048370
0.926483 0.427124 0.048370
0.926727 0.442444 0.067230
0.039215 0.259918 0.177002
0.039185 0.259155 0.176758
0.039185 0.258759 0.177490
0.039215 0.259918 0.180969
0.039215 0.261017 0.185791
0.045715 0.258514 0.189606
0.068451 0.253387 0.192566
0.089142 0.246735 0.195892
0.107086 0.239807 0.199585
0.120178 0.233429 0.203003
0.128662 0.228851 0.205231
0.135406 0.226532 0.208344
0.142303 0.227936 0.212646
0.146667 0.228821 0.217255
0.154541 0.235901 0.226440
0.210052 0.272278 0.225189
0.311096 0.323151 0.202606
0.425781 0.369171 0.173431
0.522034 0.391571 0.139038
0.604736 0.401764 0.103790
0.672363 0.407715 0.077789
0.731842 0.411865 0.055908
0.785828 0.414978 0.046448
0.834991 0.416809 0.047150
0.879700 0.418610 0.047760
0.911682 0.422272 0.048157
0.925720 0.425537 0.048340
0.926483 0.433746 0.048370
0.926483 0.440399 0.048370
0.926514 0.442627 0.051147
0.926575 0.446198 0.057434
0.926727 0.451630 0.066925
0.926880 0.458496 0.077545
0.927185 0.471802 0.100189
0.039703 0.298035 0.198120
0.039703 0.297211 0.197784
0.039673 0.296539 0.197693
0.039703 0.297607 0.200531
0.041046 0.299286 0.205048
0.069733 0.300812 0.210358
0.092590 0.296082 0.213226
0.113922 0.289459 0.215820
0.133209 0.282593 0.219391
0.149353 0.275177 0.223236
0.160187 0.269562 0.225983
0.167908 0.265717 0.228394
0.174103 0.264191 0.231476
0.180176 0.265015 0.235474
0.184357 0.265900 0.240265
0.193787 0.274719 0.250366
0.248627 0.311127 0.247925
0.345825 0.359070 0.225922
0.451263 0.401093 0.199158
0.541656 0.422455 0.168274
0.620178 0.432068 0.135468
0.686005 0.439453 0.114136
0.744110 0.444946 0.096985
0.796570 0.449005 0.081726
0.843933 0.452332 0.071716
0.886200 0.454407 0.060913
0.916443 0.457367 0.056549
0.926575 0.460907 0.057678
0.926727 0.466095 0.066956
0.927002 0.474579 0.086365
0.927155 0.480255 0.098053
0.927246 0.484558 0.104767
0.927399 0.490662 0.113922
0.927643 0.502228 0.132141
0.040253 0.337402 0.218994
0.040253 0.336761 0.218872
0.040344 0.344452 0.223206
0.047760 0.345306 0.225372
0.070221 0.347046 0.229126
0.096130 0.348297 0.233765
0.122742 0.347809 0.238647
0.145599 0.342163 0.241547
0.166534 0.335114 0.244568
0.184906 0.327637 0.248230
0.199036 0.320374 0.251617
0.208496 0.314606 0.253967
0.215271 0.310883 0.256317
0.221527 0.310211 0.259613
0.227386 0.310944 0.263794
0.230896 0.311676 0.268738
0.240906 0.321075 0.279297
0.294220 0.356171 0.276245
0.384033 0.399780 0.254517
0.479828 0.436768 0.229156
0.563446 0.456390 0.200623
0.639069 0.465424 0.168488
0.702454 0.473175 0.149841
0.758331 0.479553 0.136047
0.808655 0.484375 0.125671
0.853912 0.487793 0.116364
0.892365 0.490753 0.109650
0.920685 0.493652 0.105743
0.927277 0.496521 0.105103
0.927399 0.502014 0.113373
0.927551 0.509552 0.127045
0.927765 0.517700 0.140106
0.927887 0.523621 0.149048
0.928101 0.534119 0.165253
0.044464 0.379150 0.241333
0.050385 0.379150 0.241425
0.056488 0.379456 0.241791
0.070160 0.381744 0.244202
0.091797 0.383484 0.247803
0.117493 0.385406 0.252625
0.146057 0.386383 0.258240
0.170563 0.382385 0.262024
0.192322 0.376282 0.265106
0.211548 0.369385 0.268372
0.228088 0.361664 0.272003
0.239716 0.354828 0.274872
0.247375 0.349426 0.276672
0.253296 0.346191 0.279022
0.260010 0.346863 0.282928
0.265991 0.348083 0.287445
0.268768 0.348450 0.291992
0.279480 0.358734 0.303467
0.331848 0.393158 0.300354
0.414764 0.433075 0.280334
0.503082 0.466919 0.256317
0.580902 0.485535 0.229736
0.654236 0.493958 0.197968
0.715912 0.502289 0.180756
0.769897 0.509735 0.169647
0.818542 0.515472 0.161285
0.862366 0.519562 0.153992
0.902222 0.523926 0.150665
0.919586 0.526794 0.147491
0.927887 0.530762 0.148651
0.927948 0.535889 0.153412
0.928070 0.543121 0.163025
0.928375 0.554718 0.183014
0.928650 0.568054 0.203796
0.076294 0.415405 0.262329
0.081238 0.415741 0.262482
0.087067 0.415771 0.262451
0.098053 0.416321 0.263916
0.117584 0.417786 0.267212
0.142456 0.419464 0.272095
0.170654 0.420959 0.278046
0.198303 0.420685 0.283813
0.219727 0.415344 0.286621
0.239075 0.408875 0.289490
0.256287 0.401855 0.292725
0.270569 0.394470 0.296204
0.279877 0.388489 0.298553
0.285950 0.383820 0.300079
0.291901 0.381958 0.302856
0.298523 0.383209 0.307037
0.303650 0.384216 0.311401
0.306915 0.385315 0.316376
0.317993 0.396118 0.328156
0.367401 0.428131 0.324677
0.444672 0.465210 0.305969
0.525909 0.496307 0.283966
0.598846 0.514587 0.259827
0.668182 0.522797 0.229706
0.728180 0.531067 0.212280
0.781067 0.539215 0.202332
0.827789 0.545013 0.195251
0.870422 0.550873 0.190674
0.905640 0.555511 0.188843
0.926880 0.560547 0.189209
0.928436 0.565063 0.190643
0.928558 0.571655 0.197357
0.928680 0.579956 0.206573
0.928986 0.593262 0.227966
0.109528 0.449829 0.283661
0.114746 0.450012 0.283997
0.119995 0.450043 0.284119
0.129028 0.450226 0.285095
0.147705 0.451294 0.288300
0.170044 0.452698 0.292572
0.196533 0.454071 0.298157
0.225311 0.455353 0.304993
0.247406 0.451874 0.308563
0.267273 0.446594 0.311615
0.284515 0.440186 0.314484
0.299469 0.433289 0.317566
0.311218 0.426819 0.320831
0.318604 0.421539 0.322296
0.322540 0.417572 0.322510
0.328522 0.417145 0.325775
0.334564 0.418274 0.330048
0.339325 0.419373 0.334564
0.342865 0.420929 0.339722
0.354736 0.432648 0.352142
0.402802 0.462616 0.349731
0.473297 0.496490 0.333160
0.549408 0.526031 0.312927
0.618744 0.544739 0.291473
0.683716 0.553375 0.264404
0.742035 0.561981 0.247375
0.792999 0.570099 0.238312
0.838226 0.577423 0.233521
0.879456 0.584839 0.231750
0.910828 0.590881 0.232239
0.925415 0.597382 0.235046
0.928802 0.605316 0.241364
0.929352 0.613953 0.251770
0.929565 0.625793 0.268860
0.148346 0.485077 0.307709
0.153046 0.485107 0.307953
0.157837 0.484985 0.307983
0.164764 0.484558 0.308289
0.180847 0.485199 0.310822
0.201752 0.485992 0.314880
0.225403 0.487061 0.319824
0.251984 0.488281 0.325897
0.278412 0.488464 0.332306
0.297211 0.483704 0.335083
0.314240 0.478058 0.337585
0.329346 0.471985 0.340454
0.341553 0.465424 0.342957
0.349304 0.459503 0.344116
0.355225 0.454681 0.345459
0.360321 0.451599 0.347321
0.366302 0.451996 0.350952
0.371826 0.453308 0.355286
0.376221 0.454407 0.359802
0.379425 0.455963 0.364990
0.391418 0.467651 0.377563
0.436279 0.495270 0.375092
0.500885 0.525940 0.359497
0.571655 0.553680 0.341003
0.637604 0.572449 0.321594
0.698639 0.581665 0.297119
0.755157 0.590149 0.280212
0.804474 0.598999 0.272522
0.848236 0.608429 0.270996
0.887604 0.616455 0.270935
0.920349 0.625305 0.274841
0.928650 0.632629 0.280243
0.929840 0.642365 0.289948
0.930084 0.653687 0.304688
0.185974 0.516663 0.330902
0.190002 0.516235 0.330750
0.194489 0.516174 0.330902
0.200500 0.515717 0.331207
0.213593 0.515991 0.333191
0.232361 0.516602 0.336761
0.253693 0.517365 0.341064
0.277924 0.518341 0.346527
0.304047 0.519440 0.353210
0.324524 0.516846 0.357361
0.341797 0.512451 0.360291
0.357025 0.507080 0.362793
0.368011 0.501099 0.363525
0.378998 0.494843 0.366608
0.386200 0.489716 0.368561
0.391052 0.485413 0.369720
0.395844 0.483582 0.371826
0.402069 0.484894 0.375854
0.406982 0.485992 0.380127
0.410980 0.487152 0.384796
0.414032 0.488770 0.389679
0.425690 0.500122 0.402527
0.468262 0.525787 0.399750
0.528076 0.553986 0.385315
0.594086 0.580414 0.368347
0.655762 0.597809 0.349731
0.713196 0.607483 0.327759
0.768127 0.615967 0.310852
0.815857 0.626099 0.305420
0.858215 0.636871 0.306335
0.895538 0.646088 0.308685
0.917297 0.655914 0.314423
0.929993 0.666992 0.325439
0.930573 0.678741 0.339813
0.222565 0.545837 0.353729
0.226593 0.545715 0.353882
0.230804 0.545410 0.353912
0.236420 0.545074 0.354004
0.247070 0.544922 0.355652
0.262787 0.545227 0.358429
0.282440 0.545807 0.362335
0.303986 0.546356 0.367340
0.327606 0.547150 0.373169
0.351532 0.547272 0.379517
0.368439 0.543457 0.382507
0.382416 0.538635 0.384308
0.393616 0.533112 0.384918
0.405029 0.527313 0.387726
0.413788 0.521545 0.390198
0.419556 0.517059 0.391785
0.423615 0.513367 0.392639
0.428589 0.512787 0.395538
0.434265 0.513947 0.399445
0.438721 0.515137 0.403564
0.442566 0.516632 0.408142
0.445526 0.518219 0.413269
0.457245 0.529633 0.426239
0.498230 0.553986 0.423492
0.554657 0.580444 0.409760
0.617096 0.605591 0.394043
0.674316 0.622314 0.377136
0.728882 0.632385 0.357880
0.781708 0.641022 0.341736
0.828339 0.652740 0.338074
0.869476 0.663971 0.340607
0.906372 0.676086 0.347473
0.927277 0.687103 0.356506
0.930969 0.699005 0.369720
0.256439 0.572571 0.375824
0.260406 0.572571 0.376068
0.264435 0.572449 0.376282
0.269501 0.571960 0.376099
0.278412 0.571777 0.377289
0.292908 0.571991 0.379913
0.310181 0.572357 0.383667
0.329498 0.573029 0.388092
0.350830 0.573456 0.393219
0.373383 0.574402 0.399841
0.392090 0.572388 0.403992
0.405548 0.568756 0.404449
0.418915 0.563690 0.406799
0.430420 0.558411 0.409241
0.439880 0.552795 0.411804
0.446869 0.547729 0.413757
0.451630 0.543854 0.414856
0.455444 0.540955 0.416107
0.460358 0.541107 0.419250
0.465576 0.542297 0.423218
0.469940 0.543579 0.427460
0.473328 0.544922 0.432007
0.477051 0.547546 0.437683
0.488403 0.558472 0.450562
0.527985 0.581604 0.447693
0.581482 0.606537 0.435150
0.641113 0.631042 0.420319
0.695679 0.647186 0.405457
0.746796 0.657532 0.388519
0.798096 0.667023 0.373291
