fujiNC2.cube
#Created by: Adobe Photoshop Export Color Lookup Plugin
#Copyright: (C) Copyright 2026 汉图
TITLE "Ricotta调色优化.psd"
#LUT size
LUT_3D_SIZE 7
#data domain
#LUT data points
DOMAIN_MIN 0.000000 0.000000 0.000000
DOMAIN_MAX 0.909091 0.909091 0.909091
0.036224 0.038666 0.036224
0.036224 0.038666 0.036224
0.302368 0.046997 0.039856
0.629456 0.057037 0.044312
0.834656 0.063324 0.047150
0.926483 0.066101 0.048370
0.926483 0.135101 0.048370
0.036224 0.038666 0.036224
0.036224 0.038666 0.036224
0.309998 0.047272 0.039948
0.627808 0.057007 0.044312
0.829224 0.063171 0.047058
0.926483 0.100006 0.048370
0.926483 0.177124 0.048370
0.036224 0.038666 0.036224
0.036224 0.038666 0.036224
0.068665 0.047577 0.036713
0.618958 0.167175 0.044189
0.821930 0.194824 0.046967
0.926483 0.223846 0.048370
0.926483 0.265930 0.048370
0.038696 0.220062 0.153748
0.038605 0.214569 0.166718
0.093475 0.184631 0.181183
0.274963 0.285431 0.178528
0.721130 0.377411 0.045563
0.925446 0.393402 0.048340
0.926483 0.412201 0.048370
0.076294 0.415405 0.262329
0.142456 0.419464 0.272095
0.256287 0.401855 0.292725
0.298523 0.383209 0.307037
0.444672 0.465210 0.305969
0.781067 0.539215 0.202332
0.928436 0.565063 0.190643
0.256439 0.572571 0.375824
0.292908 0.571991 0.379913
0.392090 0.572388 0.403992
0.446869 0.547729 0.413757
0.469940 0.543579 0.427460
0.581482 0.606537 0.435150
0.842957 0.679779 0.372009
0.430115 0.711182 0.507172
0.449829 0.710541 0.509186
0.520996 0.714935 0.529480
0.590240 0.707520 0.547150
0.626190 0.695343 0.561829
0.651031 0.704315 0.586212
0.743774 0.754822 0.601349
0.036224 0.038666 0.036224
0.036224 0.038666 0.036224
0.255280 0.045502 0.039246
0.599884 0.056122 0.043915
0.811798 0.062622 0.046814
0.926483 0.073975 0.048370
0.926483 0.150177 0.048370
0.036224 0.038666 0.036224
0.036224 0.038666 0.036224
0.277618 0.046234 0.039551
0.601562 0.056213 0.043945
0.809631 0.062561 0.046783
0.926483 0.126648 0.048370
0.926483 0.189636 0.048370
0.036560 0.038818 0.047089
0.037323 0.039124 0.069916
0.124146 0.102234 0.045288
0.604797 0.188934 0.043976
0.800293 0.209259 0.046631
0.926483 0.236328 0.048370
0.926483 0.274536 0.048370
0.039154 0.256195 0.186340
0.043365 0.257874 0.194427
0.135651 0.229736 0.210663
0.305908 0.315735 0.201324
0.719147 0.391724 0.071686
0.918427 0.411285 0.061676
0.926788 0.423523 0.072266
0.116180 0.443970 0.290924
0.157288 0.442719 0.291412
0.278748 0.431519 0.312103
0.323120 0.407440 0.324188
0.456390 0.479645 0.322144
0.781342 0.548126 0.227203
0.928864 0.573914 0.217682
0.270020 0.584930 0.392395
0.296387 0.582611 0.391815
0.392151 0.584015 0.411835
0.459045 0.561768 0.424988
0.481537 0.554626 0.436920
0.587097 0.613434 0.444824
0.845276 0.685394 0.385315
0.428406 0.714996 0.514435
0.444733 0.713776 0.514191
0.508972 0.715942 0.528137
0.593689 0.716309 0.555206
0.633301 0.702728 0.569702
0.656586 0.709259 0.591675
0.745331 0.757568 0.607056
0.036224 0.038666 0.036224
0.036713 0.038879 0.051575
0.278137 0.046234 0.039551
0.498932 0.053009 0.042603
0.777344 0.061584 0.046356
0.920868 0.103088 0.048279
0.926483 0.178253 0.048370
0.036224 0.038666 0.036224
0.037689 0.039307 0.082245
0.272186 0.042084 0.070984
0.522339 0.045593 0.052246
0.777405 0.080627 0.046356
0.921814 0.163788 0.048309
0.926483 0.216766 0.048370
0.038574 0.039795 0.116150
0.037750 0.094788 0.141571
0.216339 0.197968 0.176758
0.553223 0.233398 0.141602
0.754791 0.254242 0.108429
0.908020 0.277130 0.075989
0.926605 0.307709 0.059631
0.039764 0.302368 0.244354
0.040100 0.326813 0.253204
0.235474 0.353180 0.282196
0.375580 0.391205 0.267975
0.720245 0.434845 0.198700
0.887726 0.443451 0.186493
0.928192 0.449432 0.170685
0.061798 0.479431 0.330566
0.157654 0.489136 0.339233
0.309875 0.498749 0.357269
0.388153 0.472870 0.370880
0.490021 0.521088 0.369141
0.787781 0.577759 0.294159
0.929932 0.603607 0.294342
0.243469 0.604980 0.419250
0.296753 0.607941 0.425385
0.381561 0.607910 0.431427
0.483276 0.598389 0.451721
0.511505 0.583252 0.462097
0.601929 0.631439 0.470062
0.851105 0.698639 0.417969
0.415192 0.727844 0.536346
0.446686 0.729370 0.541046
0.489868 0.727234 0.539673
0.589050 0.731934 0.566620
0.645050 0.717377 0.584320
0.668121 0.719879 0.603394
0.748199 0.763153 0.619812
0.040588 0.040741 0.181305
0.041779 0.041290 0.220642
0.328033 0.042908 0.289185
0.590881 0.046570 0.225708
0.667267 0.131714 0.210815
0.854340 0.190735 0.190552
0.927856 0.218109 0.147644
0.041046 0.040955 0.197601
0.042145 0.041473 0.231476
0.302795 0.042572 0.304565
0.574738 0.046356 0.248535
0.654968 0.198639 0.236023
0.855347 0.242828 0.215820
0.927917 0.242401 0.151978
0.038605 0.089447 0.208801
0.038879 0.131531 0.228210
0.205292 0.210602 0.308838
0.531281 0.271393 0.306671
0.653229 0.337769 0.293488
0.863708 0.324646 0.237366
0.928589 0.345032 0.201263
0.039734 0.283722 0.292908
0.062866 0.317017 0.309601
0.237885 0.392670 0.341888
0.457916 0.486664 0.386658
0.673615 0.491486 0.351410
0.841461 0.487244 0.314545
0.929749 0.485870 0.281311
0.050201 0.496002 0.406403
0.120636 0.510010 0.410370
0.269135 0.544647 0.421814
0.463379 0.571655 0.443542
0.545319 0.582977 0.442261
0.801727 0.624847 0.398407
0.929504 0.641418 0.400116
0.166290 0.619995 0.466766
0.217773 0.626495 0.469208
0.339233 0.641113 0.477112
0.493042 0.651672 0.495605
0.561737 0.631866 0.507690
0.629211 0.663452 0.515717
0.863708 0.722382 0.475586
0.316925 0.735962 0.557587
0.355011 0.739532 0.560699
0.448883 0.745819 0.570068
0.554993 0.748322 0.580536
0.657776 0.744293 0.607269
0.687317 0.737549 0.623291
0.754730 0.773407 0.641479
0.044708 0.042786 0.319275
0.043304 0.065460 0.347595
0.241577 0.044037 0.411926
0.689362 0.047974 0.452148
0.764404 0.129974 0.363586
0.794281 0.312317 0.352875
0.903534 0.424194 0.383575
0.040192 0.090790 0.325439
0.075836 0.122620 0.351959
0.245056 0.091827 0.412750
0.670380 0.047729 0.460449
0.746979 0.206207 0.379486
0.779877 0.357544 0.369904
0.903809 0.441833 0.390045
0.040192 0.172241 0.325043
0.095428 0.208893 0.345093
0.248016 0.272614 0.405121
0.567993 0.260559 0.475433
0.706299 0.368317 0.423218
0.751648 0.454651 0.414703
0.906982 0.482483 0.403564
0.050598 0.290497 0.347565
0.104645 0.313812 0.356689
0.235535 0.377808 0.381653
0.442657 0.484650 0.467102
0.660980 0.529236 0.482452
0.748840 0.553009 0.461273
0.919006 0.536133 0.413605
0.169250 0.470215 0.433838
0.214294 0.485687 0.440765
0.317688 0.524658 0.459442
0.460114 0.586243 0.494598
0.617889 0.659637 0.545715
0.776489 0.654541 0.509125
0.916901 0.647308 0.471558
0.226929 0.627045 0.541931
0.259827 0.633667 0.543854
0.337616 0.649719 0.547577
0.455658 0.681274 0.559753
0.608826 0.707275 0.577179
0.673157 0.711639 0.586060
0.884552 0.754456 0.560303
0.254608 0.733154 0.609802
0.282074 0.736694 0.609955
0.350433 0.748199 0.612671
0.479004 0.766479 0.620178
0.633179 0.776489 0.634155
0.714996 0.765045 0.655945
0.766632 0.790009 0.675293
0.135406 0.200897 0.461639
0.195801 0.227875 0.480743
0.306244 0.214447 0.522614
0.558929 0.133667 0.592560
0.887543 0.244629 0.578949
0.886353 0.339996 0.501099
0.896576 0.463440 0.482788
0.144104 0.221924 0.456268
0.203064 0.252045 0.474854
0.305298 0.240967 0.516266
0.538788 0.148285 0.585724
0.877319 0.253082 0.583923
0.873688 0.382080 0.512421
0.888977 0.486938 0.493164
0.160736 0.276550 0.445831
0.206787 0.302856 0.461121
0.326508 0.359192 0.504730
0.497223 0.327179 0.572144
0.819183 0.377716 0.600922
0.843842 0.462250 0.534241
0.868561 0.540802 0.518677
0.099030 0.317230 0.421265
0.151093 0.340912 0.434845
0.286621 0.410309 0.470917
0.461914 0.501129 0.542236
0.710693 0.509796 0.617401
0.808411 0.568665 0.573761
0.841431 0.611359 0.553558
0.159241 0.441925 0.464569
0.192810 0.453705 0.468933
0.272156 0.483459 0.480103
0.392334 0.535461 0.503906
0.593994 0.640015 0.596558
0.767120 0.675598 0.622314
0.835114 0.685181 0.596527
0.264587 0.586700 0.544312
0.292603 0.595093 0.548340
0.360687 0.616425 0.559418
0.468323 0.654694 0.582397
0.600586 0.709412 0.622162
0.739563 0.779022 0.688263
0.873230 0.769562 0.647827
0.328918 0.734283 0.674835
0.350037 0.738922 0.677979
0.404694 0.750732 0.684113
0.487061 0.768280 0.690674
0.590363 0.791595 0.697205
0.727783 0.814270 0.709137
0.793396 0.817993 0.727356
0.334198 0.388977 0.594788
0.363739 0.397430 0.607056
0.420410 0.381470 0.633209
0.552277 0.328278 0.682007
0.818573 0.303864 0.713409
0.931000 0.377808 0.689362
0.932434 0.478943 0.618805
0.326874 0.391418 0.586273
0.363220 0.408997 0.598480
0.413971 0.388000 0.625854
0.538055 0.329590 0.674469
0.798737 0.296326 0.710022
0.931396 0.408081 0.689636
0.932678 0.499756 0.623444
0.307861 0.403656 0.567108
0.344635 0.425018 0.580261
0.421661 0.454224 0.612061
0.525452 0.426239 0.662781
0.742432 0.382111 0.710266
0.932404 0.477325 0.699097
0.930328 0.544678 0.636627
0.219879 0.394623 0.541748
0.267822 0.417664 0.549042
0.374573 0.475342 0.572540
0.496277 0.527588 0.629272
0.653534 0.497772 0.698639
0.914398 0.552917 0.717682
0.919891 0.611450 0.661163
0.128082 0.425232 0.513611
0.150696 0.432098 0.516205
0.229950 0.458221 0.530121
0.383545 0.522736 0.574524
0.585571 0.623138 0.659576
0.817963 0.646484 0.740295
0.893677 0.696747 0.703247
0.198914 0.551514 0.577972
0.218811 0.555878 0.578979
0.270660 0.568115 0.582397
0.358917 0.592865 0.591400
0.479980 0.634857 0.611389
0.710815 0.749298 0.720001
0.866791 0.787445 0.760010
0.323151 0.695740 0.673920
0.340851 0.699402 0.675537
0.388489 0.710510 0.681183
0.469025 0.731689 0.693451
0.577606 0.762695 0.713287
0.708313 0.807343 0.749695
0.848511 0.870483 0.821503
