fujiNC2.cube
#Created by: Adobe Photoshop Export Color Lookup Plugin
#Copyright: (C) Copyright 2026 汉图
TITLE "Ricotta调色优化.psd"
#LUT size
LUT_3D_SIZE 4
#data domain
DOMAIN_MIN 0.0 0.0 0.0
DOMAIN_MAX 1.0 1.0 1.0
#LUT data points
0.036224 0.038666 0.036224
0.368408 0.049011 0.040771
0.897675 0.065277 0.047974
0.926483 0.197815 0.048370
0.036224 0.038666 0.036224
0.112152 0.100800 0.037354
0.880981 0.243683 0.047760
0.926483 0.331116 0.048370
0.148346 0.485077 0.307709
0.329346 0.471985 0.340454
0.500885 0.525940 0.359497
0.930084 0.653687 0.304688
0.567657 0.805359 0.626770
0.648102 0.809418 0.648560
0.765564 0.810333 0.708160
0.875702 0.870453 0.775513
0.036224 0.038666 0.036224
0.348145 0.043182 0.067444
0.834442 0.063324 0.047150
0.926483 0.233093 0.048370
0.037994 0.094727 0.158600
0.277618 0.266327 0.222412
0.806885 0.310211 0.152405
0.927460 0.368561 0.118195
0.123413 0.541534 0.376862
0.364441 0.555023 0.399536
0.541046 0.574280 0.418732
0.931274 0.682953 0.390259
0.535828 0.815399 0.647827
0.607727 0.815826 0.652344
0.770142 0.818787 0.717163
0.873962 0.872070 0.784424
0.040894 0.100891 0.375458
0.310699 0.090424 0.469818
0.819855 0.216614 0.419800
0.930664 0.504944 0.449371
0.066864 0.222595 0.371918
0.312958 0.342224 0.454254
0.758972 0.435944 0.478882
0.932343 0.553833 0.466980
0.216919 0.521973 0.479340
0.360718 0.572113 0.504364
0.669922 0.712006 0.603882
0.933136 0.699524 0.524902
0.314148 0.805481 0.704559
0.399902 0.818451 0.704834
0.713928 0.849243 0.731262
0.877808 0.882874 0.819122
0.440460 0.485229 0.674133
0.510193 0.463074 0.710663
0.891022 0.384521 0.779510
0.933228 0.536591 0.716949
0.409851 0.499451 0.652985
0.500732 0.525909 0.691864
0.812622 0.431030 0.775482
0.934265 0.610474 0.737579
0.235901 0.535828 0.623871
0.290802 0.544769 0.632355
0.679047 0.706543 0.769073
0.936432 0.766113 0.805145
0.450409 0.805481 0.816345
0.497345 0.815338 0.821991
0.649536 0.851288 0.846069
0.923798 0.927856 0.919159
