test for zink/14.Food-TFTzi 75%.cube
#Created by: Adobe Photoshop Export Color Lookup Plugin
#Copyright: (C) Copyright 2026 汉图
TITLE "mint本征源文件-适配lut筛选.psd"
#LUT size
LUT_3D_SIZE 34
#data domain
DOMAIN_MIN 0.0 0.0 0.0
DOMAIN_MAX 1.0 1.0 1.0
#LUT data points
0.073456 0.073914 0.090576
0.090485 0.074066 0.095490
0.108093 0.074738 0.095154
0.127136 0.074432 0.095398
0.144409 0.075043 0.095398
0.163086 0.074951 0.094910
0.191620 0.075073 0.094757
0.227051 0.075439 0.094238
0.262177 0.076202 0.094238
0.299103 0.076721 0.093750
0.336853 0.077118 0.093506
0.373016 0.077881 0.093048
0.410675 0.078278 0.092682
0.448181 0.079376 0.092041
0.486389 0.080261 0.091766
0.524750 0.081299 0.091064
0.562408 0.082520 0.090759
0.599670 0.084198 0.089752
0.636353 0.085846 0.089081
0.672363 0.089203 0.087830
0.706390 0.093140 0.087036
0.738861 0.097198 0.085724
0.769867 0.101044 0.085663
0.799561 0.105377 0.084503
0.829010 0.109375 0.083984
0.857971 0.113525 0.083801
0.886566 0.117615 0.084534
0.915009 0.121887 0.085297
0.930481 0.123291 0.086060
0.941803 0.124176 0.086853
0.949402 0.124573 0.087128
0.957062 0.124908 0.087189
0.964722 0.125092 0.086945
0.972321 0.125549 0.086792
0.073456 0.081543 0.090576
0.090332 0.081543 0.095306
0.108795 0.081696 0.095306
0.125946 0.082367 0.095337
0.144226 0.082520 0.095215
0.162018 0.082825 0.094818
0.189514 0.082916 0.094604
0.224609 0.083344 0.094238
0.260681 0.083496 0.094482
0.297913 0.083801 0.094269
0.335693 0.084564 0.093445
0.371582 0.085724 0.093018
0.408875 0.087769 0.092194
0.447083 0.089722 0.092438
0.485168 0.092346 0.091614
0.523560 0.094788 0.091064
0.561310 0.097748 0.090393
0.599060 0.100586 0.090332
0.635925 0.104126 0.089355
0.671906 0.107483 0.089142
0.706177 0.111450 0.087738
0.738647 0.115326 0.087372
0.769623 0.119354 0.086151
0.799774 0.123108 0.086060
0.829163 0.127014 0.085846
0.858368 0.130798 0.086304
0.887207 0.134613 0.087097
0.915771 0.138580 0.087769
0.931305 0.140228 0.088928
0.942719 0.140930 0.089935
0.950623 0.141327 0.090057
0.958282 0.141510 0.090240
0.965881 0.141876 0.090088
0.973541 0.142242 0.089752
0.073456 0.090973 0.093597
0.089478 0.092102 0.095490
0.107178 0.093018 0.095245
0.125641 0.093475 0.095459
0.143250 0.094330 0.095215
0.162323 0.094452 0.094910
0.189636 0.095642 0.095032
0.225281 0.096924 0.095032
0.260773 0.098663 0.094299
0.297455 0.100464 0.093811
0.333893 0.101898 0.093811
0.370056 0.103912 0.093353
0.407654 0.105804 0.093231
0.445923 0.108002 0.092438
0.484497 0.110199 0.092224
0.522949 0.112518 0.092529
0.560944 0.115509 0.091400
0.598297 0.118713 0.090973
0.635559 0.121948 0.090393
0.671326 0.125671 0.089294
0.705536 0.129425 0.088837
0.738464 0.133057 0.088104
0.769806 0.136536 0.087830
0.800018 0.140198 0.087799
0.829803 0.143524 0.088837
0.858978 0.147369 0.088867
0.887787 0.151184 0.089600
0.916473 0.155029 0.090546
0.932373 0.156342 0.091583
0.943726 0.157135 0.092041
0.951813 0.157440 0.093506
0.959473 0.157776 0.093536
0.967163 0.157959 0.093719
0.974762 0.158356 0.093628
0.073639 0.108582 0.095886
0.088379 0.110443 0.096222
0.106995 0.110901 0.096375
0.124512 0.111816 0.096191
0.143951 0.111725 0.096588
0.161224 0.112732 0.096039
0.187286 0.113586 0.095856
0.224762 0.114990 0.095490
0.261658 0.116150 0.095398
0.296143 0.118011 0.094788
0.331879 0.119751 0.094757
0.368622 0.121582 0.094208
0.406494 0.123413 0.094025
0.444550 0.125580 0.093750
0.483093 0.127930 0.093323
0.521271 0.130920 0.092041
0.559662 0.133575 0.091858
0.597137 0.136719 0.091034
0.634918 0.139618 0.090942
0.670898 0.143066 0.090668
0.705597 0.146454 0.090424
0.738556 0.149780 0.090240
0.769989 0.153107 0.090485
0.800354 0.156616 0.090759
0.830231 0.160095 0.090851
0.859558 0.163574 0.091705
0.888367 0.167328 0.092865
0.917206 0.170929 0.094086
0.933411 0.172424 0.094360
0.944611 0.173309 0.094513
0.953003 0.173553 0.094940
0.960663 0.173828 0.094971
0.968353 0.174042 0.095642
0.976013 0.174377 0.096191
0.074005 0.126465 0.096283
0.088348 0.128113 0.096863
0.106995 0.128632 0.097046
0.125397 0.128998 0.097198
0.143005 0.129913 0.096954
0.163818 0.130035 0.096680
0.180176 0.130432 0.096771
0.221130 0.132202 0.096375
0.257751 0.133911 0.095947
0.293579 0.135529 0.095947
0.329956 0.137115 0.095795
0.366302 0.139374 0.094330
0.404236 0.141174 0.094604
0.443115 0.142975 0.094727
0.481506 0.145569 0.093719
0.519989 0.148468 0.093109
0.558746 0.150909 0.093048
0.596893 0.153687 0.092621
0.634430 0.156586 0.092804
0.670563 0.160187 0.091949
0.705505 0.163055 0.092468
0.738586 0.166321 0.092316
0.769989 0.169800 0.092499
0.800476 0.173157 0.092834
0.830475 0.176544 0.093170
0.859894 0.179962 0.093933
0.888763 0.183655 0.095215
0.917572 0.187195 0.096710
0.934174 0.188568 0.097656
0.945435 0.189484 0.097504
0.954010 0.189850 0.097473
0.961609 0.190247 0.096954
0.969299 0.190491 0.097168
0.976898 0.190857 0.097046
0.074738 0.143982 0.097137
0.089355 0.145294 0.097382
0.107086 0.146271 0.097198
0.124451 0.147247 0.097473
0.142029 0.148132 0.097229
0.161224 0.148102 0.097321
0.219269 0.150574 0.097290
0.220520 0.150208 0.096771
0.251831 0.151489 0.096710
0.287964 0.153015 0.096313
0.325592 0.155121 0.095764
0.363983 0.156525 0.096069
0.401886 0.158600 0.095123
0.440582 0.160889 0.094757
0.479950 0.162994 0.094788
0.519073 0.165314 0.094421
0.557770 0.167969 0.094269
0.595856 0.170898 0.094177
0.633514 0.173859 0.094025
0.670197 0.176849 0.093750
0.704987 0.180115 0.093689
0.738281 0.183167 0.093842
0.769928 0.186340 0.094482
0.800262 0.189850 0.094513
0.830414 0.193024 0.095123
0.859894 0.196442 0.096069
0.888916 0.200073 0.097412
0.917755 0.203491 0.098846
0.934784 0.205109 0.099426
0.946228 0.205627 0.100250
0.954956 0.206116 0.099884
0.962555 0.206482 0.099792
0.970184 0.206757 0.099792
0.977814 0.207153 0.099335
0.074860 0.161774 0.097687
0.088196 0.163483 0.098053
0.106781 0.163940 0.098206
0.124359 0.164825 0.098053
0.142883 0.165222 0.098175
0.160034 0.166107 0.098450
0.195435 0.169586 0.097778
0.260071 0.183441 0.097748
0.272217 0.170654 0.096771
0.293274 0.171112 0.096710
0.325012 0.172302 0.096771
0.361450 0.173981 0.096588
0.398926 0.176056 0.096130
0.438171 0.178223 0.095581
0.478119 0.180176 0.095764
0.517212 0.182678 0.095490
0.556519 0.185089 0.095398
0.594757 0.188141 0.094788
0.632751 0.190948 0.094879
0.669342 0.193787 0.095551
0.704285 0.196899 0.095642
0.737396 0.200043 0.095764
0.769257 0.203094 0.095795
0.800018 0.206421 0.096222
0.830109 0.209534 0.097595
0.859680 0.212860 0.098572
0.888763 0.216492 0.099182
0.917786 0.219818 0.101227
0.935425 0.221436 0.102020
0.946777 0.222107 0.102448
0.955688 0.222534 0.102325
0.963379 0.222778 0.102417
0.971008 0.223206 0.101929
0.978638 0.223480 0.101959
0.074646 0.183197 0.097656
0.088104 0.183228 0.098450
0.106476 0.182404 0.098419
0.125122 0.181976 0.098846
0.142151 0.183441 0.098633
0.160339 0.185822 0.098633
0.178192 0.192596 0.098877
0.232361 0.205719 0.098785
0.302094 0.222565 0.099152
0.323883 0.202698 0.098053
0.337708 0.190948 0.096771
0.367462 0.191864 0.097534
0.402618 0.193787 0.096527
0.440155 0.195953 0.096222
0.478180 0.198151 0.096069
0.516693 0.200195 0.096222
0.554962 0.202606 0.095642
0.593475 0.205139 0.095978
0.631500 0.208099 0.095764
0.668091 0.211090 0.096130
0.703369 0.213684 0.096710
0.736633 0.216919 0.096863
0.768494 0.219818 0.097839
0.799347 0.223022 0.098419
0.829773 0.226044 0.099426
0.859436 0.229370 0.100525
0.888641 0.232819 0.101318
0.917694 0.236115 0.103241
0.935883 0.237976 0.103821
0.947296 0.238525 0.104614
0.956482 0.238892 0.104340
0.964020 0.239380 0.104034
0.971710 0.239624 0.104065
0.979370 0.239899 0.104126
0.075317 0.214386 0.098877
0.086792 0.214417 0.100220
0.104919 0.213684 0.099884
0.123016 0.212341 0.099854
0.140533 0.212891 0.099640
0.159515 0.213531 0.099823
0.176788 0.218567 0.099762
0.207886 0.228821 0.100464
0.271210 0.243958 0.100739
0.344696 0.263702 0.101227
0.372437 0.242645 0.099731
0.382843 0.221558 0.098267
0.410370 0.213593 0.097504
0.445068 0.213501 0.097137
0.482422 0.215637 0.096954
0.520355 0.217896 0.097015
0.558167 0.220337 0.096771
0.595306 0.222626 0.097046
0.632019 0.225281 0.097198
0.667847 0.227997 0.097412
0.702179 0.230835 0.097778
0.735535 0.233643 0.098145
0.767365 0.236725 0.098969
0.798492 0.239777 0.099731
0.828888 0.242981 0.100128
0.858795 0.246124 0.101410
0.888336 0.249237 0.103546
0.917358 0.252594 0.105255
0.936401 0.254395 0.106079
0.947784 0.254944 0.106720
0.957062 0.255554 0.106262
0.964722 0.255829 0.106323
0.972321 0.256134 0.106262
0.979950 0.256439 0.106201
0.075592 0.247070 0.100647
0.085052 0.247528 0.101318
0.103302 0.246613 0.101410
0.120911 0.245361 0.101410
0.138428 0.244263 0.102020
0.156525 0.244812 0.101593
0.175781 0.246918 0.101227
0.192871 0.254089 0.101715
0.245331 0.267212 0.101868
0.311584 0.284821 0.102661
0.388733 0.305725 0.104370
0.418884 0.282990 0.101685
0.431213 0.258301 0.099670
0.455109 0.246124 0.098602
0.486725 0.238892 0.098022
0.523773 0.236359 0.097687
0.561615 0.237793 0.098053
0.598480 0.240143 0.098358
0.635010 0.242737 0.098450
0.669739 0.245361 0.098511
0.703308 0.247925 0.099091
0.735565 0.250732 0.099548
0.767059 0.253448 0.100159
0.797729 0.256470 0.100769
0.828064 0.259491 0.102264
0.858063 0.262665 0.103516
0.887726 0.265747 0.104980
0.916931 0.269073 0.106781
0.936676 0.270935 0.108063
0.948151 0.271576 0.108337
0.957672 0.271973 0.108673
0.965271 0.272339 0.108490
0.972931 0.272614 0.108093
0.980469 0.273041 0.107880
0.075806 0.280670 0.101776
0.084564 0.280762 0.102783
0.101898 0.280243 0.103516
0.118774 0.279236 0.103882
0.136597 0.277313 0.103760
0.155151 0.275909 0.103424
0.173767 0.276764 0.103241
0.192780 0.281342 0.103180
0.225098 0.291351 0.103699
0.283997 0.307129 0.104156
0.354797 0.326813 0.105957
0.432312 0.347168 0.107513
0.462036 0.322113 0.105042
0.483673 0.298920 0.102570
0.499542 0.280029 0.100586
0.527557 0.270142 0.099945
0.564056 0.265839 0.099579
0.600830 0.262726 0.099579
0.637390 0.260651 0.099060
0.672211 0.262726 0.099548
0.705322 0.265198 0.100342
0.736755 0.267822 0.100952
0.767700 0.270355 0.101776
0.798004 0.273224 0.102417
0.828003 0.276215 0.103424
0.857605 0.279236 0.104797
0.887115 0.282257 0.106384
0.916229 0.285553 0.108704
0.937042 0.287445 0.109863
0.948425 0.288086 0.110016
0.958130 0.288605 0.109894
0.965790 0.288879 0.109985
0.973389 0.289246 0.109802
0.981079 0.289551 0.109528
0.076172 0.314270 0.104370
0.084412 0.314178 0.104797
0.097900 0.315155 0.106781
0.117523 0.312988 0.105957
0.135010 0.311157 0.106110
0.153137 0.308258 0.105774
0.172333 0.307709 0.105408
0.191040 0.310059 0.105469
0.208191 0.317230 0.106079
0.262756 0.330383 0.106598
0.325165 0.348022 0.107483
0.400818 0.369812 0.109589
0.473083 0.385223 0.111328
0.502808 0.360107 0.108337
0.529663 0.337524 0.106018
0.543518 0.314545 0.103516
0.570160 0.302612 0.102509
0.602509 0.295837 0.102173
0.638275 0.291840 0.101471
0.673157 0.288147 0.101349
0.706451 0.284973 0.101776
0.738220 0.285004 0.101685
0.768616 0.287567 0.102783
0.798523 0.290283 0.103851
0.828217 0.292847 0.105286
0.857513 0.295807 0.106598
0.886658 0.298889 0.107971
0.915771 0.301819 0.110229
0.937378 0.303955 0.111389
0.948700 0.304749 0.111298
0.958618 0.305176 0.111511
0.966309 0.305420 0.111603
0.973938 0.305695 0.111603
0.981506 0.306061 0.111420
0.076233 0.346588 0.106812
0.084259 0.346191 0.106293
0.095978 0.348145 0.109283
0.114655 0.346588 0.109283
0.131714 0.345398 0.109528
0.150269 0.342224 0.109253
0.170135 0.339050 0.107849
0.187592 0.340729 0.108337
0.206970 0.345398 0.108154
0.244110 0.354858 0.108429
0.302185 0.370575 0.109497
0.369293 0.389740 0.111237
0.448303 0.413055 0.114807
0.512878 0.422089 0.116089
0.541168 0.395874 0.112335
0.570099 0.373962 0.109467
0.590637 0.351013 0.106842
0.610931 0.335175 0.105469
0.639221 0.326050 0.104797
0.673309 0.320435 0.104126
0.706268 0.315186 0.104248
0.738190 0.311005 0.104065
0.769409 0.307587 0.104828
0.799469 0.307159 0.104797
0.828491 0.309875 0.106598
0.857422 0.312592 0.107697
0.886292 0.315460 0.109589
0.915039 0.318390 0.111450
0.937500 0.320679 0.112701
0.948914 0.321198 0.113312
0.959015 0.321686 0.113617
0.966614 0.321991 0.113434
0.974304 0.322266 0.113129
0.981903 0.322632 0.112976
0.076416 0.377838 0.109375
0.083984 0.377289 0.108246
0.095062 0.379364 0.111664
0.110779 0.379333 0.112885
0.130035 0.377106 0.112366
0.147980 0.375519 0.112457
0.166840 0.371948 0.111237
0.186310 0.370605 0.110535
0.204620 0.373840 0.111084
0.226501 0.381744 0.111633
0.282562 0.394257 0.111938
0.344391 0.411224 0.113312
0.415405 0.431580 0.116180
0.496429 0.455963 0.120392
0.551239 0.457306 0.121124
0.576721 0.429749 0.116608
0.609039 0.408844 0.113617
0.636932 0.386963 0.110748
0.649933 0.366913 0.108154
0.674652 0.355286 0.107147
0.705719 0.348175 0.107147
0.737091 0.342072 0.107086
0.768341 0.336884 0.106964
0.799011 0.332062 0.107574
0.828735 0.328949 0.108002
0.857574 0.329224 0.109375
0.885925 0.332123 0.110687
0.914398 0.334900 0.113159
0.937683 0.337067 0.114685
0.949097 0.337708 0.114838
0.959442 0.338165 0.115021
0.967102 0.338440 0.114990
0.974701 0.338776 0.114838
0.982300 0.339081 0.114716
0.076538 0.408752 0.112061
0.084167 0.408264 0.111511
0.094788 0.410004 0.114532
0.108276 0.410645 0.116516
0.126831 0.408844 0.115906
0.145111 0.406738 0.115906
0.163666 0.404968 0.115326
0.183350 0.401093 0.114075
0.201965 0.402954 0.114075
0.219788 0.408997 0.115021
0.265472 0.417999 0.114532
0.323547 0.433563 0.116333
0.389221 0.451996 0.118622
0.463318 0.473328 0.122040
0.542267 0.497314 0.127075
0.587891 0.490906 0.126892
0.610199 0.461609 0.121246
0.645782 0.444336 0.118896
0.681305 0.421295 0.115753
0.689545 0.397827 0.112152
0.709412 0.383881 0.110748
0.736298 0.375488 0.110352
0.766876 0.367981 0.110321
0.797150 0.361603 0.110382
0.827118 0.356049 0.110779
0.856781 0.351562 0.111206
0.885559 0.348663 0.112183
0.913666 0.351379 0.114349
0.937836 0.353668 0.115906
0.949280 0.354156 0.116638
0.959778 0.354614 0.116821
0.967407 0.354980 0.116760
0.975006 0.355286 0.116638
0.982605 0.355652 0.116425
0.076660 0.439331 0.115417
0.084229 0.438812 0.114807
0.094330 0.440216 0.117401
0.105377 0.441956 0.120758
0.123810 0.440277 0.120728
0.140778 0.438599 0.120514
0.159546 0.439880 0.119995
0.180237 0.433258 0.118347
0.199738 0.432007 0.117218
0.217712 0.436218 0.118195
0.251526 0.444305 0.118896
0.305420 0.456146 0.119049
0.366821 0.472900 0.121552
0.435699 0.492279 0.124359
0.511597 0.514709 0.129272
0.587006 0.537476 0.134827
0.623138 0.522919 0.131958
0.645142 0.494965 0.126953
0.680634 0.478180 0.124359
0.715332 0.455536 0.121155
0.731720 0.427948 0.116913
0.743439 0.411377 0.113983
0.766205 0.401428 0.113617
0.795380 0.393311 0.113403
0.824951 0.385651 0.113495
0.854370 0.378876 0.114044
0.883575 0.373444 0.114532
0.912445 0.369171 0.115906
0.937958 0.370178 0.117645
0.949402 0.370697 0.117981
0.960052 0.371185 0.118286
0.967682 0.371490 0.118164
0.975281 0.371826 0.117889
0.982941 0.372070 0.118042
0.076721 0.469421 0.118958
0.084259 0.468903 0.118866
0.094055 0.470184 0.120605
0.105011 0.471771 0.123627
0.119324 0.471802 0.125275
0.137848 0.469513 0.125000
0.154663 0.474518 0.126099
0.176758 0.465393 0.123077
0.195648 0.461884 0.121277
0.214508 0.464203 0.121887
0.236511 0.470703 0.122375
0.289307 0.479980 0.122925
0.347168 0.494873 0.124664
0.412048 0.512726 0.127106
0.483917 0.532532 0.131500
0.559967 0.554962 0.136688
0.629547 0.575714 0.142639
0.656799 0.553467 0.137878
0.678253 0.526642 0.131958
0.712677 0.510864 0.129944
0.745880 0.488586 0.126282
0.770966 0.461823 0.122742
0.778931 0.437469 0.118439
0.796387 0.426575 0.117432
0.823029 0.417328 0.116913
0.851959 0.408691 0.117279
0.880798 0.400696 0.117645
0.909485 0.394287 0.118561
0.938049 0.388916 0.119171
0.949493 0.388672 0.119629
0.960419 0.388702 0.119904
0.968018 0.388184 0.119781
0.975616 0.388184 0.119354
0.983185 0.388580 0.119080
0.076630 0.499237 0.122681
0.084259 0.498535 0.122559
0.093719 0.499268 0.124237
0.104614 0.501068 0.127441
0.115540 0.502289 0.129944
0.133545 0.500366 0.130005
0.150726 0.504425 0.130798
0.171173 0.499878 0.129272
0.192383 0.492767 0.126221
0.212128 0.492035 0.125366
0.230225 0.497070 0.126831
0.276917 0.505219 0.126923
0.331024 0.516602 0.127930
0.392151 0.532684 0.130463
0.459717 0.550903 0.133789
0.531982 0.571320 0.138519
0.606598 0.593658 0.145111
0.662598 0.603943 0.148834
0.688660 0.582397 0.143768
0.708954 0.556824 0.137726
0.742859 0.542053 0.135559
0.775177 0.520508 0.132507
0.806183 0.495239 0.128571
0.816162 0.469635 0.124542
0.827942 0.452026 0.121826
0.849731 0.439941 0.120819
0.877991 0.430389 0.120636
0.906372 0.421387 0.120972
0.934753 0.413696 0.121735
0.949646 0.411438 0.122284
0.960846 0.411255 0.122192
0.968414 0.410400 0.122040
0.975983 0.409698 0.121582
0.983582 0.408936 0.121552
0.076721 0.528351 0.126831
0.084320 0.527832 0.126526
0.093262 0.528442 0.127930
0.104279 0.529999 0.130371
0.115173 0.531281 0.133698
0.129059 0.530914 0.135223
0.147888 0.530182 0.134766
0.165497 0.533905 0.135345
0.187225 0.524414 0.132141
0.208710 0.520477 0.129944
0.227661 0.523254 0.130859
0.264618 0.530823 0.131561
0.316742 0.539642 0.132233
0.374695 0.554291 0.134003
0.438965 0.571075 0.137207
0.508667 0.589661 0.141357
0.580536 0.610016 0.146851
0.650360 0.631226 0.153748
0.694000 0.631104 0.154694
0.717468 0.609406 0.149475
0.738281 0.585724 0.143860
0.771332 0.571777 0.141327
0.803131 0.551331 0.138306
0.835999 0.527222 0.134735
0.851074 0.501923 0.130707
0.858704 0.483002 0.127319
0.875458 0.467804 0.125702
0.903351 0.453827 0.124725
0.931366 0.440552 0.124451
0.949585 0.435852 0.124512
0.961060 0.435120 0.124634
0.968811 0.434082 0.124512
0.976410 0.432983 0.124268
0.984009 0.431854 0.124084
0.076660 0.557587 0.131104
0.084351 0.557129 0.130585
0.092896 0.557434 0.131256
0.103851 0.558960 0.134460
0.114716 0.560150 0.137512
0.125641 0.560974 0.140381
0.142822 0.559052 0.140564
0.159180 0.567505 0.142151
0.182037 0.557800 0.138611
0.204346 0.550842 0.135468
0.224304 0.550507 0.135712
0.253448 0.556946 0.136383
0.306000 0.564880 0.136139
0.360657 0.576904 0.137939
0.422119 0.592285 0.140930
0.489044 0.609467 0.144684
0.558685 0.627991 0.149506
0.628357 0.648193 0.156219
0.691620 0.666779 0.162811
0.724030 0.657288 0.160706
0.742523 0.633392 0.154144
0.766296 0.613586 0.149445
0.798492 0.600311 0.147583
0.830048 0.581421 0.144043
0.862213 0.558044 0.141113
0.883026 0.533142 0.137146
0.889709 0.514008 0.132935
0.903442 0.497833 0.130737
0.927856 0.483948 0.130096
0.949585 0.472229 0.129364
0.961029 0.467316 0.128815
0.969299 0.463470 0.128357
0.976837 0.459656 0.127502
0.984314 0.456207 0.126617
0.076721 0.587067 0.135712
0.084259 0.586517 0.135620
0.092438 0.586487 0.135986
0.103333 0.588165 0.138947
0.114288 0.589325 0.141571
0.125153 0.590027 0.144684
0.136505 0.590149 0.147278
0.152588 0.600891 0.149811
0.174713 0.591766 0.146240
0.198090 0.583069 0.142548
0.219452 0.579681 0.140686
0.241974 0.583801 0.141541
0.296143 0.591095 0.141235
0.348724 0.600616 0.142487
0.408508 0.615021 0.145142
0.472900 0.630554 0.148499
0.539856 0.647400 0.153198
0.607788 0.666016 0.158691
0.674438 0.685150 0.165741
0.730011 0.700989 0.172028
0.752716 0.682861 0.166840
0.766632 0.656464 0.159241
0.793304 0.640778 0.155640
0.824707 0.628113 0.153381
0.855743 0.610687 0.150513
0.887512 0.588501 0.147278
0.912750 0.563660 0.143127
0.920502 0.544708 0.139801
0.931580 0.528076 0.136841
0.949249 0.515076 0.135284
0.960815 0.508179 0.134521
0.969818 0.503723 0.133667
0.977417 0.500366 0.132751
0.984924 0.496277 0.131744
0.076630 0.616730 0.140747
0.084259 0.616516 0.140442
0.091888 0.616028 0.140472
0.102783 0.617462 0.143494
0.113708 0.618683 0.146484
0.124603 0.619507 0.149506
0.135498 0.619843 0.152222
0.145966 0.634552 0.157562
0.167511 0.625793 0.154327
0.190155 0.617645 0.150757
0.214081 0.610626 0.147675
0.233795 0.611725 0.147675
0.288239 0.618195 0.146942
0.340302 0.626373 0.147614
0.397400 0.638550 0.149719
0.459808 0.652985 0.152863
0.524902 0.668427 0.157074
0.590881 0.685028 0.162354
0.655548 0.702209 0.168396
0.716309 0.719971 0.175415
0.758575 0.725311 0.178131
0.780060 0.707611 0.173004
0.790253 0.679260 0.164154
0.819305 0.667542 0.161774
0.849884 0.655334 0.159424
0.880493 0.639252 0.156738
0.912018 0.618225 0.153473
0.925049 0.595947 0.148895
0.936951 0.577759 0.145569
0.948761 0.560974 0.142548
0.960388 0.548950 0.140625
0.970276 0.543427 0.139740
0.977814 0.540527 0.138885
0.985382 0.537018 0.138184
0.076538 0.646484 0.146576
0.084167 0.646301 0.145966
0.091766 0.645905 0.145874
0.102264 0.647003 0.148529
0.113129 0.648315 0.151337
0.124023 0.648987 0.154510
0.134979 0.649628 0.157074
0.145294 0.666351 0.163361
0.157379 0.660614 0.163666
0.181427 0.652283 0.159729
0.205536 0.644653 0.156158
0.228271 0.641388 0.154755
0.281189 0.646118 0.153198
0.333801 0.653412 0.153168
0.388519 0.663330 0.154785
0.449554 0.676636 0.157959
0.512695 0.690948 0.161682
0.576935 0.705841 0.166626
0.640564 0.721619 0.172180
0.701599 0.738495 0.178955
0.754517 0.753174 0.185333
0.785950 0.749054 0.184570
0.803314 0.729828 0.178284
0.815857 0.704498 0.170258
0.844330 0.693817 0.168091
0.874054 0.682129 0.165985
0.904266 0.667450 0.163269
0.923950 0.647491 0.159088
0.935974 0.627197 0.154602
0.947937 0.610199 0.150940
0.959717 0.593872 0.148010
0.970581 0.581940 0.145874
0.978119 0.579224 0.145081
0.985718 0.576355 0.144287
0.076447 0.676422 0.152313
0.084076 0.676147 0.151917
0.091614 0.675781 0.151825
0.101654 0.676605 0.153992
0.112518 0.677887 0.156677
0.123413 0.678711 0.159698
0.134338 0.679321 0.162567
0.144562 0.698090 0.169525
0.155609 0.692780 0.170258
0.170715 0.687317 0.170227
0.195190 0.680054 0.166138
0.219910 0.673920 0.163361
0.275360 0.674927 0.159729
0.328613 0.681335 0.159821
0.382477 0.689362 0.160797
0.441803 0.701721 0.163818
0.503571 0.714203 0.167084
0.566284 0.728271 0.171356
0.628601 0.742737 0.176788
0.688263 0.757446 0.182800
0.744385 0.773041 0.189423
0.790070 0.785492 0.195496
0.811981 0.772705 0.190948
0.825134 0.751007 0.183380
0.840881 0.730103 0.176727
0.868469 0.719696 0.174622
0.897339 0.708466 0.172424
0.922699 0.694641 0.169830
0.934875 0.674957 0.164459
0.946960 0.656799 0.160217
0.958832 0.640686 0.156677
0.970673 0.625397 0.153320
0.978302 0.616272 0.151093
0.985931 0.614288 0.150452
0.076355 0.706390 0.158600
0.083923 0.706177 0.158386
0.091522 0.705963 0.158203
0.100922 0.706390 0.159851
0.111877 0.707642 0.162750
0.122772 0.708557 0.165497
0.133453 0.714508 0.169617
0.143799 0.729523 0.176514
0.154755 0.724487 0.177429
0.165863 0.720490 0.178680
0.183044 0.715607 0.177765
0.214600 0.708832 0.173248
0.272797 0.705322 0.167328
0.325409 0.710175 0.167053
0.378754 0.716827 0.167480
0.437012 0.727753 0.170074
0.497375 0.739288 0.173004
0.558960 0.751923 0.177185
0.619629 0.764862 0.182251
0.678650 0.778839 0.187683
0.733826 0.792694 0.193939
0.782990 0.806183 0.200409
0.818237 0.811127 0.203186
0.835938 0.795532 0.197601
0.846527 0.772461 0.188995
0.864868 0.755157 0.183380
0.891479 0.745331 0.181396
0.919586 0.734650 0.178955
0.933655 0.718384 0.174561
0.945770 0.701324 0.169861
0.957794 0.685089 0.165985
0.969757 0.670471 0.162170
0.978485 0.657745 0.158966
0.986084 0.650269 0.157166
0.076202 0.736755 0.165558
0.083832 0.736725 0.165253
0.091370 0.736359 0.165009
0.100189 0.736603 0.166199
0.111084 0.737946 0.169067
0.121979 0.738831 0.171936
0.132355 0.753967 0.178680
0.142944 0.760712 0.183502
0.154022 0.756134 0.184418
0.164948 0.752686 0.185852
0.175964 0.749512 0.187744
0.215179 0.744385 0.184021
0.272156 0.738373 0.176544
0.324310 0.739960 0.174744
0.378021 0.745880 0.175171
0.435120 0.755127 0.176941
0.494873 0.765686 0.179932
0.555054 0.777435 0.183838
0.614502 0.789337 0.188568
0.672028 0.801697 0.193787
0.726166 0.814331 0.199432
0.776093 0.827240 0.205627
0.817230 0.837830 0.211243
0.842438 0.833832 0.210083
0.856079 0.816101 0.203308
0.867432 0.793945 0.194794
0.887726 0.780304 0.190491
0.913483 0.770844 0.188263
0.932434 0.756714 0.184052
0.944611 0.741364 0.179504
