test for zink/14.Food-TFTzi 75%.cube
#Created by: Adobe Photoshop Export Color Lookup Plugin
#Copyright: (C) Copyright 2026 汉图
TITLE "mint本征源文件-适配lut筛选.psd"
#LUT size
LUT_3D_SIZE 7
#data domain
#LUT data points
DOMAIN_MIN 0.000000 0.000000 0.000000
DOMAIN_MAX 0.909091 0.909091 0.909091
0.073456 0.073914 0.090576
0.163086 0.074951 0.094910
0.336853 0.077118 0.093506
0.524750 0.081299 0.091064
0.706390 0.093140 0.087036
0.857971 0.113525 0.083801
0.949402 0.124573 0.087128
0.074738 0.143982 0.097137
0.161224 0.148102 0.097321
0.325592 0.155121 0.095764
0.519073 0.165314 0.094421
0.704987 0.180115 0.093689
0.859894 0.196442 0.096069
0.954956 0.206116 0.099884
0.075806 0.280670 0.101776
0.155151 0.275909 0.103424
0.354797 0.326813 0.105957
0.527557 0.270142 0.099945
0.705322 0.265198 0.100342
0.857605 0.279236 0.104797
0.958130 0.288605 0.109894
0.076660 0.439331 0.115417
0.140778 0.438599 0.120514
0.251526 0.444305 0.118896
0.587006 0.537476 0.134827
0.731720 0.427948 0.116913
0.854370 0.378876 0.114044
0.960052 0.371185 0.118286
0.076721 0.587067 0.135712
0.125153 0.590027 0.144684
0.219452 0.579681 0.140686
0.472900 0.630554 0.148499
0.752716 0.682861 0.166840
0.887512 0.588501 0.147278
0.960815 0.508179 0.134521
0.076202 0.736755 0.165558
0.121979 0.738831 0.171936
0.175964 0.749512 0.187744
0.435120 0.755127 0.176941
0.726166 0.814331 0.199432
0.867432 0.793945 0.194794
0.956665 0.726746 0.175354
0.074677 0.928986 0.225586
0.115875 0.921417 0.224060
0.192017 0.928162 0.255981
0.484222 0.912476 0.228638
0.729279 0.942352 0.240356
0.885620 0.966248 0.253967
0.950378 0.895905 0.222992
0.076141 0.075684 0.221863
0.167938 0.076782 0.225342
0.366516 0.078186 0.224823
0.569550 0.083740 0.204895
0.712891 0.094269 0.193878
0.862640 0.115326 0.182953
0.949799 0.125946 0.178650
0.075500 0.145996 0.212708
0.164825 0.149933 0.212128
0.321533 0.154572 0.201355
0.529022 0.166412 0.193573
0.731262 0.183533 0.188416
0.900055 0.203918 0.186188
0.955292 0.207397 0.187531
0.075897 0.307648 0.205658
0.157959 0.298645 0.210449
0.297424 0.307739 0.206482
0.549744 0.279755 0.197144
0.734436 0.268463 0.194092
0.901306 0.286407 0.195190
0.958557 0.289886 0.195312
0.077179 0.458344 0.211578
0.143005 0.458771 0.219879
0.241455 0.444183 0.213837
0.563568 0.526459 0.217987
0.741791 0.439911 0.206940
0.906799 0.370697 0.201813
0.960602 0.372467 0.202393
0.078186 0.600311 0.223480
0.128571 0.604370 0.234558
0.224731 0.588776 0.228607
0.456696 0.624268 0.229492
0.751160 0.685516 0.240997
0.883423 0.595520 0.225586
0.963226 0.525116 0.217407
0.078644 0.744202 0.242920
0.126434 0.747223 0.251160
0.180298 0.757874 0.265198
0.423981 0.750519 0.250671
0.718292 0.809601 0.264679
0.869598 0.797119 0.262726
0.960419 0.734192 0.248566
0.078522 0.914551 0.283386
0.121460 0.928040 0.291656
0.191742 0.928833 0.317230
0.478607 0.912903 0.293701
0.725952 0.940918 0.300903
0.889374 0.967987 0.313354
0.954529 0.900360 0.287201
0.078003 0.081238 0.389587
0.165955 0.084320 0.401337
0.370239 0.080841 0.393799
0.579163 0.086395 0.403015
0.802887 0.112549 0.391785
0.906097 0.125641 0.354340
0.949799 0.127380 0.334991
0.078186 0.151398 0.385193
0.165222 0.156189 0.386414
0.321930 0.157318 0.377594
0.557220 0.169708 0.374176
0.774719 0.190186 0.360657
0.910248 0.206757 0.354645
0.955383 0.208954 0.347168
0.078888 0.330963 0.352692
0.155060 0.339600 0.357910
0.266968 0.317535 0.352356
0.512726 0.262909 0.326324
0.716400 0.266724 0.311371
0.884766 0.284515 0.303040
0.958832 0.291077 0.317566
0.078003 0.504150 0.327545
0.135162 0.512421 0.341888
0.243561 0.477081 0.332825
0.509888 0.510468 0.326447
0.728638 0.444702 0.309265
0.881653 0.374512 0.293854
0.960815 0.373657 0.299408
0.079285 0.634216 0.326996
0.131409 0.638519 0.339813
0.221893 0.625793 0.335236
0.411865 0.614746 0.329163
0.742523 0.688141 0.327576
0.875732 0.604187 0.313324
0.963959 0.547241 0.310394
0.080231 0.761719 0.333801
0.129883 0.765320 0.343903
0.183624 0.776947 0.355103
0.386536 0.744965 0.338684
0.692261 0.798096 0.340790
0.868011 0.799561 0.338898
0.963959 0.744690 0.332916
0.080963 0.907898 0.357269
0.125732 0.940216 0.369690
0.180206 0.930756 0.377808
0.447510 0.917450 0.372009
0.705627 0.933319 0.369843
0.888947 0.965057 0.377228
0.958099 0.906586 0.358887
0.079590 0.088837 0.563599
0.143646 0.101532 0.570740
0.374451 0.092438 0.619232
0.587372 0.091736 0.577698
0.782867 0.112579 0.594910
0.908447 0.129364 0.585541
0.947296 0.130249 0.562744
0.079590 0.159058 0.559906
0.134735 0.178680 0.585480
0.276855 0.166809 0.572723
0.562683 0.187164 0.559875
0.769836 0.192108 0.570923
0.915253 0.209503 0.556244
0.953339 0.211151 0.562653
0.083923 0.343811 0.556702
0.138641 0.358032 0.567444
0.255554 0.305420 0.552032
0.525421 0.330475 0.535004
0.737091 0.283783 0.525055
0.906311 0.288696 0.497894
0.957916 0.292389 0.497314
0.082306 0.527924 0.498657
0.137054 0.541687 0.510834
0.234619 0.544922 0.517212
0.465912 0.507599 0.497040
0.704010 0.423462 0.460419
0.870178 0.365845 0.437439
0.960449 0.374634 0.457611
0.080414 0.676575 0.460266
0.135132 0.685455 0.473480
0.199341 0.694794 0.482910
0.390381 0.638519 0.454285
0.725037 0.687256 0.446014
0.867889 0.610321 0.431396
0.964111 0.560059 0.433777
0.081543 0.794037 0.445404
0.133270 0.798584 0.456787
0.186981 0.814240 0.467590
0.322998 0.772552 0.442719
0.644745 0.780579 0.439758
0.862366 0.799438 0.430206
0.965698 0.756134 0.436951
0.082703 0.922272 0.449402
0.130798 0.925446 0.457977
0.183868 0.953735 0.470764
0.338287 0.929413 0.469788
0.658722 0.919739 0.454193
0.878357 0.955627 0.449799
0.961395 0.912628 0.439606
0.077881 0.100037 0.720886
0.131958 0.117584 0.732819
0.284088 0.123901 0.801453
0.615784 0.106995 0.770935
0.763702 0.122955 0.735229
0.907898 0.159698 0.758636
0.951385 0.197968 0.748535
0.079102 0.169464 0.719055
0.133698 0.190247 0.748199
0.216827 0.195099 0.742645
0.569427 0.185089 0.759155
0.753571 0.234161 0.728180
0.913544 0.237610 0.748505
0.954956 0.275055 0.734344
0.087799 0.339691 0.719177
0.142548 0.358032 0.727173
0.221283 0.318024 0.734863
0.483673 0.274841 0.727509
0.729675 0.377991 0.708435
0.917633 0.314697 0.716583
0.957581 0.346771 0.706909
0.089569 0.553589 0.713104
0.144287 0.565216 0.721405
0.199066 0.571808 0.746948
0.435913 0.479645 0.696442
0.699066 0.533020 0.683472
0.881195 0.425781 0.666779
0.959503 0.404785 0.658356
0.086456 0.691864 0.640808
0.141144 0.702362 0.650787
0.195984 0.733246 0.678955
0.385193 0.696075 0.659698
0.694702 0.680878 0.634521
0.861420 0.591675 0.596405
0.963226 0.560089 0.603912
0.083740 0.825562 0.597534
0.138397 0.832977 0.607910
0.192444 0.866852 0.625214
0.314026 0.831116 0.603088
0.599915 0.782379 0.585114
0.855255 0.801422 0.555359
0.965515 0.766327 0.572357
0.084259 0.944916 0.566467
0.135223 0.949371 0.575745
0.189331 0.952026 0.587402
0.242310 0.964081 0.588226
0.579712 0.925476 0.566650
0.849304 0.940918 0.543427
0.965027 0.918976 0.533508
0.073456 0.118958 0.864685
0.123840 0.136871 0.889771
0.179871 0.171478 0.939148
0.567474 0.136169 0.931702
0.800812 0.154480 0.927124
0.902435 0.177185 0.904968
0.954987 0.361145 0.891815
0.075592 0.184357 0.871643
0.129852 0.205139 0.893555
0.183594 0.224762 0.913300
0.492859 0.210815 0.939148
0.787201 0.264862 0.917816
0.910980 0.283325 0.898468
0.956879 0.474060 0.894745
0.091370 0.351257 0.875305
0.146118 0.369659 0.881653
0.196899 0.336578 0.906525
0.395935 0.283844 0.889771
0.752014 0.366272 0.903137
0.905975 0.425262 0.881104
0.958008 0.540710 0.884491
0.095398 0.543304 0.873230
0.150177 0.557404 0.879669
0.205048 0.552979 0.911530
0.396362 0.473511 0.874725
0.694031 0.476135 0.878326
0.883087 0.572021 0.860870
0.959229 0.600616 0.866333
0.096497 0.728912 0.867767
0.151245 0.738068 0.874420
0.206635 0.759460 0.902161
0.277008 0.713501 0.893127
0.633972 0.640839 0.842804
0.862396 0.692230 0.840851
0.960785 0.657257 0.832520
0.091766 0.834167 0.787109
0.146515 0.842529 0.794922
0.200500 0.849976 0.801941
0.258881 0.866577 0.835388
0.588135 0.832764 0.809784
0.846436 0.813446 0.783447
0.963684 0.768280 0.760559
0.088196 0.952393 0.736908
0.142944 0.960052 0.745605
0.196899 0.967346 0.753082
0.250793 0.974609 0.764160
0.487061 0.962860 0.729919
0.790222 0.929077 0.705078
0.965485 0.923553 0.681091
0.073456 0.141998 0.968201
0.126740 0.158264 0.977173
0.183319 0.175720 0.977173
0.498322 0.140350 0.972778
0.760712 0.191711 0.973358
0.910034 0.304871 0.977173
0.948456 0.371063 0.977173
0.080841 0.209747 0.977173
0.139282 0.229614 0.977173
0.194427 0.243927 0.977173
0.424622 0.224365 0.977173
0.737091 0.275055 0.977173
0.906738 0.417969 0.977173
0.948730 0.471436 0.977173
0.108612 0.372437 0.977173
0.168152 0.390503 0.977173
0.220154 0.368378 0.977173
0.329010 0.327332 0.977173
0.691833 0.361694 0.977173
0.901154 0.534241 0.977173
0.949036 0.579529 0.977173
0.123383 0.552155 0.977173
0.186279 0.566254 0.977173
0.243439 0.550232 0.977173
0.369354 0.506744 0.977173
0.615295 0.448669 0.977173
0.885498 0.613708 0.977173
0.949432 0.680603 0.977173
0.138214 0.712769 0.977173
0.205933 0.720978 0.977173
0.271729 0.726501 0.977173
0.339569 0.698273 0.977173
0.602509 0.632904 0.977173
0.852966 0.681213 0.977173
0.950165 0.773132 0.977173
0.165558 0.868805 0.977173
0.243835 0.872742 0.977173
0.319458 0.875916 0.977173
0.376434 0.854980 0.977173
0.574493 0.822510 0.977173
0.796143 0.788605 0.977173
0.951569 0.856873 0.977173
0.098724 0.957214 0.934967
0.153473 0.964844 0.941437
0.207458 0.972168 0.947723
0.279449 0.977173 0.973969
0.538513 0.969330 0.977173
0.776917 0.956573 0.973877
0.959137 0.942810 0.964447
