test for zink/14.Food-TFTzi 75%.cube
#Created by: Adobe Photoshop Export Color Lookup Plugin
#Copyright: (C) Copyright 2026 汉图
TITLE "mint本征源文件-适配lut筛选.psd"
#LUT size
LUT_3D_SIZE 4
#data domain
DOMAIN_MIN 0.0 0.0 0.0
DOMAIN_MAX 1.0 1.0 1.0
#LUT data points
0.073456 0.073914 0.090576
0.373016 0.077881 0.093048
0.769867 0.101044 0.085663
0.972321 0.125549 0.086792
0.076172 0.314270 0.104370
0.400818 0.369812 0.109589
0.768616 0.287567 0.102783
0.981506 0.306061 0.111420
0.076538 0.646484 0.146576
0.228271 0.641388 0.154755
0.803314 0.729828 0.178284
0.985718 0.576355 0.144287
0.077301 0.982666 0.245850
0.399261 0.994843 0.267090
0.802124 0.994141 0.260223
0.983734 0.948334 0.239868
0.078278 0.082642 0.424011
0.412842 0.082642 0.430267
0.874695 0.124176 0.425751
0.972412 0.128784 0.365112
0.079559 0.370819 0.381561
0.302887 0.356445 0.381317
0.782623 0.290039 0.334106
0.982147 0.308746 0.340668
0.079926 0.691467 0.350952
0.230957 0.685455 0.360016
0.796844 0.734863 0.349701
0.987488 0.618896 0.334839
0.081818 0.983704 0.394318
0.313721 1.000000 0.435852
0.797028 0.997406 0.410492
0.987793 0.954956 0.388763
0.075897 0.106049 0.781128
0.315399 0.135468 0.870392
0.832916 0.145233 0.802704
0.976807 0.260010 0.807556
0.090179 0.382721 0.781189
0.215393 0.360809 0.801849
0.798126 0.427277 0.773621
0.981476 0.425446 0.771332
0.088379 0.750854 0.698730
0.208984 0.789276 0.739716
0.757660 0.730988 0.691315
0.986481 0.637451 0.658997
0.084869 0.985046 0.610748
0.202515 1.000000 0.637024
0.705994 0.999786 0.643646
0.988464 0.973328 0.611755
0.073456 0.142883 0.993286
0.195801 0.180420 1.000000
0.812347 0.246063 1.000000
0.971466 0.419098 1.000000
0.113556 0.411255 1.000000
0.239197 0.412994 1.000000
0.754456 0.438507 1.000000
0.972137 0.636322 1.000000
0.143799 0.750031 1.000000
0.291595 0.758820 1.000000
0.706635 0.716888 1.000000
0.974670 0.841034 1.000000
0.100861 0.992310 0.987946
0.269073 1.000000 0.993500
0.730011 0.992035 1.000000
1.000000 1.000000 1.000000
