test for zink/18.Scenery-qinglansediao.cube
#Created by: Adobe Photoshop Export Color Lookup Plugin
#Copyright: (C) Copyright 2026 小米
TITLE "风景-青蓝色2"
#LUT size
LUT_3D_SIZE 6
#data domain
DOMAIN_MIN 0.0 0.0 0.0
DOMAIN_MAX 1.0 1.0 1.0
#LUT data points
0.045380 0.045380 0.045380
0.219971 0.045380 0.052643
0.496277 0.045380 0.059357
0.816162 0.045380 0.093781
0.998444 0.045380 0.161194
1.000000 0.045380 0.251160
0.045380 0.257019 0.052673
0.207642 0.240601 0.048523
0.533478 0.254730 0.045380
0.839355 0.235840 0.048340
0.999634 0.180542 0.146088
1.000000 0.172821 0.247955
0.045380 0.619934 0.126495
0.045380 0.603699 0.155731
0.494354 0.553986 0.076843
0.868866 0.565979 0.045380
1.000000 0.494568 0.068939
1.000000 0.450592 0.231323
0.045380 0.901276 0.335388
0.045380 0.896820 0.357849
0.362183 0.876556 0.333618
0.755585 0.830994 0.229736
0.996002 0.794647 0.151611
1.000000 0.688690 0.260742
0.218231 0.990845 0.626801
0.338715 0.989014 0.637299
0.514038 0.983887 0.655151
0.689117 0.974365 0.598389
0.897461 0.956543 0.506012
1.000000 0.929199 0.466980
0.683411 1.000000 0.824921
0.702301 1.000000 0.829407
0.755127 1.000000 0.844208
0.812592 1.000000 0.843231
0.886017 1.000000 0.828278
0.975037 1.000000 0.819855
0.045380 0.051453 0.244873
0.214081 0.045380 0.221588
0.440033 0.045380 0.231140
0.748535 0.045380 0.269318
0.978790 0.045380 0.299377
1.000000 0.045380 0.356873
0.045380 0.237061 0.230957
0.207733 0.218903 0.218903
0.453461 0.217773 0.235840
0.768219 0.191650 0.261230
0.986359 0.150055 0.295288
1.000000 0.199646 0.354401
0.045380 0.566711 0.343048
0.045380 0.560089 0.305634
0.468933 0.514465 0.271454
0.834778 0.515472 0.234955
0.997467 0.475464 0.274506
1.000000 0.454346 0.345825
0.045380 0.882355 0.469238
0.045380 0.878754 0.457794
0.407104 0.860443 0.455170
0.746368 0.813751 0.360474
0.990051 0.780365 0.315979
1.000000 0.690826 0.368744
0.398468 0.986023 0.686676
0.445618 0.984436 0.689270
0.579956 0.979706 0.711761
0.719391 0.970795 0.666382
0.899811 0.953308 0.578522
1.000000 0.927124 0.535767
0.712524 1.000000 0.843658
0.731415 1.000000 0.848694
0.776917 1.000000 0.860748
0.829956 1.000000 0.863373
0.893219 1.000000 0.846558
0.976349 1.000000 0.836670
0.045380 0.064911 0.577057
0.198761 0.045380 0.548737
0.487122 0.045380 0.489594
0.719086 0.045380 0.460327
0.957581 0.045380 0.486481
1.000000 0.070679 0.513367
0.045380 0.308868 0.526154
0.088837 0.252838 0.511261
0.465302 0.242004 0.469788
0.709686 0.246124 0.454254
0.951935 0.206970 0.486450
1.000000 0.264038 0.520477
0.045380 0.535461 0.520569
0.045380 0.511017 0.499939
0.436432 0.446777 0.446777
0.723145 0.445770 0.462372
0.952881 0.456329 0.495758
1.000000 0.493896 0.547821
0.135162 0.853455 0.654663
0.361877 0.838348 0.653534
0.506592 0.823151 0.626038
0.735107 0.779633 0.558472
0.973358 0.747955 0.536011
1.000000 0.711151 0.571411
0.625946 0.975555 0.808411
0.639038 0.974915 0.804291
0.681915 0.972656 0.797302
0.779999 0.964691 0.787354
0.907959 0.947876 0.717743
1.000000 0.925385 0.683899
0.794464 1.000000 0.894989
0.799835 1.000000 0.894287
0.823883 1.000000 0.897430
0.871552 1.000000 0.908813
0.915649 1.000000 0.895111
0.981079 1.000000 0.883087
0.045380 0.128113 0.863464
0.045380 0.104279 0.853455
0.502625 0.047485 0.825684
0.781555 0.045380 0.778625
0.943787 0.111328 0.708893
1.000000 0.301697 0.689728
0.045380 0.354279 0.838257
0.045380 0.294067 0.832703
0.476440 0.279114 0.808655
0.766449 0.262238 0.764893
0.935974 0.293610 0.702667
1.000000 0.389404 0.697296
0.045380 0.585632 0.809082
0.045380 0.567200 0.796387
0.409058 0.506897 0.772980
0.730804 0.491211 0.733154
0.915039 0.511139 0.694244
1.000000 0.546082 0.716827
0.045380 0.823090 0.804260
0.045380 0.812103 0.795258
0.447327 0.777679 0.766541
0.683105 0.692719 0.692688
0.910919 0.700012 0.712128
1.000000 0.728851 0.750458
0.601654 0.974701 0.872711
0.648071 0.971771 0.874603
0.748718 0.962799 0.878479
0.820984 0.954773 0.870453
0.910889 0.935791 0.827301
1.000000 0.915619 0.810913
0.860962 1.000000 0.943634
0.871857 1.000000 0.945404
0.887390 1.000000 0.945404
0.907990 1.000000 0.945343
0.941559 1.000000 0.945099
0.987091 1.000000 0.933716
0.045380 0.208008 0.982117
0.045380 0.207031 0.979919
0.364655 0.208984 0.972931
0.720886 0.231812 0.959747
0.943878 0.258911 0.939697
1.000000 0.340332 0.886383
0.045380 0.365112 0.976379
0.045380 0.344055 0.974609
0.361755 0.347595 0.967804
0.717255 0.362854 0.954590
0.939178 0.381653 0.935699
1.000000 0.431671 0.884460
0.045380 0.599640 0.962585
0.045380 0.596863 0.959839
0.395599 0.572876 0.955078
0.717834 0.577667 0.942566
0.924713 0.576782 0.923584
1.000000 0.598755 0.880493
0.045380 0.802338 0.951019
0.045380 0.799622 0.948303
0.445099 0.789948 0.939941
0.706726 0.763367 0.926117
0.902924 0.749817 0.905426
1.000000 0.767395 0.880585
0.398376 0.961121 0.948059
0.466095 0.958466 0.946228
0.609772 0.951019 0.941071
0.762421 0.934570 0.928467
0.872620 0.880035 0.880035
1.000000 0.893188 0.899353
0.806702 1.000000 0.961823
0.825714 1.000000 0.963440
0.875916 1.000000 0.968933
0.933807 1.000000 0.977203
0.965820 1.000000 0.981079
0.993073 1.000000 0.975494
0.045380 0.263306 1.000000
0.045380 0.267120 1.000000
0.103882 0.281464 1.000000
0.588776 0.314575 1.000000
0.851776 0.380859 1.000000
1.000000 0.445953 1.000000
0.045380 0.357635 1.000000
0.045380 0.359680 1.000000
0.110016 0.371613 1.000000
0.592773 0.398254 1.000000
0.852081 0.452850 1.000000
1.000000 0.508148 1.000000
0.045380 0.570435 1.000000
0.045380 0.586456 1.000000
0.265900 0.557983 1.000000
0.619354 0.575684 1.000000
0.859100 0.614929 1.000000
1.000000 0.658356 1.000000
0.045380 0.722290 1.000000
0.045380 0.721161 1.000000
0.208130 0.730316 1.000000
0.674957 0.771271 1.000000
0.876282 0.793762 1.000000
0.998749 0.809235 0.999115
0.081207 0.912018 1.000000
0.283264 0.913147 1.000000
0.522247 0.916626 1.000000
0.728546 0.920746 1.000000
0.898407 0.925934 1.000000
0.993896 0.925873 0.996674
0.689911 1.000000 1.000000
0.725922 1.000000 1.000000
0.804443 1.000000 1.000000
0.894745 1.000000 1.000000
0.965179 1.000000 1.000000
1.000000 1.000000 1.000000
