test for zink/18.Scenery-qinglansediao.cube
#Created by: Adobe Photoshop Export Color Lookup Plugin
#Copyright: (C) Copyright 2026 小米
TITLE "风景-青蓝色2"
#LUT size
LUT_3D_SIZE 8
#data domain
DOMAIN_MIN 0.0 0.0 0.0
DOMAIN_MAX 1.0 1.0 1.0
#LUT data points
0.045380 0.045380 0.045380
0.147766 0.045746 0.051544
0.331177 0.045380 0.054504
0.540924 0.045380 0.061859
0.773926 0.045380 0.086182
0.947083 0.045380 0.129150
1.000000 0.045380 0.184082
1.000000 0.045380 0.251160
0.045380 0.174957 0.049500
0.141418 0.168304 0.047241
0.353851 0.177094 0.045380
0.559235 0.168243 0.045380
0.783875 0.127808 0.061157
0.951843 0.072021 0.115723
1.000000 0.045380 0.177856
1.000000 0.057922 0.248169
0.045380 0.391541 0.078918
0.045380 0.381653 0.096985
0.315063 0.357483 0.062286
0.589783 0.389801 0.045380
0.821289 0.377258 0.045380
0.962372 0.349457 0.052277
1.000000 0.318481 0.157135
1.000000 0.305389 0.240631
0.045380 0.679504 0.142426
0.045380 0.670837 0.166351
0.203613 0.646210 0.152985
0.539337 0.603882 0.081970
0.825500 0.627594 0.045380
0.970123 0.560211 0.045380
1.000000 0.516693 0.121124
1.000000 0.484497 0.227722
0.045380 0.877991 0.296204
0.045380 0.876587 0.312256
0.045380 0.866150 0.328033
0.455597 0.842804 0.277771
0.728088 0.803772 0.196625
0.942810 0.795044 0.094299
1.000000 0.720856 0.153168
1.000000 0.655945 0.250732
0.045380 0.965302 0.504761
0.045380 0.963806 0.513031
0.145416 0.959503 0.532532
0.437225 0.951660 0.513855
0.650146 0.937836 0.459381
0.848145 0.916351 0.382874
0.996857 0.904694 0.331573
1.000000 0.842194 0.345215
0.428436 1.000000 0.696838
0.457489 1.000000 0.701355
0.525421 0.999390 0.713806
0.613831 0.996429 0.725952
0.698303 0.992493 0.698273
0.807190 0.986237 0.657654
0.925171 0.976532 0.598114
1.000000 0.970459 0.561188
0.683411 1.000000 0.824921
0.693909 1.000000 0.827301
0.720978 1.000000 0.834320
0.764740 1.000000 0.847046
0.804230 1.000000 0.845154
0.851654 1.000000 0.834961
0.910797 1.000000 0.823944
0.975037 1.000000 0.819855
0.045380 0.050201 0.169281
0.148285 0.045532 0.157135
0.296295 0.046570 0.161469
0.489990 0.045380 0.192078
0.716370 0.045380 0.211670
0.915497 0.045380 0.234802
1.000000 0.045380 0.265839
1.000000 0.045380 0.314117
0.045380 0.168274 0.163727
0.147125 0.158569 0.158569
0.304993 0.159363 0.170227
0.501129 0.149902 0.187592
0.733521 0.095612 0.206207
0.924377 0.049591 0.229340
1.000000 0.045380 0.262848
1.000000 0.079254 0.312164
0.045380 0.362549 0.230194
0.068268 0.357422 0.208588
0.305511 0.338043 0.192078
0.557434 0.353333 0.170319
0.786224 0.349701 0.179779
0.942230 0.330688 0.209076
1.000000 0.310425 0.250854
1.000000 0.309845 0.306580
0.045380 0.648712 0.286438
0.045380 0.643066 0.265228
0.218262 0.622253 0.268036
0.522827 0.579620 0.222198
0.805389 0.600342 0.153992
0.957062 0.543610 0.180664
1.000000 0.508820 0.231232
1.000000 0.484985 0.298126
0.045380 0.865753 0.381836
0.045380 0.864014 0.380554
0.045380 0.854492 0.402618
0.462585 0.831055 0.358276
0.720856 0.791901 0.288635
0.935974 0.783936 0.233582
1.000000 0.712677 0.255859
1.000000 0.656677 0.316589
0.045776 0.960602 0.553162
0.064056 0.958984 0.557831
0.278381 0.954742 0.574402
0.479126 0.947205 0.566437
0.662354 0.933685 0.511993
0.847839 0.912537 0.438599
0.995697 0.901825 0.394257
1.000000 0.841278 0.401459
0.479919 1.000000 0.722748
0.504059 0.999634 0.726654
0.562592 0.997864 0.737427
0.644348 0.994995 0.752686
0.717957 0.991150 0.726990
0.815399 0.984894 0.686554
0.926392 0.975281 0.628906
1.000000 0.969116 0.592224
0.699097 1.000000 0.835083
0.710510 1.000000 0.838165
0.738892 1.000000 0.846375
0.778839 1.000000 0.857697
0.817139 1.000000 0.858490
0.860138 1.000000 0.848267
0.915039 1.000000 0.837158
0.976166 1.000000 0.832184
0.045380 0.053436 0.372498
0.135254 0.045380 0.356995
0.320190 0.045380 0.325897
0.469391 0.063354 0.312073
0.690002 0.045380 0.343018
0.888489 0.045380 0.366608
0.998047 0.045380 0.385132
1.000000 0.045380 0.419067
0.045380 0.210236 0.343384
0.086273 0.178162 0.335571
0.308105 0.175934 0.315277
0.465057 0.183502 0.310822
0.685852 0.134674 0.340668
0.882874 0.049744 0.361694
0.996613 0.045380 0.383057
1.000000 0.147003 0.427582
0.045380 0.350800 0.341553
0.076141 0.338440 0.331543
0.300690 0.311523 0.311523
0.485291 0.310425 0.321259
0.704010 0.306793 0.338196
0.895508 0.298340 0.358307
0.999237 0.302277 0.386536
1.000000 0.333832 0.427948
0.045380 0.614380 0.436707
0.054443 0.594940 0.428192
0.265259 0.576935 0.393921
0.499603 0.538422 0.360626
0.770203 0.542419 0.338745
0.930878 0.517090 0.355377
1.000000 0.501526 0.386017
1.000000 0.499237 0.430481
0.045380 0.834991 0.542450
0.045380 0.833466 0.529938
0.210358 0.828094 0.506683
0.489929 0.808380 0.495270
0.710022 0.768433 0.427185
0.922577 0.759888 0.393463
1.000000 0.695770 0.404053
1.000000 0.664307 0.443604
0.357727 0.949066 0.668518
0.376038 0.948151 0.663239
0.439606 0.945709 0.658875
0.570068 0.939209 0.672577
0.696899 0.926361 0.623627
0.850220 0.905396 0.551056
0.992401 0.894684 0.511841
1.000000 0.840454 0.514191
0.592102 0.996124 0.783081
0.600403 0.995850 0.781982
0.633270 0.994751 0.784851
0.699982 0.992126 0.798889
0.759735 0.988434 0.785797
0.836182 0.982635 0.750916
0.930786 0.973389 0.698914
1.000000 0.967133 0.665649
0.749146 1.000000 0.865692
0.753510 1.000000 0.865723
0.771881 1.000000 0.869598
0.805817 1.000000 0.878784
0.842407 1.000000 0.884796
0.877014 1.000000 0.875031
0.923645 1.000000 0.863831
0.978546 1.000000 0.857483
0.045380 0.070129 0.631195
0.045380 0.047485 0.616028
0.354309 0.045380 0.581116
0.532623 0.045380 0.534332
0.682281 0.045380 0.498932
0.869141 0.045380 0.502502
0.993866 0.045380 0.519867
1.000000 0.119568 0.538788
0.045380 0.253632 0.592407
0.045380 0.204224 0.584564
0.328094 0.191956 0.558960
0.517456 0.182587 0.520111
0.673828 0.184906 0.491333
0.864014 0.168915 0.501526
0.991608 0.152527 0.519928
1.000000 0.223450 0.541351
0.045380 0.409821 0.567139
0.045380 0.391449 0.552582
0.264618 0.341278 0.531250
0.495026 0.332428 0.500397
0.663055 0.336426 0.482727
0.858154 0.325562 0.503387
0.986389 0.328156 0.523682
1.000000 0.367615 0.553406
0.045380 0.584045 0.567688
0.045380 0.570953 0.556488
0.251434 0.537354 0.528046
0.471405 0.481628 0.481628
0.675140 0.479980 0.490814
0.865173 0.485352 0.510498
0.987244 0.500397 0.539307
1.000000 0.530457 0.578247
0.045380 0.826233 0.654846
0.113312 0.816864 0.651154
0.394531 0.790436 0.641022
0.526794 0.768768 0.614746
0.692688 0.730469 0.563263
0.900604 0.717926 0.546204
0.997528 0.690552 0.563629
1.000000 0.684570 0.595825
0.522949 0.934662 0.767700
0.558258 0.931366 0.769714
0.589630 0.928894 0.760284
0.635773 0.925995 0.747589
0.733917 0.914856 0.733337
0.851196 0.892822 0.671204
0.984253 0.883148 0.643555
1.000000 0.839355 0.646729
0.702179 0.990662 0.850586
0.707428 0.990387 0.849091
0.721313 0.989838 0.845734
0.751251 0.988556 0.844513
0.806793 0.985107 0.850006
0.859985 0.979706 0.821228
0.936279 0.970612 0.776703
1.000000 0.963806 0.749420
0.805328 1.000000 0.902252
0.808075 1.000000 0.901825
0.816742 1.000000 0.901550
0.836487 1.000000 0.904327
0.871155 1.000000 0.914063
0.898529 1.000000 0.908417
0.934967 1.000000 0.897736
0.981781 1.000000 0.889648
0.045380 0.117279 0.836548
0.045380 0.101166 0.829865
0.281647 0.057983 0.812561
0.559601 0.045380 0.784088
0.747681 0.045380 0.745300
0.868835 0.045380 0.688202
0.982269 0.185608 0.660797
1.000000 0.277344 0.665405
0.045380 0.267090 0.817932
0.045380 0.232300 0.813477
0.244568 0.217926 0.798584
0.544983 0.201630 0.772430
0.736542 0.183136 0.735046
0.862244 0.192352 0.681610
0.977692 0.272156 0.658142
1.000000 0.332001 0.668884
0.045380 0.452240 0.789215
0.045380 0.434784 0.783905
0.114288 0.376923 0.773529
0.513275 0.367554 0.750275
0.715393 0.355774 0.715851
0.851013 0.359863 0.671936
0.969940 0.401764 0.661652
1.000000 0.436310 0.679413
0.045380 0.615753 0.774963
0.045380 0.605408 0.767212
0.088531 0.577301 0.745789
0.461548 0.526978 0.720703
0.684296 0.513916 0.688690
0.831787 0.519684 0.660858
0.962250 0.532379 0.674194
1.000000 0.556702 0.695465
0.045380 0.792297 0.773071
0.045380 0.785339 0.767242
0.199799 0.765625 0.750793
0.476898 0.728241 0.718994
0.648895 0.658875 0.658813
0.833099 0.660828 0.670197
0.960876 0.674805 0.693085
1.000000 0.699585 0.724426
0.412964 0.937317 0.825623
0.460602 0.934326 0.825378
0.555969 0.926239 0.823792
0.672974 0.909790 0.819153
0.750916 0.895813 0.803589
0.843933 0.870819 0.760864
0.974213 0.859894 0.748047
1.000000 0.840485 0.760345
0.715515 0.989471 0.890228
0.732941 0.988403 0.892090
0.774261 0.985718 0.896973
0.814087 0.983002 0.898315
0.839264 0.981628 0.892792
0.883667 0.976593 0.884003
0.941315 0.966705 0.846283
1.000000 0.958984 0.826904
0.860443 1.000000 0.939972
0.863159 1.000000 0.939697
0.869110 1.000000 0.938782
0.880188 1.000000 0.938019
0.897003 1.000000 0.938873
0.924072 1.000000 0.943420
0.948853 1.000000 0.934113
0.986053 1.000000 0.926239
0.045380 0.172943 0.944092
0.045380 0.168701 0.941803
0.045380 0.158783 0.935516
0.488861 0.148193 0.924438
0.721771 0.153137 0.907562
0.889282 0.147003 0.885132
0.980133 0.173584 0.836182
1.000000 0.338593 0.801331
0.045380 0.275482 0.938019
0.045380 0.267212 0.936066
0.045380 0.261871 0.930084
0.480530 0.257141 0.919250
0.715881 0.260223 0.902588
0.884369 0.256409 0.880737
0.976593 0.268646 0.833069
1.000000 0.391144 0.801270
0.045380 0.471924 0.924347
0.045380 0.460693 0.922333
0.045380 0.414368 0.918762
0.466461 0.412689 0.908630
0.705719 0.415009 0.892944
0.874298 0.411316 0.872009
0.968597 0.416382 0.827881
1.000000 0.498596 0.803955
0.045380 0.628174 0.909027
0.045380 0.622650 0.906342
0.085815 0.610596 0.900940
0.458130 0.580536 0.893311
0.694153 0.577515 0.878510
0.857513 0.567963 0.857880
0.954132 0.568054 0.820099
1.000000 0.624634 0.809998
0.045380 0.783905 0.903229
0.045380 0.780609 0.900696
0.204956 0.771149 0.893280
0.475677 0.752991 0.879852
0.668762 0.717224 0.860718
0.834747 0.703979 0.838593
0.936523 0.708496 0.814575
1.000000 0.727570 0.824371
0.163971 0.918488 0.903015
0.274475 0.916260 0.901398
0.422333 0.909485 0.896332
0.568848 0.896027 0.885712
0.700348 0.869965 0.863647
0.803131 0.811584 0.811584
0.935120 0.817413 0.823700
1.000000 0.834045 0.845245
0.650360 0.991638 0.924744
0.671173 0.990753 0.925446
0.719757 0.988434 0.927155
0.787018 0.984161 0.929443
0.855560 0.976898 0.930725
0.898590 0.970825 0.925873
0.942139 0.958679 0.899963
1.000000 0.950348 0.891144
0.836578 1.000000 0.952454
0.845886 1.000000 0.953766
0.868805 1.000000 0.957275
0.902466 1.000000 0.963379
0.931396 1.000000 0.968323
0.944916 1.000000 0.967865
0.964172 1.000000 0.966797
0.990784 1.000000 0.960052
0.045380 0.222870 0.996704
0.045380 0.224335 0.996277
0.045380 0.226135 0.993927
0.379761 0.234070 0.990051
0.642242 0.257843 0.984558
0.835754 0.295685 0.975403
0.968170 0.314819 0.963989
1.000000 0.330078 0.937744
0.045380 0.297882 0.994781
0.045380 0.298370 0.993958
0.045380 0.299835 0.991486
0.378143 0.305786 0.987213
0.637848 0.319550 0.980438
0.831207 0.349274 0.971405
0.963989 0.364014 0.960144
1.000000 0.372223 0.932739
0.045380 0.481628 0.988800
0.045380 0.462830 0.988525
0.045380 0.437805 0.987061
0.392883 0.444214 0.982941
0.643372 0.455597 0.976318
0.831390 0.478241 0.967743
0.959686 0.484833 0.956818
1.000000 0.483093 0.927704
0.045380 0.617340 0.981598
0.045380 0.616943 0.980560
0.168121 0.626465 0.977875
0.441589 0.609070 0.975769
0.661041 0.614624 0.969635
0.831573 0.623016 0.960876
0.951019 0.618134 0.949799
1.000000 0.613281 0.921906
0.045380 0.762085 0.975037
0.045380 0.763031 0.974548
0.145355 0.761047 0.971771
0.478455 0.760895 0.968231
0.675934 0.753448 0.962555
0.830780 0.751678 0.954010
0.941711 0.743225 0.942749
1.000000 0.745605 0.920380
0.091187 0.889862 0.970398
0.234680 0.889496 0.969727
0.398376 0.887726 0.967682
0.553650 0.883789 0.963867
0.691010 0.873260 0.956421
0.821533 0.854156 0.946869
0.932007 0.847748 0.935638
0.997894 0.854248 0.922333
0.496277 0.981293 0.969879
0.525726 0.980469 0.969452
0.598083 0.978729 0.968719
0.694489 0.975555 0.967255
0.787018 0.969696 0.963562
0.862885 0.958069 0.954437
0.913818 0.920563 0.920563
0.997681 0.929749 0.933380
0.788239 1.000000 0.970856
0.800232 1.000000 0.971527
0.829132 1.000000 0.973419
0.871216 1.000000 0.976624
0.915924 1.000000 0.980774
0.955780 1.000000 0.986023
0.977295 1.000000 0.988586
0.994659 1.000000 0.984833
0.045380 0.263306 1.000000
0.045380 0.265839 1.000000
0.045380 0.271149 1.000000
0.238220 0.284760 1.000000
0.543243 0.308136 1.000000
0.751587 0.347656 1.000000
0.907501 0.406860 1.000000
1.000000 0.445953 1.000000
0.045380 0.315094 1.000000
0.045380 0.316925 1.000000
0.045380 0.322601 1.000000
0.241760 0.334839 1.000000
0.543579 0.354218 1.000000
0.751465 0.389496 1.000000
0.906342 0.441071 1.000000
1.000000 0.477570 1.000000
0.045380 0.474640 1.000000
0.045380 0.459808 1.000000
0.045380 0.449585 1.000000
0.294250 0.455505 1.000000
0.560242 0.467773 1.000000
0.759338 0.495026 1.000000
0.908386 0.537415 1.000000
1.000000 0.571625 1.000000
0.045380 0.580719 1.000000
0.045380 0.591095 1.000000
0.045380 0.607452 1.000000
0.341522 0.584595 1.000000
0.580444 0.596130 1.000000
0.776123 0.631592 1.000000
0.912445 0.662018 1.000000
1.000000 0.687378 1.000000
0.045380 0.695862 1.000000
0.045380 0.695251 1.000000
0.045380 0.695557 1.000000
0.421082 0.734741 1.000000
0.637146 0.747101 1.000000
0.795837 0.760468 1.000000
0.919495 0.784363 1.000000
0.999725 0.793243 1.000000
0.045380 0.840179 1.000000
0.045380 0.840851 1.000000
0.066833 0.844116 1.000000
0.446930 0.851898 1.000000
0.657227 0.860626 1.000000
0.836029 0.881348 1.000000
0.929871 0.886780 1.000000
0.996521 0.887024 0.998291
0.365723 0.951111 1.000000
0.459045 0.953857 1.000000
0.549316 0.955048 1.000000
0.667999 0.957336 1.000000
0.775177 0.958710 1.000000
0.864685 0.958923 1.000000
0.941589 0.958435 1.000000
0.995483 0.959869 0.998993
0.689911 1.000000 1.000000
0.711029 1.000000 1.000000
0.755219 1.000000 1.000000
0.817657 1.000000 1.000000
0.882690 1.000000 1.000000
0.937836 1.000000 1.000000
0.978058 1.000000 1.000000
1.000000 1.000000 1.000000
