test for zink/18.Scenery-qinglansediao.cube
#Created by: Adobe Photoshop Export Color Lookup Plugin
#Copyright: (C) Copyright 2026 小米
TITLE "风景-青蓝色2"
#LUT size
LUT_3D_SIZE 36
#data domain
DOMAIN_MIN 0.0 0.0 0.0
DOMAIN_MAX 1.0 1.0 1.0
#LUT data points
0.045380 0.045380 0.045380
0.045380 0.045776 0.046295
0.056580 0.046631 0.047546
0.080536 0.047028 0.048920
0.112518 0.046478 0.050354
0.147766 0.045746 0.051544
0.183807 0.045380 0.052216
0.219971 0.045380 0.052643
0.256531 0.045380 0.053131
0.293243 0.045380 0.053925
0.331177 0.045380 0.054504
0.370422 0.045380 0.055054
0.411072 0.045380 0.056274
0.453033 0.045380 0.057617
0.496277 0.045380 0.059357
0.540924 0.045380 0.061859
0.587280 0.045380 0.065094
0.634644 0.045380 0.069000
0.682465 0.045380 0.073944
0.729187 0.045380 0.079803
0.773926 0.045380 0.086182
0.816162 0.045380 0.093781
0.854858 0.045380 0.101898
0.889343 0.045380 0.110443
0.919861 0.045380 0.119659
0.947083 0.045380 0.129150
0.970428 0.045380 0.139771
0.990295 0.045380 0.150177
0.998444 0.045380 0.161194
1.000000 0.045380 0.172546
1.000000 0.045380 0.184082
1.000000 0.045380 0.196075
1.000000 0.045380 0.208923
1.000000 0.045380 0.222443
1.000000 0.045380 0.236481
1.000000 0.045380 0.251160
0.045380 0.055511 0.047272
0.045380 0.055725 0.047485
0.060272 0.058411 0.047272
0.088135 0.059723 0.047943
0.120972 0.061035 0.048706
0.155273 0.061249 0.049347
0.190063 0.060120 0.049744
0.225281 0.057739 0.049957
0.261078 0.053925 0.050201
0.297302 0.048706 0.050751
0.334534 0.045471 0.051544
0.373260 0.045380 0.051971
0.413574 0.045380 0.053192
0.455292 0.045380 0.054688
0.498169 0.045380 0.056580
0.542603 0.045380 0.059082
0.588684 0.045380 0.062225
0.635620 0.045380 0.066559
0.683441 0.045380 0.070892
0.729797 0.045380 0.077026
0.774353 0.045380 0.083496
0.816376 0.045380 0.090942
0.854858 0.045380 0.099365
0.889313 0.045380 0.108002
0.919708 0.045380 0.117249
0.946503 0.045380 0.127502
0.969696 0.045380 0.137360
0.989410 0.045380 0.148560
0.998352 0.045380 0.159546
1.000000 0.045380 0.170776
1.000000 0.045380 0.182465
1.000000 0.045380 0.194427
1.000000 0.045380 0.207214
1.000000 0.045380 0.220917
1.000000 0.045380 0.234955
1.000000 0.045380 0.249786
0.045380 0.071838 0.049438
0.045380 0.072479 0.049500
0.056458 0.072906 0.048828
0.089111 0.080322 0.047546
0.125061 0.082245 0.047119
0.160675 0.083405 0.046997
0.195862 0.083344 0.046967
0.231049 0.081879 0.046906
0.266083 0.078918 0.046936
0.301575 0.074127 0.047333
0.338715 0.068695 0.047821
0.376953 0.061249 0.048828
0.416809 0.054657 0.049530
0.458191 0.048004 0.051270
0.500763 0.045380 0.053528
0.544769 0.045380 0.056335
0.590546 0.045380 0.059540
0.637482 0.045380 0.063782
0.685181 0.045380 0.067719
0.731140 0.045380 0.073334
0.775360 0.045380 0.080048
0.817200 0.045380 0.087952
0.855560 0.045380 0.096191
0.889832 0.045380 0.105286
0.920105 0.045380 0.114929
0.946594 0.045380 0.125275
0.969482 0.045380 0.135712
0.989075 0.045380 0.146698
0.998260 0.045380 0.157623
1.000000 0.045380 0.169159
1.000000 0.045380 0.180817
1.000000 0.045380 0.193054
1.000000 0.045380 0.205872
1.000000 0.045380 0.219482
1.000000 0.045380 0.233612
1.000000 0.045380 0.248871
0.045380 0.101501 0.050049
0.045380 0.100983 0.050903
0.052063 0.101501 0.050110
0.081085 0.101288 0.049194
0.123383 0.111816 0.046478
0.162781 0.114105 0.045807
0.199890 0.113708 0.045715
0.236237 0.112122 0.045654
0.271759 0.110809 0.045624
0.307831 0.108002 0.045746
0.344238 0.104675 0.045837
0.382263 0.100189 0.046021
0.421478 0.094025 0.046295
0.462463 0.086609 0.046783
0.504578 0.077515 0.048981
0.548279 0.070251 0.051971
0.593689 0.061401 0.055237
0.640289 0.051788 0.059479
0.687531 0.045380 0.063293
0.733154 0.045380 0.068817
0.776917 0.045380 0.075867
0.818268 0.045380 0.083740
0.856262 0.045380 0.092499
0.890228 0.045380 0.101776
0.920166 0.045380 0.111969
0.946442 0.045380 0.122345
0.969177 0.045380 0.132904
0.988800 0.045380 0.144012
0.998199 0.045380 0.155640
1.000000 0.045380 0.167542
1.000000 0.045380 0.179565
1.000000 0.045380 0.191895
1.000000 0.045380 0.204895
1.000000 0.045380 0.218475
1.000000 0.045380 0.232605
1.000000 0.045380 0.247803
0.045380 0.137329 0.049835
0.045380 0.136047 0.051544
0.045380 0.135620 0.050964
0.072876 0.135284 0.049744
0.110443 0.134338 0.048370
0.158081 0.146240 0.045685
0.199707 0.148926 0.045380
0.238434 0.146942 0.045380
0.275421 0.144806 0.045380
0.312317 0.142761 0.045380
0.349731 0.141632 0.045380
0.388458 0.139496 0.045380
0.427216 0.136536 0.045380
0.467468 0.132446 0.045380
0.509430 0.127228 0.045532
0.552826 0.119659 0.047058
0.598022 0.109741 0.049255
0.644379 0.097626 0.053101
0.691162 0.088226 0.057068
0.736328 0.079102 0.062836
0.779694 0.068024 0.069153
0.820557 0.053070 0.077057
0.858215 0.046173 0.086792
0.891541 0.045380 0.096924
0.920990 0.045380 0.107819
0.946808 0.045380 0.118713
0.969330 0.045380 0.129669
0.988831 0.045380 0.141449
0.998138 0.045380 0.152954
1.000000 0.045380 0.165222
1.000000 0.045380 0.177582
1.000000 0.045380 0.190460
1.000000 0.045380 0.203583
1.000000 0.045380 0.217285
1.000000 0.045380 0.231445
1.000000 0.045380 0.246613
0.045380 0.174957 0.049500
0.045380 0.173523 0.051636
0.045380 0.172424 0.052185
0.051819 0.171417 0.050781
0.100037 0.170166 0.049164
0.141418 0.168304 0.047241
0.192444 0.181030 0.045502
0.235931 0.184418 0.045380
0.275635 0.182037 0.045380
0.314545 0.179718 0.045380
0.353851 0.177094 0.045380
0.393250 0.176758 0.045380
0.433502 0.175720 0.045380
0.474335 0.174072 0.045380
0.515808 0.171570 0.045380
0.559235 0.168243 0.045380
0.604126 0.163574 0.045380
0.650391 0.157745 0.047485
0.696564 0.150055 0.049835
0.741180 0.140228 0.054626
0.783875 0.127808 0.061157
0.824463 0.112396 0.068726
0.861328 0.094879 0.078156
0.894196 0.081726 0.089844
0.925293 0.077271 0.102936
0.951843 0.072021 0.115723
0.973694 0.065704 0.127777
0.992432 0.057159 0.140167
0.998199 0.048676 0.152527
1.000000 0.045380 0.165009
1.000000 0.045380 0.177856
1.000000 0.045380 0.190918
1.000000 0.045380 0.204590
1.000000 0.045959 0.218567
1.000000 0.049530 0.232971
1.000000 0.057922 0.248169
0.045380 0.214844 0.049957
0.045380 0.213287 0.052582
0.045380 0.211761 0.054749
0.045380 0.210297 0.054077
0.077240 0.208679 0.051910
0.131256 0.206482 0.049622
0.173676 0.203583 0.046997
0.227753 0.217285 0.045685
0.272308 0.221130 0.045380
0.314545 0.220123 0.045380
0.356903 0.216919 0.045380
0.398010 0.214844 0.045380
0.439545 0.214111 0.045380
0.481750 0.214050 0.045380
0.525116 0.213562 0.045380
0.569031 0.212128 0.045380
0.613861 0.209717 0.045380
0.659698 0.206604 0.045380
0.705078 0.201996 0.045380
0.748932 0.196716 0.047516
0.790863 0.190063 0.051422
0.830994 0.182190 0.058624
0.867157 0.172729 0.068604
0.899139 0.162048 0.080963
0.927185 0.149567 0.094543
0.957703 0.138123 0.110962
0.978790 0.122437 0.124878
0.996826 0.106750 0.138092
0.999756 0.092316 0.151642
1.000000 0.082947 0.164948
1.000000 0.078369 0.178284
1.000000 0.077118 0.191803
1.000000 0.077393 0.205627
1.000000 0.078461 0.220062
1.000000 0.081604 0.235016
1.000000 0.101898 0.250275
0.045380 0.257019 0.052673
0.045380 0.255463 0.056122
0.045380 0.253784 0.059692
0.045380 0.251984 0.060669
0.052429 0.249969 0.058472
0.111267 0.247559 0.055359
0.164856 0.244415 0.052094
0.207642 0.240601 0.048523
0.263947 0.254761 0.046051
0.310272 0.259521 0.045380
0.356750 0.261017 0.045380
0.401611 0.259003 0.045380
0.445435 0.256012 0.045380
0.489410 0.254059 0.045380
0.533478 0.254730 0.045380
0.579315 0.255035 0.045380
0.626068 0.253937 0.045380
0.671478 0.252136 0.045380
0.716187 0.249451 0.045380
0.759064 0.245728 0.045380
0.800323 0.241272 0.045380
0.839355 0.235840 0.048340
0.874817 0.229340 0.055756
0.905762 0.221985 0.069122
0.932983 0.214111 0.085144
0.957184 0.205688 0.100952
0.978302 0.197296 0.116760
0.996429 0.188538 0.131470
0.999634 0.180542 0.146088
1.000000 0.173401 0.160248
1.000000 0.167175 0.174225
1.000000 0.162415 0.188354
1.000000 0.160004 0.202484
1.000000 0.160919 0.217072
1.000000 0.164856 0.232239
1.000000 0.172821 0.247955
0.045380 0.298523 0.058533
0.045380 0.297150 0.062531
0.045380 0.295563 0.066315
0.045380 0.293701 0.069366
0.045380 0.291473 0.068542
0.071289 0.288818 0.065094
0.147095 0.285553 0.061096
0.198395 0.281738 0.056610
0.241364 0.277130 0.051819
0.297485 0.290344 0.046509
0.348419 0.298157 0.045380
0.397858 0.302155 0.045380
0.444916 0.301331 0.045380
0.491638 0.297363 0.045380
0.538208 0.294434 0.045380
0.584290 0.295166 0.045380
0.631104 0.295685 0.045380
0.678436 0.295227 0.045380
0.724091 0.293793 0.045380
0.766663 0.290924 0.045380
0.807770 0.287750 0.045380
0.845520 0.283539 0.045380
0.879059 0.278168 0.046600
0.908630 0.271790 0.053253
0.934845 0.265076 0.069733
0.958282 0.258301 0.088654
0.978882 0.251312 0.106934
0.996674 0.244232 0.123383
0.999664 0.237549 0.139069
1.000000 0.231506 0.154480
1.000000 0.226227 0.169373
1.000000 0.222046 0.184174
1.000000 0.219116 0.198975
1.000000 0.218079 0.213989
1.000000 0.218994 0.229767
1.000000 0.222626 0.245605
0.045380 0.343292 0.066986
0.045380 0.341827 0.071625
0.045380 0.340454 0.076019
0.045380 0.338562 0.081940
0.045380 0.336273 0.083160
0.056244 0.333496 0.079529
0.114258 0.330078 0.074280
0.183258 0.326172 0.069092
0.233582 0.321564 0.062988
0.277222 0.316315 0.056427
0.333679 0.328217 0.046661
0.388794 0.339355 0.045380
0.440369 0.344635 0.045380
0.490295 0.345367 0.045380
0.539612 0.342926 0.045380
0.588867 0.339325 0.045380
0.637695 0.337097 0.045380
0.684082 0.337372 0.045380
0.730286 0.337097 0.045380
0.774628 0.335632 0.045380
0.815979 0.332947 0.045380
0.852295 0.329041 0.045380
0.884125 0.324036 0.045380
0.912384 0.318176 0.045471
0.937683 0.311859 0.051575
0.960358 0.305481 0.071350
0.980347 0.299133 0.093384
0.997650 0.292511 0.113251
0.999817 0.286041 0.131256
1.000000 0.280212 0.147919
1.000000 0.274811 0.163788
1.000000 0.270325 0.179688
1.000000 0.266968 0.195435
1.000000 0.264862 0.211029
1.000000 0.264557 0.227051
1.000000 0.266235 0.243347
0.045380 0.391541 0.078918
0.045380 0.390259 0.083832
0.045380 0.388794 0.088287
0.045380 0.387024 0.094055
0.045380 0.384613 0.098511
0.045380 0.381653 0.096985
0.074188 0.378052 0.091888
0.158600 0.373810 0.086121
0.221252 0.369110 0.079132
0.271210 0.363708 0.070221
0.315063 0.357483 0.062286
0.371521 0.368073 0.047455
0.430542 0.381836 0.045380
0.484680 0.388611 0.045380
0.537262 0.390717 0.045380
0.589783 0.389801 0.045380
0.641113 0.386108 0.045380
0.691315 0.381653 0.045380
0.737305 0.380402 0.045380
0.780670 0.379486 0.045380
0.821289 0.377258 0.045380
0.857544 0.373383 0.045380
0.889160 0.368347 0.045380
0.916626 0.362427 0.045380
0.940735 0.355957 0.045380
0.962372 0.349457 0.052277
0.981537 0.342865 0.075531
0.998291 0.336334 0.099518
0.999908 0.329987 0.120819
1.000000 0.323914 0.139679
1.000000 0.318481 0.157135
1.000000 0.313568 0.173889
1.000000 0.309631 0.190491
1.000000 0.306793 0.206848
1.000000 0.305359 0.223663
1.000000 0.305389 0.240631
0.045380 0.442474 0.091217
0.045380 0.441101 0.095673
0.045380 0.439972 0.099823
0.045380 0.438171 0.105530
0.045380 0.435913 0.112671
0.045380 0.432922 0.113953
0.045380 0.429382 0.109589
0.103912 0.425110 0.103607
0.199951 0.420349 0.096222
0.260437 0.414673 0.087708
0.310608 0.408356 0.078369
0.355133 0.401306 0.068085
0.411682 0.410309 0.048218
0.474823 0.426727 0.045380
0.532013 0.435242 0.045380
0.587646 0.438629 0.045380
0.642181 0.438385 0.045380
0.693665 0.434235 0.045380
0.741791 0.428772 0.045380
0.786987 0.422913 0.045380
0.825775 0.420380 0.045380
0.860748 0.416565 0.045380
0.891754 0.411377 0.045380
0.919189 0.405396 0.045380
0.943390 0.398956 0.045380
0.964752 0.392181 0.045380
0.983246 0.385315 0.053101
0.998444 0.378571 0.081055
1.000000 0.371948 0.107666
1.000000 0.365692 0.130066
1.000000 0.359955 0.149719
1.000000 0.354645 0.167908
1.000000 0.350098 0.185577
1.000000 0.346497 0.202972
1.000000 0.344147 0.220184
1.000000 0.343018 0.237610
0.045380 0.496979 0.102600
0.045380 0.495758 0.106781
0.045380 0.494507 0.111023
0.045380 0.492828 0.116394
0.045380 0.490631 0.122955
0.045380 0.487885 0.128662
0.045380 0.484314 0.126434
0.061707 0.480011 0.120605
0.160736 0.475067 0.113403
0.241516 0.469299 0.105438
0.301605 0.463104 0.096161
0.352661 0.456146 0.084808
0.398346 0.448303 0.072357
0.459473 0.460052 0.048676
0.528442 0.480133 0.045380
0.589325 0.489929 0.045380
0.646362 0.493042 0.045380
0.700317 0.492096 0.045380
0.750885 0.487427 0.045380
0.795807 0.479431 0.045380
0.836029 0.469574 0.045380
0.869720 0.462830 0.045380
0.899017 0.457062 0.045380
0.925171 0.450653 0.045380
0.948608 0.443787 0.045380
0.969421 0.436554 0.045380
0.987244 0.429230 0.045776
0.998596 0.421875 0.063477
1.000000 0.414673 0.095459
1.000000 0.407715 0.122009
1.000000 0.401337 0.144073
1.000000 0.395508 0.164154
1.000000 0.390289 0.182800
1.000000 0.385956 0.201019
1.000000 0.382751 0.218842
1.000000 0.380615 0.237030
0.045380 0.557343 0.113800
0.045380 0.556122 0.117645
0.045380 0.554871 0.122009
0.045380 0.553436 0.127258
0.045380 0.551300 0.133911
0.045380 0.548553 0.141388
0.045380 0.545135 0.142944
0.045380 0.540802 0.137665
0.094574 0.535767 0.130707
0.209534 0.529907 0.122894
0.285919 0.523712 0.113556
0.346588 0.516693 0.103027
0.399017 0.509155 0.090210
0.446320 0.500702 0.074371
0.507721 0.510620 0.048767
0.580750 0.532074 0.045380
0.643127 0.542023 0.045380
0.698883 0.543976 0.045380
0.751404 0.542236 0.045380
0.798340 0.536102 0.045380
0.838013 0.525391 0.045380
0.873108 0.512756 0.045380
0.903351 0.500671 0.045380
0.928528 0.493591 0.045380
0.951111 0.486328 0.045380
0.971283 0.478760 0.045380
0.988922 0.471069 0.045441
0.999054 0.463257 0.051880
1.000000 0.455566 0.079468
1.000000 0.447876 0.109283
1.000000 0.440857 0.135376
1.000000 0.434387 0.157562
1.000000 0.428528 0.178009
1.000000 0.423523 0.197205
1.000000 0.419464 0.216095
1.000000 0.416412 0.235077
0.045380 0.619934 0.126495
0.045380 0.618835 0.130096
0.045380 0.617554 0.134094
0.045380 0.615997 0.139099
0.045380 0.614014 0.145386
0.045380 0.611389 0.153046
0.045380 0.607971 0.159332
0.045380 0.603699 0.155731
0.045380 0.598694 0.148834
0.142731 0.592773 0.141266
0.257355 0.586395 0.131958
0.331573 0.579315 0.121643
0.392456 0.571655 0.109863
0.445892 0.563293 0.095123
0.494354 0.553986 0.076843
0.552246 0.557709 0.049316
0.628021 0.580414 0.045380
0.689972 0.589935 0.045380
0.743347 0.590546 0.045380
0.791565 0.586761 0.045380
0.833557 0.578369 0.045380
0.868866 0.565979 0.045380
0.900177 0.551697 0.045380
0.927948 0.536346 0.045380
0.950745 0.527191 0.045380
0.970795 0.518616 0.045380
0.988281 0.510712 0.045380
0.998993 0.502594 0.046234
1.000000 0.494568 0.068939
1.000000 0.486542 0.098145
1.000000 0.478760 0.124298
1.000000 0.471436 0.147766
1.000000 0.464966 0.170288
1.000000 0.459351 0.191284
1.000000 0.454468 0.211548
1.000000 0.450592 0.231323
0.045380 0.679504 0.142426
0.045380 0.678528 0.145782
0.045380 0.677246 0.149261
0.045380 0.675537 0.153839
0.045380 0.673431 0.159332
0.045380 0.670837 0.166351
0.045380 0.667786 0.174408
0.045380 0.663483 0.175720
0.045380 0.658478 0.169159
0.065948 0.652649 0.161896
0.203613 0.646210 0.152985
0.303711 0.639282 0.142670
0.375610 0.631683 0.131195
0.436310 0.623383 0.118011
0.490112 0.614227 0.101776
0.539337 0.603882 0.081970
0.596405 0.604706 0.050201
0.673737 0.628052 0.045441
0.733643 0.636017 0.045380
0.782288 0.634064 0.045380
0.825500 0.627594 0.045380
0.863190 0.617554 0.045380
0.895599 0.604431 0.045380
0.923737 0.589600 0.045380
0.948883 0.573639 0.045380
0.970123 0.560211 0.045380
0.987823 0.550476 0.045380
0.998962 0.541687 0.045380
1.000000 0.533295 0.064484
1.000000 0.524872 0.094452
1.000000 0.516693 0.121124
1.000000 0.508728 0.143311
1.000000 0.501221 0.163788
1.000000 0.494720 0.185394
1.000000 0.489105 0.206879
1.000000 0.484497 0.227722
0.045380 0.733917 0.163086
0.045380 0.732971 0.165955
0.045380 0.731934 0.169098
0.045380 0.730438 0.173218
0.045380 0.728424 0.178162
0.045380 0.725983 0.184204
0.045380 0.723145 0.191467
0.045380 0.719788 0.198151
0.045380 0.714996 0.193481
0.045380 0.709656 0.186127
0.132324 0.703583 0.177673
0.260681 0.697052 0.167938
0.349487 0.689941 0.156769
0.419220 0.682007 0.144165
0.479431 0.673157 0.129761
0.533569 0.663300 0.112396
0.583557 0.652435 0.090546
0.639130 0.650482 0.053375
0.715485 0.672363 0.048309
0.771423 0.677917 0.045380
0.815857 0.673920 0.045380
0.854645 0.665527 0.045380
0.889160 0.654572 0.045380
0.919189 0.641388 0.045380
0.944519 0.626129 0.045380
0.967010 0.609802 0.045380
0.986755 0.592682 0.045380
0.998901 0.581848 0.045380
1.000000 0.571899 0.060699
1.000000 0.563080 0.091980
1.000000 0.554504 0.121094
1.000000 0.546234 0.144806
1.000000 0.538208 0.165222
1.000000 0.530701 0.184662
1.000000 0.523834 0.203278
1.000000 0.518402 0.225311
0.045380 0.779907 0.189758
0.045380 0.779266 0.192230
0.045380 0.778351 0.195282
0.045380 0.777130 0.198761
0.045380 0.775513 0.203033
0.045380 0.773529 0.208618
0.045380 0.771210 0.215424
0.045380 0.768555 0.221832
0.045380 0.765045 0.223633
0.045380 0.760590 0.216278
0.045380 0.755310 0.208038
0.189880 0.749298 0.199036
0.313416 0.742737 0.188538
0.394440 0.735443 0.176270
0.461426 0.727234 0.162506
0.520294 0.718140 0.147156
0.574585 0.707947 0.129547
0.624847 0.696838 0.106506
0.678192 0.692261 0.068787
0.749329 0.709991 0.051361
0.803345 0.715118 0.045380
0.844818 0.710114 0.045380
0.880310 0.700745 0.045380
0.912109 0.689545 0.045380
0.939789 0.676453 0.045380
0.962738 0.660797 0.045380
0.982819 0.644440 0.045380
0.998413 0.627380 0.045380
1.000000 0.612183 0.059204
1.000000 0.601349 0.091705
1.000000 0.592224 0.122711
1.000000 0.583466 0.147858
1.000000 0.575012 0.169861
1.000000 0.566986 0.189423
1.000000 0.559601 0.207886
1.000000 0.552582 0.226074
0.045380 0.817627 0.221344
0.045380 0.816925 0.223511
0.045380 0.816254 0.225891
0.045380 0.815277 0.229034
0.045380 0.813965 0.232880
0.045380 0.812286 0.237823
0.045380 0.810242 0.243835
0.045380 0.808014 0.250397
0.045380 0.805420 0.256165
0.045380 0.801605 0.251373
0.045380 0.796997 0.243286
0.138977 0.791870 0.234131
0.266266 0.786072 0.224579
0.362366 0.779694 0.213470
0.436157 0.772491 0.200867
0.499908 0.764465 0.186859
0.557800 0.755707 0.171143
0.611359 0.746033 0.153259
0.661377 0.735474 0.131927
0.712280 0.729187 0.100677
0.779083 0.743774 0.057556
0.831635 0.749023 0.045380
0.870850 0.743958 0.045380
0.903198 0.733978 0.045380
0.932159 0.722290 0.045380
0.957336 0.708893 0.045380
0.978455 0.693665 0.045380
0.996277 0.677216 0.045380
0.999664 0.660278 0.064850
1.000000 0.643005 0.096649
1.000000 0.630096 0.127136
1.000000 0.620148 0.152863
1.000000 0.611359 0.175415
1.000000 0.602997 0.195435
1.000000 0.595123 0.214661
1.000000 0.587830 0.233093
0.045380 0.849579 0.256653
0.045380 0.849060 0.258698
0.045380 0.852356 0.266144
0.045380 0.851776 0.269409
0.045380 0.850647 0.272705
0.045380 0.849243 0.276794
0.045380 0.847565 0.281982
0.045380 0.845551 0.287964
0.045380 0.843292 0.294128
0.045380 0.840363 0.294647
0.045380 0.836578 0.287476
0.060150 0.832214 0.278687
0.215149 0.827301 0.269257
0.332031 0.821716 0.258789
0.412231 0.815521 0.246948
0.479858 0.808563 0.233917
0.540314 0.800873 0.219543
0.596405 0.792358 0.203766
0.648834 0.783020 0.185730
0.697754 0.773071 0.164886
0.746368 0.765594 0.138977
0.808411 0.777252 0.097870
0.858948 0.782379 0.062561
0.895874 0.777374 0.045380
0.925049 0.766571 0.045380
0.950989 0.754272 0.045380
0.973480 0.740448 0.045502
0.992523 0.725189 0.048553
0.999420 0.708740 0.081818
1.000000 0.691742 0.111053
1.000000 0.674469 0.137970
1.000000 0.659027 0.161316
1.000000 0.647125 0.183228
1.000000 0.638306 0.203796
1.000000 0.630066 0.223206
1.000000 0.622406 0.241699
0.045380 0.877991 0.296204
0.045380 0.877838 0.298523
0.045380 0.877869 0.301025
0.045380 0.878479 0.305328
0.045380 0.877686 0.308502
0.045380 0.876587 0.312256
0.045380 0.875183 0.316803
0.045380 0.873505 0.322205
0.045380 0.871613 0.328247
0.045380 0.869324 0.333496
0.045380 0.866150 0.328033
0.045380 0.862610 0.320129
0.166351 0.858521 0.310730
0.299255 0.853912 0.300873
0.385132 0.848633 0.289917
0.455597 0.842804 0.277771
0.517792 0.836304 0.264374
0.575470 0.829132 0.250061
0.629761 0.821259 0.233734
0.680420 0.812805 0.216156
0.728088 0.803772 0.196625
0.774323 0.795898 0.174133
0.832458 0.805450 0.142914
0.881378 0.810852 0.108673
0.916321 0.806183 0.095947
0.942810 0.795044 0.094299
0.966187 0.782501 0.093140
0.986298 0.768707 0.095856
0.998718 0.753723 0.103149
1.000000 0.737488 0.129089
1.000000 0.720856 0.153168
1.000000 0.703918 0.174286
1.000000 0.687408 0.193817
1.000000 0.674347 0.212891
1.000000 0.664032 0.231903
1.000000 0.655945 0.250732
0.045380 0.901276 0.335388
0.045380 0.901184 0.337433
0.045380 0.901093 0.339630
0.045380 0.900757 0.342194
0.045380 0.900269 0.345184
0.045380 0.899384 0.348785
0.045380 0.898254 0.353027
0.045380 0.896820 0.357849
0.045380 0.895203 0.363495
0.045380 0.893402 0.369843
0.045380 0.890961 0.369385
0.045380 0.888062 0.361969
0.140533 0.884705 0.353729
0.273041 0.880920 0.344086
0.362183 0.876556 0.333618
0.433685 0.871704 0.322327
0.496490 0.866364 0.309845
0.554382 0.860443 0.296570
0.609070 0.853882 0.281860
0.660706 0.846863 0.265839
0.709686 0.839203 0.248322
0.755585 0.830994 0.229736
0.799530 0.822998 0.208832
0.854034 0.830872 0.186035
0.901062 0.836487 0.160706
0.934082 0.832214 0.150513
0.958038 0.820923 0.148743
0.978943 0.808289 0.150269
0.996002 0.794647 0.151611
1.000000 0.779846 0.156647
1.000000 0.764038 0.172119
1.000000 0.747955 0.190796
1.000000 0.731537 0.208618
1.000000 0.715149 0.225616
1.000000 0.700989 0.243317
1.000000 0.688690 0.260742
0.045380 0.920837 0.375366
0.045380 0.920776 0.377075
0.045380 0.920685 0.379120
0.045380 0.920410 0.381744
0.045380 0.919922 0.384674
0.045380 0.919281 0.387848
0.045380 0.918304 0.391785
0.045380 0.917145 0.396118
0.045380 0.915710 0.401276
0.045380 0.914215 0.407227
0.045380 0.912323 0.411346
0.045380 0.910034 0.406219
0.143463 0.907288 0.398041
0.259979 0.904205 0.389435
0.348358 0.900696 0.379517
0.418152 0.896698 0.368683
0.479645 0.892395 0.357025
0.536438 0.887482 0.344482
0.590179 0.882172 0.330963
0.641510 0.876404 0.316406
0.690826 0.870178 0.300598
0.737610 0.863464 0.283813
0.781799 0.856201 0.265747
0.823456 0.848450 0.245880
0.874298 0.854797 0.228241
0.919342 0.860596 0.208740
0.950165 0.856689 0.200958
0.971710 0.845245 0.200928
0.990509 0.832855 0.201202
0.999359 0.819366 0.202515
1.000000 0.804962 0.205688
1.000000 0.789795 0.213593
1.000000 0.774200 0.229675
1.000000 0.758423 0.245270
1.000000 0.742767 0.261658
1.000000 0.727295 0.277496
0.045380 0.938202 0.418427
0.045380 0.938049 0.419830
0.045380 0.937897 0.421631
0.045380 0.937653 0.423859
0.045380 0.937195 0.426483
0.045380 0.936554 0.429382
0.045380 0.935822 0.432770
0.045380 0.934753 0.436859
0.045380 0.933533 0.441284
0.045380 0.932281 0.446838
0.045380 0.930786 0.452667
0.072632 0.928986 0.451874
0.160736 0.926788 0.444641
0.270599 0.924286 0.436462
0.348083 0.921478 0.427521
0.412811 0.918243 0.417267
0.470551 0.914734 0.406342
0.524384 0.910797 0.394318
0.575714 0.906525 0.381714
0.625244 0.901855 0.368103
0.673431 0.896759 0.353607
0.719788 0.891296 0.338074
0.764038 0.885345 0.321686
0.806091 0.878906 0.303833
0.845642 0.871826 0.284760
0.892883 0.876709 0.270081
0.935455 0.882477 0.254028
0.964142 0.878754 0.247528
0.983551 0.867554 0.247284
0.997162 0.855377 0.247772
1.000000 0.842377 0.248993
1.000000 0.828522 0.251099
1.000000 0.813904 0.254639
1.000000 0.798889 0.268738
1.000000 0.783875 0.283722
1.000000 0.768982 0.298767
0.045380 0.953217 0.462952
0.045380 0.953064 0.464111
0.045380 0.952881 0.465576
0.045380 0.952545 0.467316
0.045380 0.952087 0.469452
0.045380 0.951508 0.471924
0.045380 0.950806 0.474762
0.045380 0.949921 0.478455
0.045380 0.948883 0.482635
0.045380 0.947784 0.487427
0.061340 0.946564 0.492859
0.139252 0.945129 0.496094
0.225739 0.943420 0.491638
0.303497 0.941437 0.484192
0.364929 0.939178 0.476013
0.419556 0.936707 0.466797
0.471191 0.933838 0.456696
