device/led.cube
#Created by: Adobe Photoshop Export Color Lookup Plugin
#Copyright: (C) Copyright 2026 汉图
TITLE "LED-TFT模拟.psd"
#LUT size
LUT_3D_SIZE 7
#data domain
#LUT data points
DOMAIN_MIN 0.000000 0.000000 0.000000
DOMAIN_MAX 0.909091 0.909091 0.909091
0.074585 0.074585 0.074585
0.110840 0.074585 0.074585
0.202087 0.074585 0.074585
0.399658 0.074585 0.074585
0.620758 0.075226 0.074585
0.796539 0.082886 0.074585
0.921356 0.096619 0.074585
0.074585 0.147125 0.074585
0.110840 0.159088 0.074585
0.250458 0.152649 0.074585
0.474243 0.154755 0.074585
0.647888 0.141998 0.074585
0.800629 0.143951 0.074585
0.923492 0.165161 0.074585
0.074585 0.317810 0.074585
0.110840 0.319305 0.074585
0.208374 0.373444 0.074585
0.494110 0.357147 0.074585
0.692505 0.327393 0.074585
0.829102 0.264709 0.074585
0.928925 0.254578 0.074585
0.074585 0.506195 0.074585
0.110840 0.511810 0.074585
0.147095 0.520844 0.074585
0.457916 0.601105 0.074585
0.708832 0.585999 0.074585
0.845459 0.513306 0.074585
0.946106 0.461060 0.074585
0.074585 0.665283 0.074585
0.110840 0.672760 0.074585
0.147095 0.664825 0.074585
0.344543 0.700745 0.074585
0.664001 0.738708 0.074585
0.843811 0.728546 0.074585
0.947571 0.675751 0.074585
0.074585 0.797058 0.074585
0.110840 0.802612 0.074585
0.147095 0.806030 0.074585
0.312500 0.807220 0.074585
0.643860 0.842255 0.074585
0.824066 0.841858 0.074585
0.946564 0.830719 0.074585
0.074585 0.913086 0.074585
0.110840 0.917175 0.074585
0.147095 0.926208 0.115784
0.379883 0.918976 0.074585
0.664062 0.935699 0.089661
0.864563 0.954041 0.119446
0.938934 0.932312 0.095947
0.074585 0.074585 0.110840
0.110840 0.074585 0.110840
0.233276 0.074677 0.110840
0.435211 0.074585 0.110840
0.630188 0.075623 0.110840
0.804260 0.083557 0.110840
0.925842 0.097473 0.110840
0.074585 0.168762 0.110840
0.110840 0.171234 0.110840
0.212799 0.153168 0.110840
0.461121 0.150513 0.110840
0.644012 0.137604 0.110840
0.804565 0.144501 0.110840
0.927094 0.166382 0.110840
0.074585 0.353058 0.110840
0.110840 0.349457 0.110840
0.152557 0.368835 0.110840
0.482635 0.371063 0.110840
0.690826 0.342255 0.110840
0.827118 0.272461 0.110840
0.931641 0.255188 0.110840
0.074585 0.530182 0.110840
0.110840 0.537537 0.110840
0.147095 0.531006 0.110840
0.435791 0.600983 0.110840
0.704468 0.594940 0.110840
0.845947 0.533661 0.110840
0.949829 0.462280 0.110840
0.074585 0.678192 0.110840
0.110840 0.686829 0.110840
0.147095 0.673706 0.110840
0.326935 0.700592 0.110840
0.665436 0.744476 0.110840
0.846191 0.735107 0.110840
0.951691 0.689423 0.110840
0.074585 0.802521 0.110840
0.110840 0.808929 0.110840
0.147095 0.811249 0.134247
0.298828 0.806549 0.110840
0.635986 0.841919 0.128021
0.826111 0.844574 0.135101
0.950836 0.834869 0.133514
0.074585 0.915771 0.141266
0.110840 0.920319 0.166992
0.147095 0.927002 0.208801
0.373169 0.920288 0.171936
0.660248 0.935791 0.183777
0.865570 0.954529 0.209381
0.942841 0.934479 0.188965
0.074585 0.074585 0.226410
0.110840 0.074585 0.213318
0.257751 0.088654 0.257477
0.481201 0.113037 0.297546
0.711975 0.082336 0.261078
0.868378 0.092621 0.147095
0.942017 0.098541 0.147095
0.074585 0.178650 0.229156
0.110840 0.177460 0.221985
0.219513 0.179626 0.235352
0.466003 0.207275 0.251068
0.682709 0.144806 0.217682
0.863983 0.157715 0.147095
0.944000 0.168579 0.147095
0.074585 0.389832 0.154297
0.110840 0.396332 0.160156
0.169647 0.396637 0.165955
0.437714 0.368408 0.156952
0.675598 0.350677 0.147095
0.825439 0.291077 0.147095
0.942078 0.260986 0.147095
0.074585 0.584778 0.172913
0.110840 0.596191 0.200745
0.151306 0.568512 0.178101
0.373291 0.600098 0.182495
0.690491 0.603546 0.183228
0.839050 0.553314 0.170319
0.954315 0.486237 0.152100
0.074585 0.709442 0.191559
0.110840 0.717010 0.220337
0.147095 0.704651 0.211365
0.293793 0.702118 0.200012
0.659912 0.752563 0.220123
0.845154 0.744202 0.218414
0.955627 0.704987 0.203064
0.074585 0.815369 0.216919
0.110840 0.821808 0.246002
0.147095 0.823303 0.268982
0.269257 0.807373 0.232483
0.605804 0.838623 0.245514
0.823608 0.847839 0.254089
0.954498 0.840302 0.252228
0.074585 0.920502 0.260223
0.110840 0.925842 0.289276
0.147095 0.929260 0.315613
0.339661 0.923920 0.291931
0.636871 0.933868 0.292908
0.859772 0.953461 0.313019
0.945526 0.937164 0.298157
0.074585 0.074768 0.494446
0.110840 0.074585 0.421173
0.303070 0.076721 0.557098
0.505402 0.129944 0.547516
0.728333 0.174194 0.597595
0.902954 0.108612 0.569061
0.955444 0.125153 0.546234
0.074585 0.187195 0.502228
0.116516 0.181335 0.487701
0.231049 0.142761 0.497223
0.481079 0.265594 0.530396
0.710144 0.280243 0.567963
0.886719 0.184753 0.525055
0.958252 0.198639 0.536377
0.074585 0.422363 0.495758
0.110840 0.413788 0.484406
0.213654 0.373260 0.478577
0.444336 0.439758 0.497437
0.678101 0.412323 0.501007
0.843323 0.301544 0.462341
0.954041 0.259369 0.392395
0.074585 0.614960 0.354980
0.110840 0.623962 0.368164
0.182037 0.616699 0.376587
0.389679 0.617615 0.416565
0.668701 0.603607 0.336365
0.834351 0.564148 0.320984
0.961304 0.513428 0.307953
0.074585 0.746216 0.351044
0.110840 0.755005 0.378265
0.147095 0.749237 0.370117
0.316589 0.728088 0.349152
0.643677 0.760529 0.362701
0.841156 0.754578 0.358002
0.960480 0.715912 0.342224
0.074585 0.838318 0.365936
0.110840 0.844208 0.393005
0.147095 0.844971 0.413879
0.255951 0.826538 0.375153
0.550812 0.833496 0.373383
0.816742 0.851105 0.382477
0.956390 0.847473 0.381714
0.074585 0.929810 0.392883
0.110840 0.934998 0.419373
0.147095 0.937927 0.443298
0.274567 0.931366 0.423859
0.582520 0.929749 0.410065
0.843384 0.950958 0.423767
0.947266 0.940216 0.414978
0.074585 0.075531 0.681030
0.139984 0.074585 0.610565
0.309387 0.074738 0.704803
0.569977 0.144989 0.759094
0.717621 0.204559 0.744110
0.916534 0.257141 0.782623
0.959595 0.306946 0.776215
0.074585 0.192383 0.701782
0.166229 0.182526 0.692200
0.271362 0.130524 0.684143
0.524200 0.240570 0.747742
0.703339 0.348389 0.736572
0.903992 0.370148 0.770294
0.960907 0.398163 0.762238
0.074585 0.421448 0.706482
0.155334 0.408142 0.693359
0.265106 0.360077 0.687714
0.446075 0.358398 0.717621
0.680450 0.513733 0.721802
0.880005 0.482513 0.743713
0.962128 0.480682 0.735382
0.074585 0.642365 0.700317
0.134216 0.633667 0.689758
0.250397 0.614075 0.682495
0.404266 0.591034 0.690155
0.652985 0.656189 0.700348
0.840973 0.611237 0.694275
0.963196 0.544891 0.680115
0.074585 0.759247 0.593658
0.110840 0.767426 0.609131
0.199432 0.758881 0.600128
0.358856 0.759857 0.632629
0.634644 0.765594 0.652191
0.838440 0.756134 0.516144
0.965576 0.721985 0.492950
0.074585 0.861664 0.514801
0.110840 0.867706 0.537170
0.147095 0.866882 0.538727
0.296448 0.857880 0.516846
0.542542 0.843964 0.511566
0.812286 0.858551 0.516815
0.961731 0.856110 0.513947
0.074585 0.944305 0.527893
0.110840 0.949402 0.549927
0.147095 0.952728 0.569885
0.205658 0.945618 0.557770
0.512909 0.935974 0.536072
0.809174 0.946930 0.537201
0.948334 0.944366 0.533234
0.112030 0.076874 0.820587
0.196594 0.075256 0.780823
0.300964 0.075012 0.777374
0.585846 0.096252 0.887146
0.780548 0.242889 0.886841
0.904541 0.302429 0.880005
0.959320 0.485168 0.887451
0.115356 0.192230 0.841553
0.233002 0.184662 0.837189
0.337067 0.124786 0.832428
0.532043 0.176971 0.872314
0.763062 0.392242 0.881165
0.894501 0.440582 0.876709
0.960144 0.591888 0.889648
0.101929 0.415009 0.843994
0.225311 0.406799 0.839050
0.331238 0.351898 0.835052
0.457275 0.298035 0.840790
0.729065 0.506927 0.873810
0.877747 0.584991 0.869904
0.960846 0.656158 0.884125
0.074585 0.630280 0.846588
0.211395 0.619385 0.839417
0.321136 0.595520 0.835358
0.450348 0.568909 0.838745
0.676178 0.616241 0.860687
0.859314 0.702972 0.861511
0.961639 0.713470 0.873413
0.074585 0.785645 0.847870
0.185974 0.775940 0.838287
0.304169 0.769775 0.833618
0.420654 0.745636 0.833801
0.624725 0.747101 0.841553
0.842163 0.790771 0.851776
0.962769 0.767181 0.850494
0.074585 0.866364 0.781464
0.110840 0.872955 0.790833
0.228058 0.864716 0.774872
0.370453 0.861633 0.794434
0.584717 0.868103 0.815674
0.819794 0.869415 0.824677
0.965027 0.860779 0.770386
0.074585 0.958435 0.656067
0.110840 0.963684 0.672821
0.154449 0.963379 0.671967
0.300964 0.955597 0.656036
0.496490 0.954559 0.655762
0.755981 0.946198 0.717133
0.950775 0.952820 0.653198
0.190491 0.079468 0.921661
0.298431 0.078247 0.919830
0.336578 0.076050 0.877106
0.572510 0.086700 0.953339
0.770813 0.245453 0.961945
0.918335 0.405487 0.964569
0.956604 0.486969 0.958282
0.211395 0.188751 0.946167
0.320648 0.185089 0.944092
0.400726 0.129059 0.920380
0.550507 0.140320 0.952515
0.746490 0.337189 0.962158
0.915894 0.523773 0.965515
0.957397 0.583282 0.959595
0.202972 0.407227 0.947968
0.316071 0.401001 0.945709
0.415192 0.348389 0.942841
0.515900 0.261597 0.942230
0.708496 0.426056 0.961334
0.911224 0.633362 0.966400
0.958099 0.676544 0.961456
0.189209 0.618805 0.949188
0.306946 0.613525 0.946564
0.408386 0.583923 0.943787
0.517395 0.551941 0.944397
0.655823 0.533752 0.953674
0.894287 0.705658 0.966797
0.958527 0.758087 0.963623
0.166962 0.765503 0.950470
0.293671 0.759918 0.947205
0.399139 0.755981 0.945068
0.503357 0.731140 0.943909
0.649597 0.732452 0.949158
0.858368 0.772888 0.964233
0.958771 0.830658 0.966064
0.120209 0.884277 0.951965
0.270233 0.877563 0.946747
0.382874 0.874939 0.944366
0.480835 0.857635 0.941559
0.623352 0.855774 0.947449
0.807526 0.858826 0.950348
0.959503 0.898560 0.961761
0.074585 0.956238 0.911743
0.130402 0.957550 0.912140
0.285553 0.950958 0.904175
0.417633 0.946228 0.912811
0.590118 0.952240 0.927979
0.794342 0.958954 0.939606
0.961029 0.962738 0.944061
