device/led.cube
#Created by: Adobe Photoshop Export Color Lookup Plugin
#Copyright: (C) Copyright 2026 汉图
TITLE "LED-TFT模拟.psd"
#LUT size
LUT_3D_SIZE 34
#data domain
DOMAIN_MIN 0.0 0.0 0.0
DOMAIN_MAX 1.0 1.0 1.0
#LUT data points
0.074585 0.074585 0.074585
0.081848 0.074585 0.074585
0.089081 0.074585 0.074585
0.096344 0.074585 0.074585
0.103607 0.074585 0.074585
0.110840 0.074585 0.074585
0.118103 0.074585 0.074585
0.125336 0.074585 0.074585
0.136871 0.074585 0.074585
0.168152 0.074585 0.074585
0.202087 0.074585 0.074585
0.238739 0.074585 0.074585
0.275757 0.074585 0.074585
0.316040 0.074585 0.074585
0.356964 0.074585 0.074585
0.399658 0.074585 0.074585
0.444244 0.074585 0.074585
0.489838 0.074585 0.074585
0.535248 0.074585 0.074585
0.579651 0.074738 0.074585
0.620758 0.075226 0.074585
0.660095 0.075928 0.074585
0.697632 0.076874 0.074585
0.732056 0.078369 0.074585
0.764404 0.080444 0.074585
0.796539 0.082886 0.074585
0.827423 0.086029 0.074585
0.858215 0.089355 0.074585
0.888123 0.093445 0.074585
0.909637 0.096313 0.074585
0.921356 0.096619 0.074585
0.932892 0.096893 0.074585
0.944153 0.097412 0.074585
0.955597 0.097778 0.074585
0.074585 0.081848 0.074585
0.081848 0.081848 0.074585
0.089081 0.081848 0.074585
0.096344 0.081848 0.074585
0.103607 0.081848 0.074585
0.110840 0.081848 0.074585
0.118103 0.081848 0.074585
0.125336 0.081848 0.074585
0.158325 0.081848 0.074585
0.196259 0.081848 0.074585
0.226257 0.081848 0.074585
0.258850 0.081848 0.074585
0.292145 0.081848 0.074585
0.327606 0.081848 0.074585
0.365234 0.081848 0.074585
0.405823 0.081848 0.074585
0.446869 0.081909 0.074585
0.489502 0.082184 0.074585
0.534485 0.082550 0.074585
0.578918 0.083099 0.074585
0.620361 0.084015 0.074585
0.660034 0.085083 0.074585
0.697205 0.086487 0.074585
0.731232 0.088562 0.074585
0.764740 0.090759 0.074585
0.796722 0.093750 0.074585
0.828278 0.097137 0.074585
0.858307 0.101379 0.074585
0.888458 0.105865 0.074585
0.910461 0.108795 0.074585
0.921936 0.109344 0.074585
0.933441 0.109680 0.074585
0.944977 0.110016 0.074585
0.956238 0.110626 0.074585
0.074585 0.089935 0.074585
0.081848 0.090118 0.074585
0.089081 0.090454 0.074585
0.096344 0.091278 0.074585
0.103607 0.089996 0.074585
0.110840 0.089813 0.074585
0.118103 0.089813 0.074585
0.125336 0.090057 0.074585
0.161255 0.090332 0.074585
0.204071 0.090729 0.074585
0.249634 0.091248 0.074585
0.283264 0.091125 0.074585
0.315826 0.090973 0.074585
0.349274 0.090668 0.074585
0.385284 0.090363 0.074585
0.422729 0.090088 0.074585
0.461243 0.090363 0.074585
0.500641 0.090942 0.074585
0.540710 0.091614 0.074585
0.580414 0.092682 0.074585
0.620300 0.093719 0.074585
0.659912 0.095062 0.074585
0.697723 0.096619 0.074585
0.732269 0.098969 0.074585
0.765289 0.101715 0.074585
0.797058 0.105194 0.074585
0.828064 0.109192 0.074585
0.858490 0.113739 0.074585
0.888733 0.118622 0.074585
0.910767 0.121979 0.074585
0.922485 0.122528 0.074585
0.934113 0.122864 0.074585
0.945496 0.123444 0.074585
0.956848 0.123840 0.074585
0.074585 0.103516 0.074585
0.081848 0.103088 0.074585
0.089081 0.104492 0.074585
0.096344 0.106171 0.074585
0.103607 0.109802 0.074585
0.110840 0.104401 0.074585
0.118103 0.103455 0.074585
0.125336 0.103882 0.074585
0.161438 0.104340 0.074585
0.205872 0.104858 0.074585
0.251434 0.105927 0.074585
0.299438 0.107178 0.074585
0.336243 0.107269 0.074585
0.369629 0.106384 0.074585
0.404297 0.105774 0.074585
0.439545 0.105347 0.074585
0.477173 0.104553 0.074585
0.515167 0.103577 0.074585
0.552765 0.102814 0.074585
0.591431 0.102966 0.074585
0.628418 0.104309 0.074585
0.664246 0.105957 0.074585
0.699402 0.107697 0.074585
0.732147 0.110352 0.074585
0.765167 0.113464 0.074585
0.796844 0.117432 0.074585
0.828400 0.121613 0.074585
0.859039 0.126465 0.074585
0.888885 0.131989 0.074585
0.911285 0.135559 0.074585
0.922729 0.136108 0.074585
0.934021 0.136749 0.074585
0.945679 0.137177 0.074585
0.957428 0.137634 0.074585
0.074585 0.122925 0.074585
0.081848 0.122437 0.074585
0.089081 0.123566 0.074585
0.096344 0.124939 0.074585
0.103607 0.129272 0.074585
0.110840 0.135132 0.074585
0.118103 0.125488 0.074585
0.125336 0.124725 0.074585
0.159393 0.124786 0.074585
0.206268 0.125153 0.074585
0.252228 0.126312 0.074585
0.300201 0.127960 0.074585
0.350433 0.130249 0.074585
0.389587 0.129730 0.074585
0.422546 0.128082 0.074585
0.457642 0.126221 0.074585
0.493652 0.124664 0.074585
0.530121 0.123291 0.074585
0.566528 0.122131 0.074585
0.602722 0.120972 0.074585
0.638031 0.119568 0.074585
0.671814 0.118774 0.074585
0.705048 0.119934 0.074585
0.736603 0.122650 0.074585
0.767395 0.126129 0.074585
0.797607 0.130188 0.074585
0.828400 0.134644 0.074585
0.858978 0.139984 0.074585
0.889130 0.145721 0.074585
0.911621 0.149841 0.074585
0.923126 0.150391 0.074585
0.934509 0.150909 0.074585
0.946045 0.151337 0.074585
0.957520 0.151825 0.074585
0.074585 0.147125 0.074585
0.081848 0.147125 0.074585
0.089081 0.146729 0.074585
0.096344 0.148865 0.074585
0.103607 0.152283 0.074585
0.110840 0.159088 0.074585
0.118103 0.166992 0.074585
0.125336 0.152313 0.074585
0.149780 0.152130 0.074585
0.200378 0.151642 0.074585
0.250458 0.152649 0.074585
0.299744 0.154541 0.074585
0.350677 0.156769 0.074585
0.403168 0.159882 0.074585
0.440704 0.158173 0.074585
0.474243 0.154755 0.074585
0.508606 0.151855 0.074585
0.544006 0.148468 0.074585
0.579163 0.146179 0.074585
0.614288 0.143799 0.074585
0.647888 0.141998 0.074585
0.680267 0.140411 0.074585
0.712006 0.139160 0.074585
0.741669 0.138397 0.074585
0.770691 0.139740 0.074585
0.800629 0.143951 0.074585
0.829803 0.148987 0.074585
0.859344 0.154388 0.074585
0.888947 0.160309 0.074585
0.911926 0.164673 0.074585
0.923492 0.165161 0.074585
0.934998 0.165588 0.074585
0.946350 0.166229 0.074585
0.957855 0.166718 0.074585
0.074585 0.175934 0.074585
0.081848 0.176239 0.074585
0.089081 0.175079 0.074585
0.096344 0.176514 0.074585
0.103607 0.180450 0.074585
0.110840 0.185364 0.074585
0.118103 0.194092 0.074585
0.125336 0.205963 0.074585
0.140564 0.187866 0.074585
0.188171 0.184509 0.074585
0.242401 0.183990 0.074585
0.296692 0.185760 0.074585
0.350403 0.188293 0.074585
0.403992 0.191467 0.074585
0.456787 0.195862 0.074585
0.489868 0.190521 0.074585
0.523224 0.185272 0.074585
0.557098 0.180298 0.074585
0.591309 0.175873 0.074585
0.625092 0.171967 0.074585
0.658295 0.168121 0.074585
0.689209 0.165558 0.074585
0.719696 0.162842 0.074585
0.749298 0.161133 0.074585
0.776703 0.161072 0.074585
0.803528 0.161591 0.074585
0.831848 0.163483 0.074585
0.860138 0.169434 0.074585
0.889160 0.175385 0.074585
0.912262 0.179993 0.074585
0.923798 0.180420 0.074585
0.935211 0.181000 0.074585
0.946716 0.181488 0.074585
0.958160 0.182007 0.074585
0.074585 0.208099 0.074585
0.081848 0.209412 0.074585
0.089081 0.208008 0.074585
0.096344 0.207397 0.074585
0.103607 0.211639 0.074585
0.110840 0.215668 0.074585
0.118103 0.222839 0.074585
0.125336 0.233368 0.074585
0.149628 0.248688 0.074585
0.180481 0.227783 0.074585
0.228729 0.221497 0.074585
0.285614 0.221863 0.074585
0.344391 0.223541 0.074585
0.401367 0.226868 0.074585
0.456665 0.231506 0.074585
0.505615 0.233612 0.074585
0.537140 0.226257 0.074585
0.570099 0.218567 0.074585
0.603180 0.211456 0.074585
0.635651 0.205109 0.074585
0.667053 0.199463 0.074585
0.698212 0.194244 0.074585
0.727539 0.190063 0.074585
0.756805 0.186401 0.074585
0.784729 0.184235 0.074585
0.809937 0.184143 0.074585
0.836151 0.184174 0.074585
0.861755 0.185822 0.074585
0.889343 0.190918 0.074585
0.912476 0.195618 0.074585
0.924011 0.196136 0.074585
0.935486 0.196655 0.074585
0.946930 0.197296 0.074585
0.958405 0.197784 0.074585
0.074585 0.243011 0.074585
0.081848 0.244415 0.074585
0.089081 0.244232 0.074585
0.096344 0.242310 0.074585
0.103607 0.244263 0.074585
0.110840 0.249207 0.074585
0.118103 0.253845 0.074585
0.125336 0.263916 0.074585
0.132599 0.278046 0.074585
0.191101 0.294708 0.074585
0.222870 0.271027 0.074585
0.271423 0.262390 0.074585
0.332703 0.262665 0.074585
0.394592 0.265228 0.074585
0.453033 0.269653 0.074585
0.508942 0.275543 0.074585
0.551025 0.273254 0.074585
0.582153 0.262848 0.074585
0.614105 0.252899 0.074585
0.645020 0.244080 0.074585
0.675629 0.235779 0.074585
0.705933 0.227478 0.074585
0.734528 0.221405 0.074585
0.763489 0.215332 0.074585
0.791656 0.210419 0.074585
0.817932 0.207794 0.074585
0.842102 0.207520 0.074585
0.866974 0.207611 0.074585
0.892029 0.208801 0.074585
0.912628 0.211761 0.074585
0.924194 0.212280 0.074585
0.935638 0.212952 0.074585
0.947174 0.213470 0.074585
0.958679 0.214050 0.074585
0.074585 0.279938 0.074585
0.081848 0.281372 0.074585
0.089081 0.282684 0.074585
0.096344 0.280853 0.074585
0.103607 0.279297 0.074585
0.110840 0.284058 0.074585
0.118103 0.289276 0.074585
0.125336 0.295410 0.074585
0.132599 0.307739 0.074585
0.165741 0.325073 0.074585
0.234558 0.342926 0.074585
0.265747 0.316559 0.074585
0.317139 0.306152 0.074585
0.380341 0.307251 0.074585
0.444763 0.309601 0.074585
0.502991 0.315399 0.074585
0.559570 0.322876 0.074585
0.593414 0.313995 0.074585
0.624878 0.301666 0.074585
0.654663 0.289490 0.074585
0.684418 0.277161 0.074585
0.713135 0.265686 0.074585
0.741150 0.256470 0.074585
0.769440 0.247589 0.074585
0.796753 0.240845 0.074585
0.824097 0.234741 0.074585
0.849243 0.231323 0.074585
0.872772 0.230560 0.074585
0.895996 0.230560 0.074585
0.914337 0.231293 0.074585
0.925995 0.232300 0.074585
0.936920 0.232178 0.074585
0.948151 0.231842 0.074585
0.959198 0.231720 0.074585
0.074585 0.317810 0.074585
0.081848 0.319336 0.074585
0.089081 0.321930 0.074585
0.096344 0.320282 0.074585
0.103607 0.317444 0.074585
0.110840 0.319305 0.074585
0.118103 0.324646 0.074585
0.125336 0.330505 0.074585
0.132599 0.339722 0.074585
0.143066 0.354492 0.074585
0.208374 0.373444 0.074585
0.278595 0.391388 0.074585
0.309662 0.362915 0.074585
0.363556 0.352844 0.074585
0.429688 0.353851 0.074585
0.494110 0.357147 0.074585
0.551819 0.363342 0.074585
0.602539 0.368439 0.074585
0.633514 0.354889 0.074585
0.663391 0.341522 0.074585
0.692505 0.327393 0.074585
0.719849 0.314392 0.074585
0.747528 0.300934 0.074585
0.775421 0.287170 0.074585
0.802094 0.275269 0.074585
0.829102 0.264709 0.074585
0.854889 0.258118 0.074585
0.878418 0.254730 0.074585
0.900970 0.253479 0.074585
0.917023 0.253754 0.074585
0.928925 0.254578 0.074585
0.939728 0.254578 0.074585
0.950958 0.254089 0.074585
0.961792 0.253693 0.074585
0.074585 0.356384 0.074585
0.081848 0.357849 0.074585
0.089081 0.360748 0.074585
0.096344 0.360199 0.074585
0.103607 0.357788 0.074585
0.110840 0.356201 0.074585
0.118103 0.360199 0.074585
0.125336 0.366547 0.074585
0.132599 0.372314 0.074585
0.139832 0.384796 0.074585
0.183319 0.402130 0.074585
0.253693 0.421906 0.074585
0.323212 0.435455 0.074585
0.354767 0.408234 0.074585
0.412170 0.400299 0.074585
0.479187 0.401611 0.074585
0.542480 0.405609 0.074585
0.599640 0.412567 0.074585
0.640106 0.410095 0.074585
0.669922 0.395966 0.074585
0.698578 0.380920 0.074585
0.726868 0.365662 0.074585
0.754059 0.350830 0.074585
0.780914 0.336365 0.074585
0.807373 0.322571 0.074585
0.834381 0.307953 0.074585
0.859833 0.295776 0.074585
0.885315 0.283569 0.074585
0.905731 0.277985 0.074585
0.920471 0.277130 0.074585
0.932220 0.278412 0.074585
0.942963 0.277893 0.074585
0.953949 0.277283 0.074585
0.964630 0.277191 0.074585
0.074585 0.395111 0.074585
0.081848 0.396210 0.074585
0.089081 0.399200 0.074585
0.096344 0.400482 0.074585
0.103607 0.398499 0.074585
0.110840 0.395203 0.074585
0.118103 0.396606 0.074585
0.125336 0.401855 0.074585
0.132599 0.408081 0.074585
0.139832 0.415985 0.074585
0.163300 0.431244 0.074585
0.227203 0.449219 0.074585
0.302460 0.470459 0.074585
0.367157 0.478027 0.074585
0.399658 0.451233 0.074585
0.461090 0.447754 0.074585
0.527649 0.449982 0.074585
0.588959 0.454193 0.074585
0.643188 0.460663 0.074585
0.674866 0.450378 0.074585
0.703339 0.435455 0.074585
0.731110 0.419983 0.074585
0.758911 0.404297 0.074585
0.785919 0.388245 0.074585
0.812134 0.372803 0.074585
0.837982 0.357880 0.074585
0.864502 0.343048 0.074585
0.889740 0.328827 0.074585
0.915192 0.315613 0.074585
0.929169 0.313995 0.074585
0.940948 0.315918 0.074585
0.951385 0.313080 0.074585
0.961304 0.310120 0.074585
0.971375 0.307220 0.074585
0.074585 0.433319 0.074585
0.081848 0.434326 0.074585
0.089081 0.437195 0.074585
0.096344 0.439789 0.074585
0.103607 0.437988 0.074585
0.110840 0.435059 0.074585
0.118103 0.433105 0.074585
0.125336 0.436615 0.074585
0.132599 0.442963 0.074585
0.139832 0.449463 0.074585
0.147095 0.460388 0.074585
0.204926 0.476898 0.074585
0.273621 0.496002 0.074585
0.353638 0.517548 0.074585
0.411896 0.517609 0.074585
0.444031 0.492828 0.074585
0.509735 0.493866 0.074585
0.574188 0.497253 0.074585
0.633118 0.500916 0.074585
0.679749 0.502228 0.074585
0.707214 0.488342 0.074585
0.734436 0.473785 0.074585
0.761566 0.458374 0.074585
0.789185 0.441650 0.074585
0.816040 0.425018 0.074585
0.842041 0.409088 0.074585
0.867554 0.393372 0.074585
0.893616 0.377350 0.074585
0.918610 0.362701 0.074585
0.932007 0.360992 0.074585
0.943481 0.362274 0.074585
0.954620 0.358490 0.074585
0.965729 0.353973 0.074585
0.976746 0.349792 0.074585
0.074585 0.470184 0.074585
0.081848 0.471497 0.074585
0.089081 0.474426 0.074585
0.096344 0.476898 0.074585
0.103607 0.477142 0.074585
0.110840 0.473877 0.074585
0.118103 0.470245 0.074585
0.125336 0.471313 0.074585
0.132599 0.476410 0.074585
0.139832 0.482666 0.074585
0.147095 0.489838 0.074585
0.184265 0.504974 0.074585
0.250336 0.521057 0.074585
0.323151 0.540192 0.074585
0.405396 0.560730 0.074585
0.456085 0.554352 0.074585
0.488495 0.531494 0.074585
0.557007 0.538055 0.074585
0.618408 0.541901 0.074585
0.673035 0.545105 0.074585
0.710510 0.538483 0.074585
0.737091 0.524536 0.074585
0.764252 0.509888 0.074585
0.790802 0.494812 0.074585
0.817871 0.478546 0.074585
0.844666 0.461548 0.074585
0.870789 0.444885 0.074585
0.896057 0.428528 0.074585
0.921906 0.411835 0.074585
0.933685 0.410522 0.074585
0.945068 0.411194 0.074585
0.956299 0.407196 0.074585
0.967529 0.402863 0.074585
0.978638 0.398163 0.074585
0.074585 0.506195 0.074585
0.081848 0.507324 0.074585
0.089081 0.510223 0.074585
0.096344 0.512726 0.074585
0.103607 0.514282 0.074585
0.110840 0.511810 0.074585
0.118103 0.509064 0.074585
0.125336 0.506226 0.074585
0.132599 0.509125 0.074585
0.139832 0.515045 0.074585
0.147095 0.520844 0.074585
0.167267 0.531189 0.074585
0.228790 0.546539 0.074585
0.297638 0.563568 0.074585
0.375732 0.582123 0.074585
0.457916 0.601105 0.074585
0.499146 0.588654 0.074585
0.535919 0.571350 0.074585
0.602448 0.579010 0.074585
0.658966 0.583069 0.074585
0.708832 0.585999 0.074585
0.740051 0.572876 0.074585
0.765320 0.558350 0.074585
0.791595 0.544861 0.074585
0.818481 0.529816 0.074585
0.845459 0.513306 0.074585
0.872070 0.496735 0.074585
0.898163 0.479828 0.074585
0.923340 0.463226 0.074585
0.934692 0.461029 0.074585
0.946106 0.461060 0.074585
0.957489 0.456390 0.074585
0.968719 0.451996 0.074585
0.979980 0.447327 0.074585
0.074585 0.541138 0.074585
0.081848 0.541840 0.074585
0.089081 0.544556 0.074585
0.096344 0.547058 0.074585
0.103607 0.548767 0.074585
0.110840 0.548737 0.074585
0.118103 0.545258 0.074585
0.125336 0.541016 0.074585
0.132599 0.541199 0.074585
0.139832 0.546021 0.074585
0.147095 0.551575 0.074585
0.154327 0.558716 0.074585
0.209503 0.572205 0.074585
0.275513 0.586731 0.074585
0.348755 0.603119 0.074585
0.430359 0.621399 0.074585
0.509644 0.638214 0.074585
0.541016 0.620422 0.074585
0.581390 0.608307 0.074585
0.644135 0.616455 0.074585
0.696472 0.620453 0.074585
0.742096 0.623199 0.074585
0.767944 0.605560 0.074585
0.793549 0.590698 0.074585
0.817719 0.577728 0.074585
0.844086 0.563599 0.074585
0.870667 0.548248 0.074585
0.897339 0.532166 0.074585
0.924011 0.514313 0.074585
0.935394 0.510651 0.074585
0.946808 0.509430 0.074585
0.958191 0.505310 0.074585
0.969513 0.500702 0.074585
0.980835 0.496368 0.074585
0.074585 0.574036 0.074585
0.081848 0.574341 0.074585
0.089081 0.577179 0.074585
0.096344 0.579559 0.074585
0.103607 0.581360 0.074585
0.110840 0.582550 0.074585
0.118103 0.580292 0.074585
0.125336 0.576233 0.074585
0.132599 0.573517 0.074585
0.139832 0.575470 0.074585
0.147095 0.581329 0.074585
0.154327 0.586639 0.074585
0.193970 0.596710 0.074585
0.256714 0.609528 0.074585
0.325500 0.624298 0.074585
0.402191 0.640381 0.074585
0.485565 0.657654 0.074585
0.550751 0.665894 0.074585
0.580627 0.649811 0.074585
0.623383 0.642334 0.074585
0.682892 0.650757 0.074585
0.731689 0.654755 0.074585
0.769073 0.652649 0.074585
0.794708 0.636902 0.074585
0.820374 0.621735 0.074585
0.842834 0.608490 0.074585
0.868835 0.595459 0.074585
0.894989 0.580994 0.074585
0.921448 0.565643 0.074585
0.935852 0.558197 0.074585
0.947266 0.555695 0.074585
0.958649 0.551849 0.074585
0.969971 0.547577 0.074585
0.981323 0.543427 0.074585
0.074585 0.605865 0.074585
0.081848 0.605804 0.074585
0.089081 0.608429 0.074585
0.096344 0.610809 0.074585
0.103607 0.612366 0.074585
0.110840 0.613861 0.074585
0.118103 0.613617 0.074585
0.125336 0.610168 0.074585
0.132599 0.605896 0.074585
0.139832 0.605042 0.074585
0.147095 0.609253 0.074585
0.154327 0.614258 0.074585
0.178772 0.621033 0.074585
0.239777 0.632782 0.074585
0.306183 0.645813 0.074585
0.378998 0.660004 0.074585
0.458038 0.675201 0.074585
0.538971 0.691040 0.074585
0.589905 0.691620 0.074585
0.618439 0.677094 0.074585
0.663422 0.673462 0.074585
0.719086 0.681732 0.074585
0.764771 0.686279 0.074585
0.794952 0.679718 0.074585
0.820190 0.665924 0.074585
0.845642 0.650879 0.074585
0.867126 0.637482 0.074585
0.892670 0.625458 0.074585
0.918549 0.611847 0.074585
0.936096 0.602509 0.074585
0.947510 0.599152 0.074585
0.958923 0.595703 0.074585
0.970306 0.591492 0.074585
0.981720 0.587219 0.074585
0.074585 0.635986 0.074585
0.081848 0.636169 0.074585
0.089081 0.638702 0.074585
0.096344 0.640869 0.074585
0.103607 0.642487 0.074585
0.110840 0.643829 0.074585
0.118103 0.644562 0.074585
0.125336 0.642517 0.074585
0.132599 0.638428 0.074585
0.139832 0.635193 0.074585
0.147095 0.636749 0.074585
0.154327 0.641266 0.074585
0.165527 0.646820 0.074585
0.225311 0.656342 0.074585
0.290070 0.667572 0.074585
0.360291 0.680145 0.074585
0.435913 0.693909 0.074585
0.515625 0.708344 0.074585
0.589813 0.721466 0.074585
0.627747 0.715790 0.074585
0.654419 0.702606 0.074585
0.701385 0.702545 0.074585
0.753082 0.710327 0.074585
0.795715 0.715057 0.074585
0.819885 0.704895 0.074585
0.844696 0.692535 0.074585
0.869873 0.678497 0.074585
0.893250 0.664886 0.074585
0.915802 0.653625 0.074585
0.936188 0.643768 0.074585
0.947632 0.639282 0.074585
0.959045 0.635956 0.074585
0.970490 0.632599 0.074585
0.981903 0.628845 0.074585
0.074585 0.665283 0.074585
0.081848 0.665619 0.074585
0.089081 0.667786 0.074585
0.096344 0.669830 0.074585
0.103607 0.671570 0.074585
0.110840 0.672760 0.074585
0.118103 0.673615 0.074585
0.125336 0.673828 0.074585
0.132599 0.670349 0.074585
0.139832 0.665619 0.074585
0.147095 0.664825 0.074585
0.154327 0.668213 0.074585
0.161591 0.672943 0.074585
0.214172 0.679535 0.074585
0.277191 0.689911 0.074585
0.344543 0.700745 0.074585
0.417236 0.712769 0.074585
0.493988 0.725555 0.074585
0.571564 0.738647 0.074585
0.638031 0.749634 0.074585
0.664001 0.738708 0.074585
0.689117 0.726898 0.074585
0.737274 0.729858 0.074585
0.785095 0.737000 0.074585
0.819794 0.737701 0.074585
0.843811 0.728546 0.074585
0.868286 0.717010 0.074585
0.893158 0.704590 0.074585
0.919067 0.690796 0.074585
0.936188 0.681030 0.074585
0.947571 0.675751 0.074585
0.959045 0.672272 0.074585
0.970520 0.669830 0.074585
0.981964 0.666473 0.074585
0.074585 0.693695 0.074585
0.081848 0.693878 0.074585
0.089081 0.696075 0.074585
0.096344 0.697998 0.074585
0.103607 0.699524 0.074585
0.110840 0.700745 0.074585
0.118103 0.701569 0.074585
0.125336 0.702118 0.074585
0.132599 0.700378 0.074585
0.139832 0.696960 0.074585
0.147095 0.692963 0.074585
0.154327 0.694489 0.074585
0.161591 0.698425 0.074585
0.205597 0.703552 0.074585
0.266846 0.712006 0.074585
0.332550 0.721588 0.074585
0.402527 0.732391 0.074585
0.476776 0.743378 0.074585
0.551758 0.755005 0.074585
0.623535 0.766632 0.074585
0.674164 0.770721 0.074585
0.698639 0.760681 0.074585
0.722412 0.749847 0.074585
0.771362 0.755432 0.074585
0.814941 0.761932 0.074585
0.843018 0.759064 0.074585
0.866821 0.750793 0.074585
0.891022 0.740356 0.074585
0.916077 0.728943 0.074585
0.936096 0.717163 0.074585
0.947571 0.708862 0.074585
0.959015 0.705078 0.074585
0.970459 0.703064 0.074585
0.981903 0.700684 0.074585
0.074585 0.721130 0.074585
0.081848 0.721100 0.074585
0.089081 0.723083 0.074585
0.096344 0.724915 0.074585
0.103607 0.726318 0.074585
0.110840 0.727570 0.074585
0.118103 0.728485 0.074585
0.125336 0.729065 0.074585
0.132599 0.729401 0.074585
0.139832 0.726501 0.074585
0.147095 0.722290 0.074585
0.154327 0.720856 0.074585
0.161591 0.723297 0.074585
0.198456 0.727875 0.074585
0.258453 0.734314 0.074585
0.323120 0.742828 0.074585
0.391266 0.752045 0.074585
0.462921 0.761810 0.074585
0.536530 0.772278 0.074585
0.607635 0.782684 0.074585
0.671417 0.792542 0.074585
0.708923 0.791138 0.074585
0.732025 0.781921 0.074585
0.758240 0.774323 0.074585
0.803345 0.779663 0.074585
0.841187 0.784332 0.074585
0.865417 0.779449 0.074585
0.888947 0.772125 0.074585
0.912872 0.762573 0.074585
0.935913 0.752441 0.074585
0.947388 0.742401 0.074585
0.958832 0.734863 0.074585
0.970337 0.733276 0.074585
0.981812 0.731415 0.074585
0.074585 0.747223 0.074585
0.081848 0.747162 0.074585
0.089081 0.749054 0.074585
0.096344 0.750763 0.074585
0.103607 0.752136 0.074585
0.110840 0.753326 0.074585
0.118103 0.754272 0.074585
0.125336 0.755035 0.074585
0.132599 0.755493 0.074585
0.139832 0.754761 0.074585
0.147095 0.751038 0.074585
0.154327 0.747894 0.074585
0.161591 0.748260 0.074585
0.194641 0.751587 0.074585
0.252991 0.756500 0.074585
0.316498 0.764130 0.074585
0.382812 0.772034 0.074585
0.452698 0.780731 0.074585
0.524384 0.789978 0.074585
0.594635 0.799377 0.074585
0.661255 0.809052 0.074585
0.717255 0.817261 0.074585
0.742462 0.810883 0.074585
0.764069 0.802338 0.074585
0.792511 0.797791 0.074585
0.833252 0.802582 0.074585
0.863129 0.803192 0.074585
0.886932 0.799103 0.074585
0.910156 0.792419 0.074585
0.933777 0.783600 0.074585
0.947144 0.774902 0.074585
0.958679 0.765900 0.074585
0.970154 0.760559 0.074585
0.981628 0.759308 0.074585
0.074585 0.772522 0.074585
0.081848 0.772522 0.074585
0.089081 0.774109 0.074585
0.096344 0.775757 0.074585
0.103607 0.777191 0.074585
0.110840 0.778259 0.074585
0.118103 0.779266 0.074585
0.125336 0.779907 0.074585
0.132599 0.780670 0.074585
0.139832 0.781067 0.074585
0.147095 0.779236 0.074585
0.154327 0.775391 0.074585
0.161591 0.773529 0.074585
0.191681 0.775238 0.074585
0.250641 0.778931 0.074585
0.312500 0.785492 0.074585
0.378357 0.792450 0.074585
0.447052 0.800262 0.074585
0.516510 0.808228 0.074585
0.585205 0.816681 0.074585
0.650635 0.825439 0.074585
0.710388 0.833862 0.074585
0.753845 0.837646 0.074585
0.774689 0.830231 0.074585
0.794800 0.822327 0.074585
0.824554 0.820190 0.074585
0.860962 0.824463 0.074585
0.884460 0.821655 0.074585
0.907654 0.817993 0.074585
0.930359 0.811920 0.074585
0.946869 0.804138 0.074585
0.958405 0.796204 0.074585
0.969940 0.789124 0.074585
0.981415 0.784973 0.074585
0.074585 0.797058 0.074585
0.081848 0.797028 0.074585
0.089081 0.798584 0.074585
0.096344 0.800049 0.074585
0.103607 0.801483 0.074585
0.110840 0.802612 0.074585
0.118103 0.803558 0.074585
0.125336 0.804230 0.074585
0.132599 0.804901 0.074585
0.139832 0.805481 0.074585
0.147095 0.806030 0.074585
0.154327 0.802704 0.074585
0.161591 0.799255 0.074585
0.190979 0.798950 0.074585
0.250427 0.801971 0.074585
0.312500 0.807220 0.074585
0.377411 0.813477 0.074585
0.444885 0.820129 0.074585
0.512970 0.827301 0.074585
0.580231 0.834839 0.074585
0.643860 0.842255 0.074585
0.703888 0.850281 0.074585
0.755127 0.857178 0.074585
0.785919 0.856110 0.074585
0.805237 0.849121 0.074585
0.824066 0.841858 0.074585
0.854156 0.841614 0.074585
0.882538 0.842468 0.074585
0.904907 0.839539 0.074585
0.927338 0.836151 0.074585
0.946564 0.830719 0.074585
