device/led.cube
#Created by: Adobe Photoshop Export Color Lookup Plugin
#Copyright: (C) Copyright 2026 汉图
TITLE "LED-TFT模拟.psd"
#LUT size
LUT_3D_SIZE 4
#data domain
DOMAIN_MIN 0.0 0.0 0.0
DOMAIN_MAX 1.0 1.0 1.0
#LUT data points
0.074585 0.074585 0.074585
0.238739 0.074585 0.074585
0.697632 0.076874 0.074585
0.955597 0.097778 0.074585
0.074585 0.356384 0.074585
0.253693 0.421906 0.074585
0.754059 0.350830 0.074585
0.964630 0.277191 0.074585
0.074585 0.721130 0.074585
0.154327 0.720856 0.074585
0.732025 0.781921 0.074585
0.981812 0.731415 0.074585
0.074585 0.977295 0.093781
0.283722 0.986908 0.141174
0.781036 0.996094 0.143433
0.978210 0.976379 0.124023
0.074585 0.074585 0.281677
0.304565 0.094849 0.318024
0.788574 0.086090 0.305725
0.975525 0.099640 0.154327
0.074585 0.439331 0.191254
0.209412 0.445374 0.209320
0.739960 0.384064 0.177856
0.982452 0.290375 0.154327
0.074585 0.758698 0.230988
0.154327 0.755035 0.254333
0.728088 0.792786 0.259064
0.987396 0.758820 0.244476
0.074585 0.981812 0.318970
0.173950 0.994934 0.390472
0.769684 0.998138 0.358948
0.986847 0.980194 0.340729
0.074585 0.075867 0.742615
0.369110 0.075165 0.778992
0.795807 0.244476 0.805176
0.981537 0.381348 0.824646
0.074585 0.467804 0.767914
0.307861 0.397797 0.752228
0.759674 0.573364 0.786469
0.983856 0.563873 0.796173
0.074585 0.804993 0.676147
0.237518 0.802856 0.684509
0.710052 0.806763 0.730652
0.987427 0.775787 0.594177
0.074585 0.988861 0.584106
0.154327 1.000000 0.631042
0.655640 0.999359 0.605621
0.987427 0.991425 0.593414
0.208740 0.081390 0.963379
0.361877 0.076630 0.916901
0.817230 0.325958 0.992096
0.977661 0.529022 0.992859
0.214508 0.456055 0.984467
0.448486 0.394257 0.980347
0.762604 0.530426 0.992096
0.978912 0.716949 0.997223
0.182129 0.804962 0.989105
0.436005 0.791809 0.983917
0.720184 0.787048 0.992462
0.974243 0.879211 1.000000
0.074585 0.995972 0.961426
0.334503 0.988800 0.953522
0.690430 0.996857 0.982574
1.000000 1.000000 1.000000
