device/zink.cube
#Created by: Adobe Photoshop Export Color Lookup Plugin
#Copyright: (C) Copyright 2026 汉图
TITLE "mint本征"
#LUT size
LUT_3D_SIZE 4
#data domain
DOMAIN_MIN 0.0 0.0 0.0
DOMAIN_MAX 1.0 1.0 1.0
#LUT data points
0.750305 0.832672 0.782349
0.750305 0.832672 0.782349
0.750305 0.832672 0.782349
0.750305 0.832672 0.782349
0.750305 0.832672 0.782349
0.750305 0.832672 0.782349
0.750305 0.832672 0.782349
0.750305 0.832672 0.782349
0.750305 0.832672 0.782349
0.750305 0.832672 0.782349
0.750305 0.832672 0.782349
0.750305 0.832672 0.782349
0.750305 0.832672 0.782349
0.750305 0.832672 0.782349
0.750305 0.832672 0.782349
0.750305 0.832672 0.782349
0.750305 0.832672 0.782349
0.750305 0.832672 0.782349
0.750305 0.832672 0.782349
0.750305 0.832672 0.782349
0.750305 0.832672 0.782349
0.750305 0.832672 0.782349
0.750305 0.832672 0.782349
0.750305 0.832672 0.782349
0.750305 0.832672 0.782349
0.750305 0.832672 0.782349
0.750305 0.832672 0.782349
0.750305 0.832672 0.782349
0.750305 0.832672 0.782349
0.750305 0.832672 0.782349
0.750305 0.832672 0.782349
0.750305 0.832672 0.782349
0.750305 0.832672 0.782349
0.750305 0.832672 0.782349
0.750305 0.832672 0.782349
0.750305 0.832672 0.782349
0.750305 0.832672 0.782349
0.750305 0.832672 0.782349
0.750305 0.832672 0.782349
0.750305 0.832672 0.782349
0.750305 0.832672 0.782349
0.750305 0.832672 0.782349
0.750305 0.832672 0.782349
0.750305 0.832672 0.782349
0.750305 0.832672 0.782349
0.750305 0.832672 0.782349
0.750305 0.832672 0.782349
0.750305 0.832672 0.782349
0.750305 0.832672 0.782349
0.750305 0.832672 0.782349
0.750305 0.832672 0.782349
0.750305 0.832672 0.782349
0.750305 0.832672 0.782349
0.750305 0.832672 0.782349
0.750305 0.832672 0.782349
0.750305 0.832672 0.782349
0.750305 0.832672 0.782349
0.750305 0.832672 0.782349
0.750305 0.832672 0.782349
0.750305 0.832672 0.782349
0.750305 0.832672 0.782349
0.750305 0.832672 0.782349
0.750305 0.832672 0.782349
0.750305 0.832672 0.782349
