device/zink3.cube
#Created by: Adobe Photoshop Export Color Lookup Plugin
#Copyright: (C) Copyright 2026 汉图
TITLE "mint本征源文件.psd"
#LUT size
LUT_3D_SIZE 4
#data domain
DOMAIN_MIN 0.0 0.0 0.0
DOMAIN_MAX 1.0 1.0 1.0
#LUT data points
0.157135 0.145813 0.111328
0.364471 0.206879 0.169525
0.565521 0.268799 0.218414
0.689911 0.317719 0.260925
0.209229 0.294312 0.139984
0.376221 0.299042 0.159393
0.576904 0.334045 0.190521
0.699402 0.360504 0.212402
0.263214 0.510223 0.172638
0.445984 0.509277 0.168518
0.601624 0.497925 0.192169
0.729370 0.521881 0.222534
0.348145 0.715759 0.167328
0.531128 0.724365 0.143311
0.684570 0.720825 0.138458
0.758759 0.697845 0.181396
0.196320 0.183105 0.224792
0.351593 0.206818 0.262695
0.552460 0.272522 0.317474
0.688263 0.325531 0.363617
0.213409 0.309052 0.240936
0.385529 0.338867 0.279907
0.590271 0.397797 0.336517
0.722473 0.448547 0.385651
0.253387 0.500153 0.254028
0.444458 0.538147 0.312561
0.606689 0.538025 0.331543
0.738007 0.562469 0.361450
0.333740 0.698364 0.271545
0.508820 0.732239 0.350342
0.679016 0.744751 0.359985
0.760468 0.727020 0.371826
0.254303 0.226410 0.361816
0.332581 0.216858 0.371033
0.532623 0.267181 0.425629
0.685059 0.324982 0.478699
0.275360 0.358704 0.383514
0.388245 0.365692 0.409637
0.577576 0.401245 0.456696
0.721771 0.454742 0.507874
0.290314 0.513580 0.387238
0.422424 0.553894 0.433380
0.619781 0.588409 0.479889
0.758087 0.633362 0.528168
0.341095 0.695343 0.398438
0.444519 0.729431 0.445465
0.677063 0.765015 0.517151
0.772919 0.762665 0.527954
0.315460 0.270782 0.491730
0.349243 0.236115 0.493500
0.495087 0.273407 0.515289
0.655945 0.315186 0.548096
0.340332 0.408569 0.515320
0.428650 0.423706 0.538635
0.548218 0.412476 0.550323
0.698242 0.446869 0.579712
0.356476 0.584900 0.539642
0.447510 0.604431 0.563477
0.634857 0.635315 0.598724
0.748596 0.640228 0.616638
0.377594 0.698639 0.526733
0.433777 0.731110 0.562317
0.648804 0.768738 0.611267
0.785156 0.791107 0.641022
