device/zink2.cube
#Created by: Adobe Photoshop Export Color Lookup Plugin
#Copyright: (C) Copyright 2026 汉图
TITLE "mint本征源文件.psd"
#LUT size
LUT_3D_SIZE 7
#data domain
#LUT data points
DOMAIN_MIN 0.000000 0.000000 0.000000
DOMAIN_MAX 0.909091 0.909091 0.909091
0.113464 0.115143 0.086975
0.223602 0.140167 0.113220
0.332336 0.165985 0.137238
0.439331 0.193176 0.159119
0.546387 0.220520 0.179749
0.639618 0.246765 0.198914
0.708496 0.269196 0.218597
0.133514 0.185364 0.098846
0.227051 0.189026 0.107819
0.334503 0.202148 0.122406
0.440216 0.217194 0.134064
0.545471 0.233398 0.143066
0.636871 0.249298 0.150452
0.705200 0.267609 0.164856
0.157501 0.279205 0.112610
0.251495 0.285767 0.115967
0.342010 0.281250 0.126923
0.449615 0.294281 0.140503
0.556671 0.308411 0.152191
0.650024 0.322449 0.161407
0.718750 0.333954 0.170349
0.180634 0.384369 0.125427
0.275848 0.387817 0.126129
0.375305 0.395630 0.129517
0.458008 0.381958 0.142151
0.566467 0.394592 0.155640
0.661560 0.407379 0.167145
0.731995 0.417847 0.177551
0.198090 0.502625 0.137451
0.300232 0.500824 0.132141
0.403015 0.507019 0.133942
0.488098 0.499878 0.136627
0.575928 0.490570 0.151581
0.672180 0.502228 0.165466
0.744476 0.511841 0.178192
0.224121 0.623230 0.140869
0.323456 0.620544 0.131500
0.431488 0.624573 0.128448
0.533752 0.631805 0.127655
0.605011 0.613007 0.134064
0.683289 0.604309 0.153076
0.756897 0.612823 0.169037
0.261200 0.730835 0.131134
0.343262 0.732635 0.124939
0.459961 0.734039 0.110931
0.565094 0.740417 0.103424
0.661560 0.748322 0.095337
0.715088 0.726471 0.109436
0.769592 0.713104 0.141937
0.130219 0.131958 0.150085
0.218842 0.139099 0.165863
0.326324 0.165314 0.190155
0.432831 0.192291 0.212280
0.539978 0.219818 0.233215
0.634827 0.246063 0.252991
0.705902 0.269073 0.272552
0.136353 0.193787 0.156128
0.230652 0.205597 0.172699
0.339264 0.229828 0.197754
0.447479 0.254730 0.221222
0.555450 0.280457 0.243286
0.650452 0.305145 0.264221
0.721100 0.327118 0.284393
0.148651 0.278503 0.159088
0.248993 0.293060 0.182373
0.344666 0.295837 0.192444
0.451508 0.308746 0.206757
0.558685 0.322601 0.219452
0.652405 0.336334 0.230469
0.721924 0.347626 0.240326
0.158234 0.384277 0.168274
0.272339 0.394775 0.196991
0.371063 0.402618 0.201813
0.459534 0.395996 0.212036
0.567596 0.408630 0.225952
0.663025 0.421173 0.238342
0.734314 0.431610 0.249481
0.179932 0.495728 0.169586
0.295319 0.507172 0.210938
0.397278 0.513336 0.214539
0.496704 0.521454 0.218323
0.576233 0.504150 0.229248
0.672943 0.515656 0.242828
0.746033 0.525360 0.255066
0.212555 0.609222 0.158905
0.316254 0.625366 0.223846
0.424164 0.628754 0.224854
0.525726 0.635559 0.227997
0.614044 0.634613 0.230988
0.682465 0.616180 0.242859
0.757202 0.624817 0.256348
0.245697 0.714661 0.134705
0.331696 0.735077 0.236389
0.449341 0.734680 0.232788
0.553589 0.740112 0.234863
0.649994 0.747101 0.237091
0.719116 0.741089 0.239624
0.767426 0.721100 0.252350
0.154572 0.151703 0.224060
0.209808 0.143951 0.228088
0.320679 0.163910 0.253265
0.425964 0.191254 0.275970
0.532959 0.218689 0.297729
0.629242 0.245300 0.318115
0.703461 0.268738 0.338135
0.160370 0.212555 0.230530
0.226807 0.211639 0.240601
0.333405 0.228485 0.261292
0.440308 0.253601 0.285156
0.548126 0.279480 0.307831
0.644775 0.304535 0.329376
0.718628 0.326874 0.350067
0.164917 0.293915 0.238281
0.243195 0.302460 0.251221
0.348480 0.316132 0.270081
0.457001 0.339600 0.294800
0.565948 0.363892 0.318573
0.662506 0.387604 0.340912
0.735657 0.408997 0.362244
0.169830 0.383148 0.238220
0.252686 0.393646 0.252930
0.368103 0.412048 0.279724
0.463074 0.414459 0.289886
0.570709 0.427185 0.304413
0.666290 0.439575 0.317780
0.738617 0.449982 0.329590
0.190521 0.493896 0.245239
0.261749 0.505890 0.261536
0.393951 0.522522 0.296082
0.492188 0.530701 0.301147
0.578888 0.522583 0.310608
0.675781 0.534027 0.324738
0.749603 0.543762 0.337250
0.221039 0.606628 0.245972
0.256622 0.628326 0.273041
0.419312 0.636932 0.311676
0.520203 0.643646 0.316071
0.617096 0.651611 0.320618
0.684570 0.633209 0.329254
0.760223 0.641937 0.342560
0.251068 0.710419 0.242340
0.271912 0.732452 0.272705
0.443268 0.740509 0.326111
0.547058 0.745819 0.329376
0.643768 0.752686 0.333466
0.726288 0.759613 0.336792
0.769226 0.735168 0.344910
0.182770 0.171722 0.301849
0.214874 0.152679 0.303619
0.302490 0.167023 0.311737
0.419983 0.189667 0.343323
0.526031 0.217468 0.365936
0.623901 0.244446 0.387360
0.700958 0.268555 0.407959
0.188049 0.232147 0.308563
0.240723 0.232880 0.318573
0.320374 0.232819 0.324860
0.434113 0.252167 0.352631
0.541229 0.278259 0.376099
0.639404 0.303619 0.398682
0.716095 0.326752 0.419922
0.192688 0.314209 0.317719
0.253662 0.321106 0.328522
0.343262 0.321808 0.341492
0.450653 0.338074 0.362793
0.558899 0.362640 0.387360
0.657074 0.386688 0.410614
0.733368 0.408600 0.432770
0.190247 0.400574 0.322266
0.254974 0.409729 0.335144
0.362701 0.422485 0.353851
0.467468 0.435669 0.372406
0.576569 0.459167 0.397430
0.674652 0.482391 0.421448
0.750153 0.503571 0.444183
0.205292 0.492035 0.317474
0.256744 0.503510 0.332123
0.373993 0.521912 0.356079
0.489349 0.541077 0.383636
0.583191 0.542908 0.393250
0.680176 0.554382 0.408051
0.754913 0.564117 0.421326
0.233490 0.604889 0.323242
0.252075 0.625366 0.346283
0.386780 0.635345 0.364716
0.516785 0.652832 0.401367
0.613281 0.660950 0.406647
0.688446 0.652100 0.414703
0.764801 0.660950 0.428406
0.262360 0.708252 0.325928
0.278107 0.725067 0.347076
0.395142 0.739166 0.372101
0.542786 0.752808 0.417816
0.639374 0.759827 0.422760
0.723206 0.766937 0.427032
0.773010 0.750946 0.433441
0.213684 0.192352 0.383362
0.224213 0.160461 0.381897
0.307098 0.176331 0.392609
0.393219 0.191345 0.399200
0.520081 0.215973 0.437653
0.618713 0.243378 0.459778
0.698486 0.268158 0.480591
0.219208 0.252045 0.390198
0.263794 0.260162 0.401031
0.324371 0.242218 0.405823
0.412445 0.255402 0.413269
0.535522 0.276550 0.448120
0.634369 0.302551 0.471191
0.713959 0.326172 0.492798
0.223846 0.333679 0.399780
0.267670 0.339813 0.409088
0.348938 0.333954 0.423553
0.436615 0.342926 0.430908
0.552948 0.360992 0.459473
0.652069 0.385620 0.483459
0.731354 0.407928 0.505798
0.222504 0.428223 0.411804
0.268799 0.430786 0.418304
0.372711 0.442749 0.436676
0.462067 0.442291 0.449463
0.570404 0.457581 0.470154
0.669617 0.481201 0.494934
0.748108 0.502960 0.517670
0.231628 0.508575 0.404846
0.257782 0.521332 0.419312
0.375946 0.538940 0.443542
0.482849 0.552185 0.462524
0.588104 0.564117 0.480652
0.687012 0.586609 0.505524
0.764832 0.606903 0.528625
0.250275 0.602631 0.398956
0.263062 0.616913 0.414703
0.382263 0.632874 0.438995
0.495178 0.651581 0.464294
0.610992 0.670837 0.494293
0.693787 0.671631 0.502411
0.770782 0.680664 0.516479
0.277222 0.706238 0.405151
0.287476 0.717346 0.418579
0.389008 0.737305 0.449432
0.508728 0.750488 0.472443
0.636871 0.767365 0.511993
0.721588 0.774750 0.517120
0.778229 0.767029 0.522736
0.247467 0.212555 0.467133
0.243500 0.172180 0.462372
0.314911 0.184937 0.474365
0.397552 0.200928 0.483185
0.485260 0.215973 0.489349
0.599884 0.239075 0.518097
0.696136 0.266998 0.549683
0.252960 0.271820 0.474091
0.282227 0.278290 0.482208
0.331696 0.250763 0.487610
0.416229 0.264984 0.496979
0.505310 0.278839 0.503845
0.618011 0.299042 0.531464
0.711487 0.325104 0.561432
0.257019 0.353546 0.483856
0.285492 0.358063 0.490540
0.377960 0.370728 0.510529
0.439423 0.352875 0.514221
0.530182 0.365295 0.521637
0.639313 0.382812 0.546753
0.728943 0.406952 0.574280
0.255951 0.448120 0.496246
0.285126 0.449890 0.500671
0.385468 0.462952 0.519958
0.468567 0.457275 0.533417
0.556396 0.463837 0.540192
0.660858 0.479034 0.561798
0.745850 0.501862 0.586182
0.269196 0.545593 0.504333
0.276794 0.553925 0.513336
0.388641 0.561432 0.529449
0.492493 0.573120 0.546631
0.583344 0.572174 0.559113
0.682159 0.584900 0.576202
0.762634 0.605835 0.597473
0.277466 0.616608 0.488617
0.284058 0.624298 0.497162
0.384979 0.646973 0.527191
0.495850 0.665802 0.551666
0.602997 0.680420 0.571198
0.698914 0.690308 0.586395
0.778473 0.708862 0.607544
0.295349 0.703857 0.483795
0.300079 0.708862 0.489746
0.385040 0.735016 0.525482
0.503815 0.748383 0.547760
0.614227 0.765198 0.571716
0.720642 0.782410 0.600739
0.784454 0.782776 0.605957
0.280151 0.233459 0.543915
0.277435 0.209717 0.541077
0.324829 0.192169 0.547882
0.403107 0.209656 0.558624
0.487610 0.225739 0.566162
0.574341 0.241425 0.571228
0.666962 0.260345 0.586365
0.284912 0.292633 0.550751
0.300812 0.296570 0.555389
0.340424 0.258270 0.560242
0.420746 0.273956 0.571228
0.506866 0.288727 0.579285
0.594330 0.302826 0.585266
0.684692 0.319244 0.599579
0.289459 0.373993 0.560486
0.303253 0.376617 0.563873
0.394348 0.393585 0.584167
0.443054 0.362091 0.587006
0.530945 0.375427 0.595428
0.618652 0.388214 0.602081
0.705109 0.402222 0.614319
0.288177 0.468903 0.572845
0.300873 0.469757 0.574646
0.398804 0.483276 0.593048
0.495361 0.496155 0.609589
0.556519 0.474274 0.612335
0.644073 0.485962 0.619324
0.725647 0.497772 0.628937
0.299042 0.566956 0.581940
0.301361 0.569519 0.584625
0.401276 0.581635 0.602844
0.502319 0.593933 0.618958
0.596130 0.597565 0.632080
0.669983 0.593048 0.636658
0.746246 0.602509 0.643280
0.316956 0.659607 0.588165
0.317535 0.660339 0.589020
0.398682 0.679108 0.613464
0.506042 0.688080 0.627747
0.610168 0.699219 0.642303
0.697784 0.701294 0.653809
0.768036 0.706757 0.658600
0.320740 0.712616 0.567200
0.320740 0.712616 0.567200
0.383636 0.744843 0.604797
0.503601 0.756958 0.623505
0.611877 0.773743 0.644318
0.710968 0.789032 0.662384
0.788788 0.796570 0.673279
