device/zink2.cube
#Created by: Adobe Photoshop Export Color Lookup Plugin
#Copyright: (C) Copyright 2026 汉图
TITLE "mint本征源文件.psd"
#LUT size
LUT_3D_SIZE 34
#data domain
DOMAIN_MIN 0.0 0.0 0.0
DOMAIN_MAX 1.0 1.0 1.0
#LUT data points
0.113464 0.115143 0.086975
0.132996 0.119995 0.091675
0.157013 0.124634 0.097778
0.179474 0.129730 0.103119
0.201874 0.134949 0.108032
0.223602 0.140167 0.113220
0.245728 0.145294 0.118286
0.267303 0.150513 0.123169
0.289093 0.155670 0.127838
0.310486 0.160919 0.132690
0.332336 0.165985 0.137238
0.353333 0.171570 0.141693
0.374847 0.176971 0.146271
0.396210 0.182159 0.150574
0.417877 0.187592 0.155121
0.439331 0.193176 0.159119
0.461243 0.198578 0.163635
0.482544 0.204163 0.167450
0.504456 0.209564 0.171783
0.525696 0.214966 0.175690
0.546387 0.220520 0.179749
0.566437 0.226013 0.183533
0.586090 0.231262 0.187500
0.604889 0.236481 0.191345
0.622803 0.241699 0.195160
0.639618 0.246765 0.198914
0.655853 0.251526 0.202789
0.670654 0.256409 0.206665
0.684631 0.260742 0.210663
0.697113 0.265106 0.214691
0.708496 0.269196 0.218597
0.718262 0.273071 0.222504
0.727264 0.276611 0.226746
0.735016 0.280029 0.230957
0.115845 0.123932 0.088593
0.134369 0.124878 0.090973
0.156830 0.127686 0.094635
0.178467 0.130707 0.097473
0.200775 0.134827 0.102051
0.222778 0.139984 0.106537
0.245178 0.144867 0.112061
0.266724 0.150116 0.117249
0.288513 0.155396 0.121826
0.309814 0.160522 0.126648
0.331451 0.165833 0.131042
0.352783 0.171173 0.135773
0.374176 0.176605 0.140137
0.395447 0.181976 0.144623
0.417084 0.187408 0.148834
0.438812 0.192749 0.153259
0.460541 0.198334 0.157257
0.481934 0.203949 0.161194
0.503937 0.209229 0.165558
0.524872 0.214874 0.169495
0.545807 0.220306 0.173279
0.565948 0.225708 0.177368
0.585358 0.231049 0.181305
0.604279 0.236237 0.185120
0.622314 0.241394 0.188965
0.639313 0.246399 0.192810
0.655396 0.251312 0.196472
0.670288 0.256042 0.200470
0.684204 0.260529 0.204437
0.696655 0.264862 0.208313
0.707977 0.268982 0.212402
0.718018 0.272736 0.216492
0.726746 0.276489 0.220337
0.734497 0.279877 0.224548
0.119354 0.137634 0.090759
0.134735 0.137573 0.091766
0.157043 0.139923 0.094788
0.179810 0.142273 0.098572
0.201385 0.145172 0.101471
0.223175 0.147919 0.104614
0.245178 0.150452 0.107666
0.266296 0.153290 0.110474
0.287262 0.156311 0.113281
0.308929 0.159973 0.116913
0.330078 0.165588 0.121216
0.351654 0.170746 0.125824
0.373322 0.176025 0.130585
0.394501 0.181549 0.134735
0.416229 0.186920 0.139160
0.437744 0.192383 0.143463
0.459473 0.197906 0.147491
0.481018 0.203400 0.151459
0.502625 0.208984 0.155518
0.523956 0.214417 0.159698
0.544983 0.219818 0.163788
0.564850 0.225342 0.167511
0.584625 0.230682 0.171326
0.603363 0.235931 0.175140
0.621490 0.240997 0.179108
0.638336 0.246124 0.182770
0.654510 0.251007 0.186707
0.669403 0.255798 0.190491
0.683411 0.260193 0.194550
0.696075 0.264465 0.198517
0.707245 0.268707 0.202362
0.717499 0.272369 0.206818
0.726196 0.276184 0.210693
0.733978 0.279572 0.214935
0.123413 0.152771 0.093170
0.140259 0.154114 0.094421
0.158661 0.152649 0.096008
0.181000 0.155090 0.099518
0.202606 0.157990 0.102905
0.224548 0.160461 0.106018
0.246185 0.163361 0.108368
0.267303 0.166107 0.111481
0.288727 0.168884 0.114288
0.309723 0.171692 0.117126
0.331116 0.174530 0.119690
0.351959 0.177643 0.122131
0.373077 0.180878 0.124146
0.393890 0.184052 0.126343
0.414948 0.187256 0.128632
0.436676 0.191864 0.132324
0.458466 0.197510 0.136200
0.479980 0.202972 0.140198
0.501587 0.208527 0.144409
0.523010 0.213928 0.148438
0.543823 0.219482 0.152191
0.563965 0.224854 0.156403
0.583679 0.230164 0.160187
0.602356 0.235596 0.163818
0.620483 0.240692 0.167786
0.637573 0.245636 0.171539
0.653839 0.250519 0.175568
0.668701 0.255310 0.179443
0.682617 0.259827 0.183197
0.695190 0.264221 0.187164
0.706604 0.268341 0.191223
0.716675 0.272125 0.195343
0.725708 0.275726 0.199677
0.733459 0.279175 0.203888
0.128448 0.168701 0.096069
0.143829 0.170319 0.097168
0.164764 0.172058 0.098389
0.181915 0.169312 0.100616
0.204224 0.171753 0.103790
0.225708 0.174469 0.106720
0.247955 0.176849 0.109924
0.269104 0.179626 0.112976
0.290527 0.182373 0.115906
0.311523 0.185181 0.118530
0.332642 0.188080 0.120941
0.353821 0.190918 0.123871
0.375031 0.193970 0.125977
0.395782 0.197205 0.128113
0.417145 0.200165 0.130554
0.438232 0.203461 0.132324
0.459473 0.206848 0.134186
0.480743 0.209991 0.136292
0.501862 0.213470 0.137634
0.522491 0.216919 0.139435
0.542969 0.220306 0.141022
0.562897 0.224457 0.143616
0.582489 0.229889 0.147125
0.601349 0.235168 0.150970
0.619476 0.240326 0.154846
0.636536 0.245331 0.158783
0.652832 0.250214 0.162659
0.667816 0.254974 0.166351
0.681763 0.259491 0.170624
0.694458 0.263855 0.174561
0.705841 0.267975 0.178558
0.715912 0.271851 0.182770
0.724945 0.275452 0.186890
0.732697 0.278961 0.191071
0.133514 0.185364 0.098846
0.148315 0.186890 0.099945
0.168610 0.188873 0.101013
0.182983 0.184082 0.101410
0.204803 0.186798 0.104553
0.227051 0.189026 0.107819
0.248840 0.191559 0.110809
0.270538 0.194000 0.113983
0.291504 0.196960 0.116791
0.313110 0.199432 0.119720
0.334503 0.202148 0.122406
0.355347 0.205017 0.125000
0.376831 0.207916 0.127625
0.397614 0.211090 0.129791
0.419128 0.213959 0.132050
0.440216 0.217194 0.134064
0.461517 0.220398 0.136200
0.482941 0.223450 0.138336
0.504364 0.226685 0.140137
0.524963 0.230164 0.141418
0.545471 0.233398 0.143066
0.565094 0.236816 0.144470
0.584412 0.240021 0.146484
0.602661 0.243134 0.147522
0.620239 0.246338 0.149017
0.636871 0.249298 0.150452
0.652618 0.252228 0.151672
0.667084 0.254974 0.153107
0.680939 0.259186 0.156738
0.693665 0.263428 0.160736
0.705200 0.267609 0.164856
0.715393 0.271454 0.168976
0.724274 0.275085 0.173462
0.732025 0.278656 0.177612
0.137299 0.203522 0.101471
0.153076 0.204193 0.102203
0.173218 0.206055 0.103729
0.193146 0.207977 0.104706
0.206543 0.201691 0.105621
0.228058 0.204285 0.108795
0.250244 0.206726 0.111908
0.271851 0.209137 0.115051
0.293304 0.211761 0.117798
0.314636 0.214264 0.121002
0.335907 0.217163 0.123474
0.357147 0.219788 0.126099
0.378601 0.222595 0.128815
0.399506 0.225616 0.131012
0.420898 0.228455 0.133545
0.442108 0.231659 0.135681
0.463898 0.234467 0.137970
0.484985 0.237732 0.139923
0.506378 0.240967 0.141907
0.527374 0.244080 0.143738
0.547852 0.247314 0.145569
0.567657 0.250458 0.147064
0.587036 0.253662 0.148712
0.605347 0.256744 0.150269
0.623199 0.259918 0.151520
0.639679 0.262878 0.152802
0.655457 0.265686 0.154510
0.670105 0.268311 0.156006
0.683624 0.270844 0.157257
0.695801 0.273193 0.158966
0.706909 0.275330 0.160583
0.716400 0.277222 0.162170
0.724915 0.278809 0.163879
0.732086 0.280487 0.165558
0.142670 0.221466 0.104370
0.156372 0.222687 0.104858
0.177460 0.224121 0.105865
0.197845 0.225708 0.107147
0.217987 0.227417 0.108124
0.229553 0.219849 0.109619
0.251495 0.222321 0.112732
0.273010 0.224762 0.115723
0.294830 0.227142 0.118805
0.315979 0.229675 0.121796
0.337372 0.232422 0.124512
0.358521 0.235107 0.127106
0.380310 0.237701 0.130096
0.401428 0.240479 0.132690
0.422607 0.243561 0.134766
0.444092 0.246368 0.137299
0.465637 0.249390 0.139679
0.487030 0.252411 0.141754
0.508606 0.255554 0.143616
0.529572 0.258698 0.145325
0.550140 0.261810 0.147491
0.570007 0.264923 0.149323
0.589417 0.267975 0.150879
0.607880 0.271057 0.152527
0.625671 0.274078 0.153992
0.642487 0.276794 0.155518
0.658325 0.279541 0.156982
0.672882 0.282257 0.158539
0.686737 0.284546 0.160126
0.698792 0.287018 0.161591
0.709839 0.289032 0.163239
0.719604 0.290955 0.164917
0.728088 0.292694 0.166748
0.735443 0.294220 0.168610
0.147430 0.240417 0.106812
0.160919 0.241150 0.107758
0.182068 0.242615 0.108490
0.202026 0.244354 0.109589
0.222504 0.245972 0.110474
0.235840 0.241394 0.111145
0.252686 0.238617 0.113037
0.274536 0.240814 0.116425
0.296051 0.243378 0.119598
0.317474 0.245758 0.122498
0.339172 0.248230 0.125549
0.360291 0.250854 0.128296
0.381805 0.253479 0.131165
0.402863 0.256378 0.133667
0.424622 0.259125 0.136261
0.446045 0.261902 0.138641
0.467621 0.264923 0.140747
0.489044 0.267914 0.143097
0.510712 0.270935 0.145111
0.531830 0.273834 0.147430
0.552521 0.276855 0.149109
0.572449 0.279999 0.151031
0.591888 0.282959 0.152924
0.610474 0.285889 0.154663
0.628326 0.288757 0.156036
0.644989 0.291687 0.157745
0.661011 0.294342 0.159454
0.675812 0.296875 0.160858
0.689331 0.299286 0.162537
0.701843 0.301514 0.164459
0.713013 0.303558 0.166016
0.722809 0.305267 0.167877
0.731171 0.307068 0.169434
0.738647 0.308624 0.171234
0.152374 0.259460 0.109924
0.165161 0.260162 0.110046
0.186188 0.261566 0.111237
0.206573 0.263153 0.111877
0.226501 0.264954 0.113159
0.246399 0.266571 0.113922
0.253815 0.255157 0.113953
0.275604 0.257416 0.117096
0.297333 0.259796 0.120239
0.319122 0.261963 0.123322
0.340851 0.264435 0.126343
0.361908 0.266998 0.129150
0.383392 0.269714 0.131836
0.404602 0.272430 0.134644
0.426147 0.275177 0.137299
0.447815 0.277863 0.139771
0.469513 0.280701 0.141937
0.490997 0.283569 0.144562
0.512634 0.286560 0.146576
0.533630 0.289520 0.148529
0.554657 0.292328 0.150848
0.574646 0.295349 0.152649
0.594086 0.298370 0.154358
0.612640 0.301239 0.156403
0.630615 0.304047 0.157959
0.647675 0.306824 0.159882
0.663666 0.309357 0.161377
0.678497 0.311951 0.163116
0.692230 0.314148 0.164886
0.704712 0.316345 0.166656
0.715912 0.318390 0.168396
0.725769 0.320251 0.170135
0.734406 0.321869 0.172089
0.741821 0.323273 0.173920
0.157501 0.279205 0.112610
0.169159 0.279968 0.112976
0.190979 0.280945 0.113678
0.210846 0.282684 0.114502
0.231567 0.284119 0.115265
0.251495 0.285767 0.115967
0.271179 0.287506 0.117188
0.276855 0.274323 0.117432
0.298828 0.276581 0.120605
0.320435 0.278809 0.123749
0.342010 0.281250 0.126923
0.363342 0.283783 0.129883
0.385101 0.286285 0.132690
0.406433 0.288849 0.135376
0.428009 0.291595 0.137787
0.449615 0.294281 0.140503
0.471558 0.296997 0.143219
0.492981 0.299896 0.145416
0.514679 0.302612 0.148010
0.535828 0.305725 0.149902
0.556671 0.308411 0.152191
0.576691 0.311340 0.154114
0.596375 0.314178 0.156067
0.614990 0.317139 0.157990
0.632965 0.319885 0.159576
0.650024 0.322449 0.161407
0.666199 0.325073 0.163422
0.681030 0.327454 0.165192
0.694885 0.329987 0.166870
0.707489 0.331879 0.168640
0.718750 0.333954 0.170349
0.728638 0.335785 0.172394
0.737488 0.337158 0.174225
0.744843 0.338715 0.176117
0.162323 0.299255 0.114990
0.173798 0.299683 0.115143
0.194824 0.301056 0.116119
0.216064 0.302124 0.116943
0.236816 0.303375 0.117798
0.256195 0.305267 0.118469
0.276398 0.306763 0.119537
0.294464 0.307281 0.119965
0.300079 0.293762 0.120911
0.321930 0.295929 0.124084
0.343353 0.298370 0.127228
0.364960 0.300690 0.130341
0.386658 0.303192 0.133179
0.408173 0.305603 0.136047
0.429596 0.308380 0.138885
0.451385 0.310883 0.141327
0.473175 0.313721 0.143799
0.494904 0.316345 0.146454
0.516632 0.319214 0.148865
0.537811 0.322021 0.151123
0.558685 0.324799 0.153412
0.578918 0.327637 0.155182
0.598602 0.330505 0.157532
0.617401 0.333252 0.159302
0.635376 0.336060 0.161255
0.652405 0.338684 0.162933
0.668671 0.341156 0.165009
0.683594 0.343506 0.166870
0.697540 0.345825 0.168457
0.710052 0.347992 0.170288
0.721558 0.349945 0.172272
0.731537 0.351471 0.174286
0.740234 0.353027 0.176392
0.747925 0.354553 0.178162
0.166779 0.320068 0.117798
0.178009 0.320129 0.117737
0.199799 0.321228 0.118195
0.220673 0.322388 0.119110
0.241333 0.323822 0.119690
0.261322 0.325287 0.120453
0.281097 0.326996 0.121429
0.300751 0.328644 0.122040
0.314117 0.323669 0.122681
0.323120 0.313629 0.124634
0.344849 0.315979 0.127319
0.366394 0.318268 0.130371
0.388062 0.320618 0.133545
0.409668 0.323212 0.136322
0.431458 0.325653 0.139099
0.453094 0.328247 0.141724
0.474884 0.330872 0.144409
0.496643 0.333588 0.146973
0.518463 0.336243 0.149597
0.539764 0.339020 0.151947
0.560638 0.341736 0.154083
0.580933 0.344604 0.156372
0.600708 0.347321 0.158600
0.619385 0.350037 0.160553
0.637665 0.352631 0.162567
0.654755 0.355225 0.164368
0.671143 0.357758 0.166351
0.686127 0.360046 0.168457
0.700134 0.362213 0.170135
0.712738 0.364349 0.171967
0.724243 0.366211 0.174011
0.734375 0.367889 0.175903
0.743164 0.369568 0.178040
0.750793 0.370880 0.179993
0.171875 0.340973 0.119995
0.181732 0.341156 0.120178
0.204010 0.341919 0.120514
0.225433 0.342957 0.120941
0.245972 0.344360 0.121796
0.265808 0.345917 0.122528
0.286285 0.347260 0.123352
0.305878 0.348877 0.124207
0.325470 0.350616 0.124817
0.333923 0.340729 0.125427
0.346405 0.333740 0.127472
0.367889 0.335999 0.130524
0.389679 0.338379 0.133575
0.411255 0.340698 0.136688
0.433167 0.343201 0.139526
0.454651 0.345795 0.142120
0.476715 0.348267 0.145050
0.498474 0.350983 0.147766
0.520416 0.353577 0.150238
0.541626 0.356323 0.152466
0.562775 0.358948 0.154877
0.582977 0.361694 0.157043
0.602753 0.364502 0.159454
0.621643 0.367096 0.161591
0.639893 0.369659 0.163574
0.657104 0.372192 0.165466
0.673431 0.374695 0.167572
0.688568 0.376862 0.169556
0.702698 0.379089 0.171387
0.715332 0.381195 0.173462
0.726898 0.383026 0.175598
0.737030 0.384735 0.177399
0.745941 0.386292 0.179504
0.753632 0.387573 0.181763
0.176422 0.362427 0.122650
0.185699 0.362518 0.122375
0.208527 0.363037 0.122864
0.229767 0.364105 0.123260
0.250641 0.365295 0.123932
0.270721 0.366760 0.124451
0.291107 0.368103 0.125336
0.311157 0.369537 0.125885
0.330780 0.371277 0.126648
0.350281 0.372925 0.127625
0.354187 0.358368 0.127899
0.369537 0.354126 0.130249
0.391266 0.356537 0.133453
0.412842 0.358765 0.136536
0.434662 0.361176 0.139648
0.456421 0.363617 0.142303
0.478485 0.366241 0.145172
0.500275 0.368805 0.147827
0.522156 0.371460 0.150482
0.543579 0.374054 0.152924
0.564667 0.376678 0.155426
0.584930 0.379456 0.157684
0.604645 0.382111 0.159851
0.623657 0.384705 0.161957
0.642059 0.387207 0.164215
0.659302 0.389557 0.166229
0.675720 0.391968 0.168488
0.690857 0.394348 0.170532
0.705139 0.396515 0.172485
0.717926 0.398407 0.174866
0.729523 0.400208 0.176758
0.739624 0.401917 0.178864
0.748657 0.403534 0.180725
0.756409 0.404755 0.183197
0.180634 0.384369 0.125427
0.189453 0.384247 0.124908
0.212585 0.384674 0.124664
0.234467 0.385345 0.125000
0.255554 0.386505 0.125732
0.275848 0.387817 0.126129
0.296051 0.389282 0.127014
0.316040 0.390686 0.127808
0.335907 0.392273 0.128265
0.355469 0.393951 0.129150
0.375305 0.395630 0.129517
0.375031 0.376526 0.130188
0.392792 0.374847 0.132996
0.414551 0.377106 0.136230
0.436493 0.379517 0.139160
0.458008 0.381958 0.142151
0.480225 0.384277 0.144897
0.502045 0.386902 0.147583
0.523895 0.389496 0.150360
0.545441 0.392059 0.153015
0.566467 0.394592 0.155640
0.586792 0.397247 0.158081
0.606873 0.399872 0.160278
0.625793 0.402405 0.162537
0.644226 0.404846 0.164948
0.661560 0.407379 0.167145
0.677887 0.409668 0.168915
0.693207 0.411835 0.171356
0.707520 0.414001 0.173340
0.720337 0.415955 0.175568
0.731995 0.417847 0.177551
0.742249 0.419525 0.179901
0.751404 0.420837 0.181946
0.759094 0.422180 0.184204
0.185272 0.406860 0.127319
0.192566 0.406830 0.127106
0.217041 0.406738 0.126587
0.238831 0.407440 0.126862
0.260162 0.408447 0.127258
0.280884 0.409607 0.127808
0.301331 0.410858 0.128387
0.321289 0.412323 0.129242
0.341156 0.413940 0.129700
0.360901 0.415436 0.130524
0.380798 0.417206 0.130585
0.398987 0.417603 0.131439
0.396240 0.395599 0.132355
0.416107 0.395996 0.135559
0.438171 0.398163 0.138733
0.460022 0.400574 0.141571
0.481842 0.403137 0.144501
0.503876 0.405548 0.147308
0.525818 0.408081 0.150299
0.547241 0.410583 0.152893
0.568420 0.413055 0.155426
0.588959 0.415619 0.158264
0.608765 0.418304 0.160217
0.627869 0.420776 0.162659
0.646271 0.423218 0.165161
0.663727 0.425598 0.167358
0.680145 0.428009 0.169281
0.695618 0.430054 0.171631
0.709808 0.432251 0.173889
0.722839 0.434143 0.176117
0.734497 0.435883 0.178467
0.744843 0.437622 0.180695
0.754028 0.438995 0.182587
0.761871 0.440308 0.184937
0.188995 0.429779 0.130157
0.195831 0.429535 0.129547
0.220886 0.429199 0.128479
0.243103 0.429718 0.128571
0.264923 0.430481 0.128937
0.285797 0.431580 0.129242
0.306396 0.432800 0.129639
0.326385 0.434143 0.130554
0.346527 0.435699 0.131042
0.366272 0.437225 0.131348
0.386169 0.438843 0.132050
0.405762 0.440552 0.132477
0.420532 0.436920 0.133209
0.417755 0.414948 0.134674
0.439545 0.417297 0.137695
0.461548 0.419556 0.140869
0.483704 0.421906 0.143829
0.505737 0.424286 0.146942
0.527710 0.426819 0.149719
0.549133 0.429321 0.152466
0.570282 0.431732 0.155243
0.590759 0.434265 0.157806
0.610687 0.436920 0.160095
0.629852 0.439240 0.162659
0.648376 0.441711 0.165070
0.665894 0.444061 0.167328
0.682404 0.446411 0.169647
0.697754 0.448547 0.171906
0.712189 0.450531 0.174225
0.725250 0.452423 0.176361
0.737030 0.454132 0.179016
0.747437 0.455780 0.181183
0.756622 0.457214 0.183167
0.764526 0.458496 0.185852
0.192352 0.453644 0.132568
0.198914 0.453003 0.132141
0.224670 0.452393 0.130127
0.247559 0.452606 0.130035
0.269592 0.453369 0.130066
0.290558 0.454315 0.130585
0.311462 0.455414 0.131134
0.331635 0.456757 0.131470
0.351776 0.458191 0.132019
0.371674 0.459747 0.132385
0.391754 0.461243 0.132599
0.411530 0.462830 0.133423
0.431335 0.464691 0.133636
0.442749 0.457581 0.134674
0.441223 0.436859 0.136719
0.463196 0.438995 0.139923
0.485352 0.441345 0.142639
0.507477 0.443695 0.145813
0.529480 0.446228 0.148987
0.551086 0.448547 0.151672
0.572205 0.451080 0.154510
0.592804 0.453613 0.157227
0.612823 0.455994 0.159790
0.631927 0.458527 0.162170
0.650482 0.460846 0.164795
0.668030 0.463135 0.167206
0.684692 0.465302 0.169525
0.700043 0.467468 0.171692
0.714600 0.469421 0.173981
0.727570 0.471344 0.176544
0.739594 0.473114 0.179047
0.750000 0.474701 0.181244
0.759186 0.476318 0.183655
0.767242 0.477356 0.185883
0.195862 0.477570 0.134735
0.201050 0.477081 0.134308
0.228424 0.475800 0.132019
0.252045 0.475708 0.131348
0.274200 0.476379 0.131348
0.295563 0.477234 0.131134
0.316589 0.478241 0.131805
0.336975 0.479431 0.131989
0.357269 0.480804 0.132538
0.377350 0.482300 0.132843
0.397217 0.483887 0.133301
0.417145 0.485443 0.133789
0.437347 0.487061 0.134155
0.456970 0.488892 0.134369
0.465057 0.478058 0.136200
0.464966 0.458740 0.138245
0.487030 0.461029 0.141479
0.509216 0.463318 0.144714
0.531219 0.465698 0.147583
0.552917 0.468018 0.150513
0.574097 0.470612 0.153229
0.594604 0.472900 0.156189
0.614716 0.475433 0.158813
0.634094 0.477753 0.161530
0.652588 0.480133 0.164001
0.670135 0.482239 0.166840
0.686859 0.484589 0.168976
0.702271 0.486603 0.171539
0.716858 0.488617 0.173920
0.730042 0.490509 0.176300
0.742004 0.492279 0.178741
0.752533 0.493805 0.181030
0.761841 0.495117 0.183624
0.769836 0.496399 0.186157
0.198090 0.502625 0.137451
0.202240 0.502136 0.136932
0.231445 0.500031 0.133820
0.255859 0.499756 0.132874
0.279053 0.499939 0.132294
0.300232 0.500824 0.132141
0.321716 0.501709 0.132446
0.342224 0.502808 0.132751
0.362762 0.504120 0.133148
0.382874 0.505524 0.133362
0.403015 0.507019 0.133942
0.422821 0.508728 0.133850
0.442932 0.510345 0.134216
0.462860 0.511963 0.134766
0.483032 0.513702 0.134705
0.488098 0.499878 0.136627
0.488922 0.481262 0.139648
0.510986 0.483521 0.142548
0.533081 0.485870 0.145874
0.554565 0.488281 0.148743
0.575928 0.490570 0.151581
0.596619 0.492859 0.154755
0.616760 0.495331 0.157562
0.636078 0.497681 0.160370
0.654633 0.499908 0.163086
0.672180 0.502228 0.165466
0.689087 0.504242 0.168213
0.704590 0.506470 0.170410
0.719208 0.508362 0.173187
0.732361 0.510223 0.175629
0.744476 0.511841 0.178192
0.755035 0.513367 0.180542
0.764404 0.514709 0.183075
0.772522 0.515930 0.185791
0.201385 0.527344 0.139862
0.203430 0.527222 0.139465
0.234711 0.524445 0.135376
0.259735 0.523865 0.133820
0.283264 0.523926 0.133057
0.304962 0.524628 0.132446
0.326599 0.525391 0.132446
0.347382 0.526459 0.132812
0.368134 0.527649 0.132843
0.388214 0.528961 0.133362
0.408630 0.530426 0.133606
0.428558 0.531952 0.133789
0.448608 0.533539 0.134155
0.468872 0.535095 0.134216
0.488922 0.536835 0.134766
0.508942 0.538696 0.134369
0.511200 0.521606 0.137054
0.512817 0.503937 0.140015
0.534912 0.506134 0.143738
0.556488 0.508514 0.146820
0.577850 0.510864 0.149811
0.598511 0.513062 0.152985
0.618683 0.515411 0.156006
0.638031 0.517700 0.158813
0.656708 0.519989 0.161438
0.674469 0.522125 0.163910
0.691223 0.524292 0.166870
0.706787 0.526337 0.169434
0.721527 0.528198 0.171783
0.734772 0.529968 0.174652
0.746918 0.531677 0.177277
0.757629 0.533142 0.179840
0.766998 0.534485 0.182648
0.775177 0.535583 0.185333
0.203186 0.552917 0.142303
0.204254 0.552826 0.142090
0.236877 0.549591 0.136902
0.263794 0.548309 0.134369
0.287872 0.548096 0.133087
0.310181 0.548523 0.132751
0.331726 0.549347 0.132538
0.352814 0.550232 0.132660
0.373688 0.551361 0.132629
0.393951 0.552643 0.132721
0.414368 0.554108 0.132843
0.434357 0.555542 0.133331
0.454681 0.557068 0.133514
0.474731 0.558594 0.133667
0.495117 0.560303 0.133636
0.515167 0.562042 0.133423
0.535278 0.563843 0.133453
0.534760 0.544312 0.137299
0.536957 0.526886 0.140808
0.558624 0.529175 0.143890
0.579926 0.531525 0.147430
0.600647 0.533722 0.150635
0.620911 0.535889 0.153503
0.640137 0.538177 0.156677
0.658844 0.540436 0.159424
0.676605 0.542542 0.162170
0.693451 0.544556 0.165039
0.709137 0.546631 0.167847
0.723816 0.548401 0.170349
0.737213 0.550201 0.173126
0.749329 0.551849 0.175842
0.760132 0.553284 0.178711
0.769592 0.554474 0.181549
0.777710 0.555634 0.184143
0.209076 0.576874 0.142670
0.209076 0.576874 0.142670
0.238159 0.574799 0.139374
0.266937 0.572906 0.135010
0.291534 0.572510 0.133667
0.314819 0.572601 0.132568
0.336761 0.573242 0.131958
0.358063 0.574066 0.131805
0.379028 0.575226 0.131653
0.399384 0.576355 0.132111
0.420074 0.577637 0.132172
0.440216 0.579041 0.132355
0.460724 0.580444 0.132568
0.480927 0.582001 0.132599
0.501099 0.583649 0.132507
0.521484 0.585297 0.132294
0.541534 0.587128 0.132080
0.561249 0.588837 0.131897
0.558167 0.566986 0.136749
0.560425 0.550018 0.140839
0.581787 0.552246 0.144379
0.602631 0.554413 0.147858
0.622833 0.556519 0.150818
0.642242 0.558746 0.154144
0.661011 0.560913 0.156830
0.678864 0.562897 0.159912
0.695770 0.564911 0.162872
0.711487 0.566956 0.165497
0.726227 0.568665 0.168213
0.739685 0.570374 0.171448
0.751862 0.571960 0.174164
0.762604 0.573395 0.177002
0.772186 0.574646 0.179871
0.780426 0.575836 0.182739
0.216583 0.600281 0.142090
0.216583 0.600281 0.142090
0.237885 0.600739 0.141541
0.269897 0.597656 0.135803
0.296051 0.596680 0.133606
0.319550 0.596680 0.131958
0.341553 0.597260 0.131592
0.363281 0.597992 0.130676
0.384460 0.598907 0.130798
0.405090 0.600006 0.130768
0.425751 0.601196 0.130859
0.446228 0.602600 0.130737
0.466644 0.604004 0.131134
0.486938 0.605560 0.130432
0.507446 0.607117 0.130707
0.527618 0.608734 0.130585
0.547791 0.610443 0.130035
0.567505 0.612122 0.130005
0.584991 0.611908 0.130035
0.581848 0.590149 0.135681
0.583862 0.573242 0.140228
0.604675 0.575500 0.143738
0.624908 0.577515 0.147217
0.644379 0.579559 0.150513
0.663208 0.581696 0.153809
0.681061 0.583679 0.156616
0.697998 0.585632 0.159973
0.713776 0.587555 0.162781
0.728607 0.589325 0.166046
0.742157 0.590973 0.168854
0.754456 0.592529 0.172028
0.765320 0.593903 0.174866
0.774872 0.595093 0.177673
0.783112 0.596222 0.181091
0.224121 0.623230 0.140869
0.224121 0.623230 0.140869
0.238007 0.625824 0.144073
0.272186 0.622040 0.137024
0.299469 0.620789 0.133087
0.323456 0.620544 0.131500
0.346558 0.620850 0.130310
0.368286 0.621460 0.129547
0.389832 0.622314 0.129150
0.410645 0.623352 0.128967
0.431488 0.624573 0.128448
0.451965 0.625763 0.128693
0.472717 0.627136 0.128815
0.493134 0.628601 0.128082
0.513519 0.630188 0.128204
0.533752 0.631805 0.127655
0.554047 0.633392 0.127808
0.573608 0.635132 0.127075
0.593048 0.636902 0.126465
0.608398 0.634521 0.127258
0.605011 0.613007 0.134064
0.606750 0.596283 0.139038
0.627075 0.598267 0.143005
0.646606 0.600342 0.146393
0.665314 0.602448 0.149689
0.683289 0.604309 0.153076
0.700256 0.606323 0.156281
0.716187 0.608093 0.159576
0.731049 0.609863 0.162689
0.744507 0.611389 0.165588
0.756897 0.612823 0.169037
