device/zink.cube
#Created by: Adobe Photoshop Export Color Lookup Plugin
#Copyright: (C) Copyright 2026 汉图
TITLE "mint本征"
#LUT size
LUT_3D_SIZE 7
#data domain
#LUT data points
DOMAIN_MIN 0.000000 0.000000 0.000000
DOMAIN_MAX 0.909091 0.909091 0.909091
0.750305 0.832672 0.782349
0.750305 0.832672 0.782349
0.750305 0.832672 0.782349
0.750305 0.832672 0.782349
0.750305 0.832672 0.782349
0.750305 0.832672 0.782349
0.750305 0.832672 0.782349
0.750305 0.832672 0.782349
0.750305 0.832672 0.782349
0.750305 0.832672 0.782349
0.750305 0.832672 0.782349
0.750305 0.832672 0.782349
0.750305 0.832672 0.782349
0.750305 0.832672 0.782349
0.750305 0.832672 0.782349
0.750305 0.832672 0.782349
0.750305 0.832672 0.782349
0.750305 0.832672 0.782349
0.750305 0.832672 0.782349
0.750305 0.832672 0.782349
0.750305 0.832672 0.782349
0.750305 0.832672 0.782349
0.750305 0.832672 0.782349
0.750305 0.832672 0.782349
0.750305 0.832672 0.782349
0.750305 0.832672 0.782349
0.750305 0.832672 0.782349
0.750305 0.832672 0.782349
0.750305 0.832672 0.782349
0.750305 0.832672 0.782349
0.750305 0.832672 0.782349
0.750305 0.832672 0.782349
0.750305 0.832672 0.782349
0.750305 0.832672 0.782349
0.750305 0.832672 0.782349
0.750305 0.832672 0.782349
0.750305 0.832672 0.782349
0.750305 0.832672 0.782349
0.750305 0.832672 0.782349
0.750305 0.832672 0.782349
0.750305 0.832672 0.782349
0.750305 0.832672 0.782349
0.750305 0.832672 0.782349
0.750305 0.832672 0.782349
0.750305 0.832672 0.782349
0.750305 0.832672 0.782349
0.750305 0.832672 0.782349
0.750305 0.832672 0.782349
0.750305 0.832672 0.782349
0.750305 0.832672 0.782349
0.750305 0.832672 0.782349
0.750305 0.832672 0.782349
0.750305 0.832672 0.782349
0.750305 0.832672 0.782349
0.750305 0.832672 0.782349
0.750305 0.832672 0.782349
0.750305 0.832672 0.782349
0.750305 0.832672 0.782349
0.750305 0.832672 0.782349
0.750305 0.832672 0.782349
0.750305 0.832672 0.782349
0.750305 0.832672 0.782349
0.750305 0.832672 0.782349
0.750305 0.832672 0.782349
0.750305 0.832672 0.782349
0.750305 0.832672 0.782349
0.750305 0.832672 0.782349
0.750305 0.832672 0.782349
0.750305 0.832672 0.782349
0.750305 0.832672 0.782349
0.750305 0.832672 0.782349
0.750305 0.832672 0.782349
0.750305 0.832672 0.782349
0.750305 0.832672 0.782349
0.750305 0.832672 0.782349
0.750305 0.832672 0.782349
0.750305 0.832672 0.782349
0.750305 0.832672 0.782349
0.750305 0.832672 0.782349
0.750305 0.832672 0.782349
0.750305 0.832672 0.782349
0.750305 0.832672 0.782349
0.750305 0.832672 0.782349
0.750305 0.832672 0.782349
0.750305 0.832672 0.782349
0.750305 0.832672 0.782349
0.750305 0.832672 0.782349
0.750305 0.832672 0.782349
0.750305 0.832672 0.782349
0.750305 0.832672 0.782349
0.750305 0.832672 0.782349
0.750305 0.832672 0.782349
0.750305 0.832672 0.782349
0.750305 0.832672 0.782349
0.750305 0.832672 0.782349
0.750305 0.832672 0.782349
0.750305 0.832672 0.782349
0.750305 0.832672 0.782349
0.750305 0.832672 0.782349
0.750305 0.832672 0.782349
0.750305 0.832672 0.782349
0.750305 0.832672 0.782349
0.750305 0.832672 0.782349
0.750305 0.832672 0.782349
0.750305 0.832672 0.782349
0.750305 0.832672 0.782349
0.750305 0.832672 0.782349
0.750305 0.832672 0.782349
0.750305 0.832672 0.782349
0.750305 0.832672 0.782349
0.750305 0.832672 0.782349
0.750305 0.832672 0.782349
0.750305 0.832672 0.782349
0.750305 0.832672 0.782349
0.750305 0.832672 0.782349
0.750305 0.832672 0.782349
0.750305 0.832672 0.782349
0.750305 0.832672 0.782349
0.750305 0.832672 0.782349
0.750305 0.832672 0.782349
0.750305 0.832672 0.782349
0.750305 0.832672 0.782349
0.750305 0.832672 0.782349
0.750305 0.832672 0.782349
0.750305 0.832672 0.782349
0.750305 0.832672 0.782349
0.750305 0.832672 0.782349
0.750305 0.832672 0.782349
0.750305 0.832672 0.782349
0.750305 0.832672 0.782349
0.750305 0.832672 0.782349
0.750305 0.832672 0.782349
0.750305 0.832672 0.782349
0.750305 0.832672 0.782349
0.750305 0.832672 0.782349
0.750305 0.832672 0.782349
0.750305 0.832672 0.782349
0.750305 0.832672 0.782349
0.750305 0.832672 0.782349
0.750305 0.832672 0.782349
0.750305 0.832672 0.782349
0.750305 0.832672 0.782349
0.750305 0.832672 0.782349
0.750305 0.832672 0.782349
0.750305 0.832672 0.782349
0.750305 0.832672 0.782349
0.750305 0.832672 0.782349
0.750305 0.832672 0.782349
0.750305 0.832672 0.782349
0.750305 0.832672 0.782349
0.750305 0.832672 0.782349
0.750305 0.832672 0.782349
0.750305 0.832672 0.782349
0.750305 0.832672 0.782349
0.750305 0.832672 0.782349
0.750305 0.832672 0.782349
0.750305 0.832672 0.782349
0.750305 0.832672 0.782349
0.750305 0.832672 0.782349
0.750305 0.832672 0.782349
0.750305 0.832672 0.782349
0.750305 0.832672 0.782349
0.750305 0.832672 0.782349
0.750305 0.832672 0.782349
0.750305 0.832672 0.782349
0.750305 0.832672 0.782349
0.750305 0.832672 0.782349
0.750305 0.832672 0.782349
0.750305 0.832672 0.782349
0.750305 0.832672 0.782349
0.750305 0.832672 0.782349
0.750305 0.832672 0.782349
0.750305 0.832672 0.782349
0.750305 0.832672 0.782349
0.750305 0.832672 0.782349
0.750305 0.832672 0.782349
0.750305 0.832672 0.782349
0.750305 0.832672 0.782349
0.750305 0.832672 0.782349
0.750305 0.832672 0.782349
0.750305 0.832672 0.782349
0.750305 0.832672 0.782349
0.750305 0.832672 0.782349
0.750305 0.832672 0.782349
0.750305 0.832672 0.782349
0.750305 0.832672 0.782349
0.750305 0.832672 0.782349
0.750305 0.832672 0.782349
0.750305 0.832672 0.782349
0.750305 0.832672 0.782349
0.750305 0.832672 0.782349
0.750305 0.832672 0.782349
0.750305 0.832672 0.782349
0.750305 0.832672 0.782349
0.750305 0.832672 0.782349
0.750305 0.832672 0.782349
0.750305 0.832672 0.782349
0.750305 0.832672 0.782349
0.750305 0.832672 0.782349
0.750305 0.832672 0.782349
0.750305 0.832672 0.782349
0.750305 0.832672 0.782349
0.750305 0.832672 0.782349
0.750305 0.832672 0.782349
0.750305 0.832672 0.782349
0.750305 0.832672 0.782349
0.750305 0.832672 0.782349
0.750305 0.832672 0.782349
0.750305 0.832672 0.782349
0.750305 0.832672 0.782349
0.750305 0.832672 0.782349
0.750305 0.832672 0.782349
0.750305 0.832672 0.782349
0.750305 0.832672 0.782349
0.750305 0.832672 0.782349
0.750305 0.832672 0.782349
0.750305 0.832672 0.782349
0.750305 0.832672 0.782349
0.750305 0.832672 0.782349
0.750305 0.832672 0.782349
0.750305 0.832672 0.782349
0.750305 0.832672 0.782349
0.750305 0.832672 0.782349
0.750305 0.832672 0.782349
0.750305 0.832672 0.782349
0.750305 0.832672 0.782349
0.750305 0.832672 0.782349
0.750305 0.832672 0.782349
0.750305 0.832672 0.782349
0.750305 0.832672 0.782349
0.750305 0.832672 0.782349
0.750305 0.832672 0.782349
0.750305 0.832672 0.782349
0.750305 0.832672 0.782349
0.750305 0.832672 0.782349
0.750305 0.832672 0.782349
0.750305 0.832672 0.782349
0.750305 0.832672 0.782349
0.750305 0.832672 0.782349
0.750305 0.832672 0.782349
0.750305 0.832672 0.782349
0.750305 0.832672 0.782349
0.750305 0.832672 0.782349
0.750305 0.832672 0.782349
0.750305 0.832672 0.782349
0.750305 0.832672 0.782349
0.750305 0.832672 0.782349
0.750305 0.832672 0.782349
0.750305 0.832672 0.782349
0.750305 0.832672 0.782349
0.750305 0.832672 0.782349
0.750305 0.832672 0.782349
0.750305 0.832672 0.782349
0.750305 0.832672 0.782349
0.750305 0.832672 0.782349
0.750305 0.832672 0.782349
0.750305 0.832672 0.782349
0.750305 0.832672 0.782349
0.750305 0.832672 0.782349
0.750305 0.832672 0.782349
0.750305 0.832672 0.782349
0.750305 0.832672 0.782349
0.750305 0.832672 0.782349
0.750305 0.832672 0.782349
0.750305 0.832672 0.782349
0.750305 0.832672 0.782349
0.750305 0.832672 0.782349
0.750305 0.832672 0.782349
0.750305 0.832672 0.782349
0.750305 0.832672 0.782349
0.750305 0.832672 0.782349
0.750305 0.832672 0.782349
0.750305 0.832672 0.782349
0.750305 0.832672 0.782349
0.750305 0.832672 0.782349
0.750305 0.832672 0.782349
0.750305 0.832672 0.782349
0.750305 0.832672 0.782349
0.750305 0.832672 0.782349
0.750305 0.832672 0.782349
0.750305 0.832672 0.782349
0.750305 0.832672 0.782349
0.750305 0.832672 0.782349
0.750305 0.832672 0.782349
0.750305 0.832672 0.782349
0.750305 0.832672 0.782349
0.750305 0.832672 0.782349
0.750305 0.832672 0.782349
0.750305 0.832672 0.782349
0.750305 0.832672 0.782349
0.750305 0.832672 0.782349
0.750305 0.832672 0.782349
0.750305 0.832672 0.782349
0.750305 0.832672 0.782349
0.750305 0.832672 0.782349
0.750305 0.832672 0.782349
0.750305 0.832672 0.782349
0.750305 0.832672 0.782349
0.750305 0.832672 0.782349
0.750305 0.832672 0.782349
0.750305 0.832672 0.782349
0.750305 0.832672 0.782349
0.750305 0.832672 0.782349
0.750305 0.832672 0.782349
0.750305 0.832672 0.782349
0.750305 0.832672 0.782349
0.750305 0.832672 0.782349
0.750305 0.832672 0.782349
0.750305 0.832672 0.782349
0.750305 0.832672 0.782349
0.750305 0.832672 0.782349
0.750305 0.832672 0.782349
0.750305 0.832672 0.782349
0.750305 0.832672 0.782349
0.750305 0.832672 0.782349
0.750305 0.832672 0.782349
0.750305 0.832672 0.782349
0.750305 0.832672 0.782349
0.750305 0.832672 0.782349
0.750305 0.832672 0.782349
0.750305 0.832672 0.782349
0.750305 0.832672 0.782349
0.750305 0.832672 0.782349
0.750305 0.832672 0.782349
0.750305 0.832672 0.782349
0.750305 0.832672 0.782349
0.750305 0.832672 0.782349
0.750305 0.832672 0.782349
0.750305 0.832672 0.782349
0.750305 0.832672 0.782349
0.750305 0.832672 0.782349
0.750305 0.832672 0.782349
0.750305 0.832672 0.782349
0.750305 0.832672 0.782349
0.750305 0.832672 0.782349
0.750305 0.832672 0.782349
0.750305 0.832672 0.782349
0.750305 0.832672 0.782349
0.750305 0.832672 0.782349
0.750305 0.832672 0.782349
0.750305 0.832672 0.782349
0.750305 0.832672 0.782349
0.750305 0.832672 0.782349
