device/zink3.cube
#Created by: Adobe Photoshop Export Color Lookup Plugin
#Copyright: (C) Copyright 2026 汉图
TITLE "mint本征源文件.psd"
#LUT size
LUT_3D_SIZE 7
#data domain
#LUT data points
DOMAIN_MIN 0.000000 0.000000 0.000000
DOMAIN_MAX 0.909091 0.909091 0.909091
0.157135 0.145813 0.111328
0.252716 0.172668 0.138824
0.346466 0.201080 0.164856
0.438690 0.229614 0.188293
0.531464 0.258026 0.210419
0.610901 0.284210 0.230011
0.668091 0.306519 0.249176
0.175629 0.199585 0.122406
0.256042 0.206665 0.133850
0.347870 0.221893 0.150116
0.438293 0.238800 0.163666
0.528717 0.256653 0.175018
0.606049 0.273407 0.184418
0.662292 0.291321 0.198181
0.203705 0.277679 0.137299
0.279053 0.282043 0.142944
0.356201 0.282776 0.155334
0.448517 0.298279 0.170624
0.540741 0.314758 0.184296
0.619446 0.330414 0.195282
0.675568 0.342773 0.204926
0.230957 0.365387 0.152039
0.307983 0.369232 0.154114
0.387360 0.373840 0.160767
0.458008 0.367096 0.173889
0.551605 0.382477 0.189148
0.631714 0.397400 0.202087
0.689087 0.409241 0.213074
0.254913 0.466339 0.166687
0.339111 0.467346 0.164062
0.413879 0.464630 0.166656
0.487061 0.462280 0.172852
0.562195 0.459167 0.188110
0.643311 0.473450 0.203125
0.701935 0.484772 0.215942
0.286469 0.572540 0.174591
0.368927 0.572174 0.168457
0.458923 0.578522 0.167480
0.529907 0.572174 0.168732
0.590332 0.559662 0.177094
0.655457 0.556549 0.195282
0.714874 0.567261 0.210846
0.326752 0.668274 0.170929
0.395721 0.671356 0.166748
0.493500 0.675079 0.156616
0.580750 0.683380 0.151398
0.641754 0.672852 0.148071
0.684875 0.657135 0.162445
0.727875 0.649384 0.190582
0.172028 0.161987 0.158844
0.248260 0.174500 0.177673
0.340912 0.203217 0.204132
0.433075 0.232605 0.228943
0.526398 0.262665 0.252991
0.607880 0.290985 0.275024
0.667267 0.314636 0.295105
0.179321 0.209259 0.164551
0.260406 0.223022 0.182159
0.354309 0.250977 0.209747
0.447937 0.279083 0.235474
0.541687 0.307281 0.259674
0.622589 0.333527 0.281708
0.681152 0.356232 0.301971
0.196198 0.278107 0.171265
0.277893 0.291473 0.191956
0.359619 0.298035 0.204285
0.451355 0.313416 0.220428
0.543518 0.329712 0.235107
0.622559 0.345276 0.247711
0.679352 0.357727 0.258270
0.212158 0.365875 0.183533
0.306427 0.378693 0.207550
0.384796 0.383362 0.214813
0.460388 0.382355 0.226624
0.553558 0.397858 0.242523
0.634033 0.412659 0.256348
0.692078 0.424561 0.268036
0.238953 0.460999 0.190460
0.334686 0.474945 0.224060
0.416473 0.480591 0.228516
0.495667 0.484863 0.235352
0.563599 0.474762 0.247253
0.644989 0.488922 0.262238
0.704315 0.500336 0.274902
0.275391 0.560455 0.187744
0.362030 0.578918 0.239868
0.451508 0.584717 0.242401
0.526031 0.583130 0.245972
0.599152 0.583557 0.252258
0.655762 0.571625 0.264404
0.716248 0.582397 0.278198
0.312317 0.653748 0.173126
0.384308 0.676056 0.254700
0.482208 0.678406 0.253540
0.568634 0.685913 0.256775
0.632355 0.678925 0.259552
0.689117 0.676483 0.264771
0.727173 0.662292 0.276794
0.191345 0.179626 0.213135
0.239441 0.177216 0.220795
0.334900 0.201294 0.248383
0.425690 0.230957 0.273773
0.518555 0.260986 0.298492
0.601624 0.289703 0.321442
0.663879 0.313995 0.342285
0.200745 0.227753 0.221161
0.257233 0.231018 0.233032
0.348816 0.252625 0.257019
0.441223 0.280823 0.283417
0.534973 0.310059 0.308990
0.617920 0.337769 0.332825
0.679291 0.361359 0.354126
0.207947 0.292175 0.228363
0.274506 0.302612 0.243225
0.364532 0.318756 0.263092
0.458282 0.344635 0.289001
0.553101 0.372803 0.315369
0.635345 0.399323 0.339478
0.695709 0.422546 0.361298
0.216278 0.365753 0.231018
0.289795 0.378967 0.249237
0.383636 0.395599 0.273407
0.464996 0.401978 0.286011
0.557709 0.417633 0.302460
0.638214 0.432373 0.317383
0.697144 0.444397 0.329834
0.239197 0.460541 0.240356
0.306458 0.474579 0.261780
0.415985 0.493713 0.291351
0.493042 0.497498 0.298401
0.567261 0.494995 0.309723
0.648926 0.509216 0.325409
0.708832 0.520844 0.338531
0.281158 0.560974 0.254517
0.312439 0.581635 0.276886
0.447052 0.594482 0.309692
0.530853 0.603424 0.315125
0.603088 0.603455 0.321655
0.658875 0.591339 0.331238
0.720123 0.602142 0.345215
0.314758 0.652985 0.257294
0.333649 0.673615 0.282135
0.476257 0.686066 0.326569
0.562286 0.693451 0.330994
0.634552 0.695404 0.335388
0.696350 0.697876 0.341064
0.729919 0.679688 0.349030
0.215942 0.198578 0.272583
0.240479 0.184967 0.273712
0.318420 0.202026 0.288635
0.419037 0.229004 0.321472
0.510925 0.259155 0.347076
0.595490 0.288330 0.371124
0.660400 0.313416 0.392761
0.225433 0.247406 0.281036
0.267212 0.249481 0.289703
0.336609 0.254791 0.301514
0.434357 0.278931 0.331299
0.527344 0.308228 0.357666
0.611664 0.336365 0.382599
0.675842 0.360809 0.404846
0.233185 0.313965 0.290558
0.285278 0.322479 0.302246
0.360535 0.327637 0.317932
0.453064 0.349060 0.342651
0.547241 0.377533 0.370026
0.631073 0.404907 0.395630
0.694366 0.428772 0.418488
0.233612 0.381042 0.293518
0.289612 0.393341 0.308502
0.380524 0.408508 0.329620
0.470612 0.424377 0.349487
0.564941 0.449463 0.374603
0.647919 0.473938 0.398560
0.710052 0.497650 0.421967
0.250671 0.459473 0.293823
0.295685 0.472656 0.309021
0.399109 0.494568 0.336792
0.492065 0.511414 0.361542
0.572540 0.517334 0.373749
0.654205 0.531586 0.390198
0.714813 0.543335 0.404175
0.280182 0.559204 0.303192
0.296906 0.578156 0.322052
0.419586 0.593994 0.349976
0.527832 0.614166 0.381592
0.601257 0.616791 0.388153
0.663696 0.612793 0.398010
0.725525 0.623779 0.412476
0.309631 0.651886 0.309753
0.323822 0.667389 0.326996
0.435669 0.685150 0.361481
0.558319 0.702148 0.400452
0.636841 0.710876 0.406281
0.695160 0.709381 0.411591
0.734558 0.698364 0.418610
0.242737 0.218353 0.335602
0.248901 0.193878 0.333038
0.316559 0.209686 0.343842
0.395203 0.227722 0.359619
0.504120 0.257202 0.398560
0.589508 0.286835 0.423492
0.656830 0.312683 0.445831
0.252319 0.267090 0.344177
0.288055 0.274750 0.353790
0.335510 0.262634 0.357758
0.414886 0.279419 0.373474
0.520752 0.306061 0.409515
0.605835 0.334808 0.435211
0.672668 0.359985 0.458221
0.262238 0.335632 0.354706
0.299683 0.342804 0.364471
0.362579 0.338257 0.376984
0.439880 0.351532 0.391052
0.540344 0.375427 0.422058
0.625305 0.403351 0.448578
0.691376 0.427734 0.472137
0.262482 0.409363 0.364441
0.302521 0.415741 0.373810
0.391327 0.430573 0.393799
0.466858 0.435425 0.409851
0.560608 0.456573 0.434479
0.645325 0.484039 0.461731
0.710144 0.508270 0.485565
0.272949 0.474731 0.359863
0.295959 0.487366 0.372986
0.398285 0.510925 0.401184
0.488312 0.525635 0.422272
0.578827 0.540924 0.442200
0.662354 0.565002 0.467133
0.725830 0.586243 0.489502
0.293396 0.557739 0.359955
0.304871 0.570984 0.372925
0.408844 0.592834 0.401062
0.509521 0.614594 0.430054
0.600983 0.630768 0.456543
0.670044 0.635101 0.467072
0.732330 0.646179 0.482178
0.321136 0.650330 0.369476
0.330383 0.660614 0.380585
0.419708 0.683960 0.412048
0.529633 0.700958 0.442474
0.634674 0.720062 0.476807
0.695465 0.721375 0.482361
0.740509 0.717377 0.489380
0.272003 0.238159 0.400909
0.265991 0.206177 0.394989
0.323639 0.219421 0.406586
0.391022 0.235443 0.416046
0.473419 0.253998 0.433472
0.572083 0.281555 0.464600
0.653595 0.311279 0.496643
0.281097 0.286285 0.409729
0.304688 0.292511 0.416992
0.342255 0.272491 0.420807
0.411224 0.287323 0.430634
0.493774 0.305145 0.447876
0.590668 0.330383 0.478149
0.669312 0.358643 0.508698
0.293274 0.358032 0.421295
0.317535 0.363281 0.428192
0.389130 0.372437 0.446442
0.437225 0.360016 0.449554
0.519745 0.376740 0.465912
0.613129 0.399719 0.494171
0.688141 0.426453 0.522644
0.294220 0.434235 0.433136
0.319092 0.437134 0.438324
0.404663 0.452942 0.459167
0.469696 0.448639 0.471375
0.547607 0.460266 0.485229
0.636627 0.481262 0.510498
0.707062 0.506866 0.536255
0.305939 0.508392 0.436798
0.312714 0.516052 0.444305
0.408997 0.530579 0.466034
0.498810 0.548431 0.488159
0.576599 0.554413 0.505157
0.660156 0.572754 0.526520
0.726349 0.596497 0.549652
0.316284 0.570984 0.428314
0.322357 0.578094 0.435394
0.410278 0.604675 0.466797
0.506927 0.628784 0.495087
0.599335 0.646637 0.517639
0.676361 0.656342 0.533936
0.740845 0.675690 0.555054
0.335754 0.648743 0.428955
0.339935 0.653351 0.433960
0.414734 0.681152 0.468170
0.518402 0.700256 0.495361
0.616028 0.719543 0.523407
0.698303 0.734711 0.549011
0.747437 0.735626 0.555939
0.300507 0.258423 0.461639
0.296509 0.239380 0.458038
0.332947 0.227722 0.463562
0.396606 0.244965 0.474701
0.465546 0.261353 0.483246
0.549438 0.280945 0.501862
0.628448 0.303467 0.521179
0.309387 0.306885 0.470490
0.321808 0.310364 0.474640
0.350433 0.281067 0.477203
0.415802 0.297180 0.488556
0.486267 0.312683 0.497559
0.569733 0.331146 0.516052
0.646362 0.351593 0.534668
0.323517 0.380615 0.482697
0.335358 0.383514 0.486206
0.404663 0.394379 0.505127
0.441101 0.370239 0.506622
0.513245 0.384766 0.515961
0.595032 0.402191 0.533630
0.667725 0.420502 0.550262
0.324432 0.457428 0.494751
0.335175 0.458771 0.496918
0.418640 0.474976 0.517273
0.495026 0.485291 0.533783
0.542755 0.468933 0.535889
0.621765 0.485413 0.552002
0.689789 0.501678 0.566162
0.335175 0.539124 0.505249
0.337189 0.541565 0.507568
0.422852 0.556488 0.527802
0.509613 0.571716 0.546478
0.585999 0.576935 0.560059
0.649445 0.578430 0.570770
0.712280 0.592255 0.582184
0.351288 0.610565 0.506531
0.351868 0.611237 0.507294
0.422485 0.632935 0.533112
0.515503 0.648163 0.553345
0.605164 0.665039 0.573456
0.677094 0.669830 0.587097
0.733734 0.677094 0.594543
0.356995 0.657288 0.493134
0.356995 0.657288 0.493134
0.412689 0.688904 0.527557
0.517090 0.707001 0.552094
0.610687 0.728210 0.577362
0.694000 0.745239 0.598083
0.752441 0.750977 0.609192
