device/zink3.cube
#Created by: Adobe Photoshop Export Color Lookup Plugin
#Copyright: (C) Copyright 2026 汉图
TITLE "mint本征源文件.psd"
#LUT size
LUT_3D_SIZE 34
#data domain
DOMAIN_MIN 0.0 0.0 0.0
DOMAIN_MAX 1.0 1.0 1.0
#LUT data points
0.157135 0.145813 0.111328
0.173859 0.150513 0.115936
0.194580 0.155487 0.121857
0.214264 0.161255 0.127686
0.233612 0.167023 0.133118
0.252716 0.172668 0.138824
0.271729 0.178467 0.144318
0.290253 0.184235 0.149567
0.309021 0.189941 0.154572
0.327667 0.195465 0.159821
0.346466 0.201080 0.164856
0.364471 0.206879 0.169525
0.383148 0.212555 0.174530
0.401428 0.218140 0.179169
0.420227 0.223907 0.183960
0.438690 0.229614 0.188293
0.457642 0.235413 0.193207
0.476196 0.240997 0.197327
0.495209 0.246765 0.201965
0.513489 0.252319 0.206055
0.531464 0.258026 0.210419
0.548706 0.263458 0.214233
0.565521 0.268799 0.218414
0.581665 0.274048 0.222412
0.596771 0.279205 0.226318
0.610901 0.284210 0.230011
0.624481 0.289001 0.233948
0.636841 0.293701 0.237701
0.648499 0.298126 0.241669
0.658752 0.302490 0.245453
0.668091 0.306519 0.249176
0.676117 0.310455 0.252991
0.683502 0.314148 0.256989
0.689911 0.317719 0.260925
0.159332 0.152435 0.112823
0.175140 0.154114 0.115570
0.194550 0.157288 0.119476
0.213226 0.160583 0.122772
0.232422 0.165161 0.127533
0.251373 0.170776 0.132446
0.270874 0.176514 0.138428
0.289520 0.182251 0.144104
0.308380 0.187897 0.149078
0.326569 0.193604 0.154205
0.345245 0.199158 0.159058
0.363617 0.204926 0.163940
0.382050 0.210632 0.168671
0.400513 0.216217 0.173523
0.419220 0.221924 0.177948
0.437927 0.227600 0.182739
0.456726 0.233307 0.187073
0.475311 0.239044 0.191315
0.494263 0.244781 0.196045
0.512390 0.250427 0.200134
0.530640 0.255890 0.204193
0.547913 0.261475 0.208374
0.564514 0.266846 0.212463
0.580780 0.272034 0.216461
0.595947 0.277222 0.220276
0.610229 0.282196 0.224152
0.623627 0.287018 0.227753
0.636139 0.291718 0.231659
0.647675 0.296204 0.235565
0.657928 0.300446 0.239227
0.667236 0.304535 0.243073
0.675476 0.308411 0.247009
0.682709 0.312134 0.250580
0.689087 0.315674 0.254608
0.162537 0.162842 0.114807
0.175964 0.163452 0.116394
0.194977 0.166290 0.119873
0.214600 0.169250 0.123810
0.233154 0.172424 0.127106
0.251862 0.175568 0.130524
0.270660 0.178589 0.133820
0.288605 0.181885 0.137146
0.306580 0.185913 0.140839
0.325378 0.190399 0.145050
0.343445 0.196198 0.149658
0.362091 0.201782 0.154602
0.380920 0.207458 0.159790
0.399048 0.213135 0.164154
0.417938 0.218781 0.168884
0.436401 0.224548 0.173370
0.455231 0.230164 0.177826
0.473938 0.235840 0.181946
0.492615 0.241516 0.186279
0.511017 0.247345 0.190796
0.529297 0.252838 0.195129
0.546417 0.258270 0.198944
0.563232 0.263702 0.202789
0.579315 0.268890 0.206726
0.594604 0.274078 0.210754
0.608856 0.279022 0.214417
0.622375 0.283905 0.218231
0.634857 0.288544 0.222046
0.646423 0.293030 0.225983
0.656921 0.297272 0.229736
0.666077 0.301331 0.233307
0.674469 0.305328 0.237640
0.681641 0.309021 0.241150
0.688049 0.312500 0.245026
0.166382 0.174316 0.117126
0.180725 0.176239 0.118896
0.196594 0.175842 0.121094
0.215820 0.178864 0.124817
0.234406 0.182068 0.128418
0.253296 0.185089 0.131927
0.271729 0.188293 0.134735
0.289642 0.191498 0.138092
0.308014 0.194672 0.141144
0.326080 0.197754 0.144379
0.344177 0.201080 0.147186
0.362122 0.204407 0.150055
0.380035 0.208008 0.152618
0.397919 0.211914 0.155579
0.416046 0.215973 0.158630
0.434814 0.221008 0.162842
0.453552 0.226715 0.166931
0.472229 0.232361 0.171143
0.490967 0.238098 0.175659
0.509552 0.243591 0.179932
0.527527 0.249237 0.183807
0.544952 0.254669 0.188080
0.561737 0.260162 0.192078
0.577759 0.265411 0.195801
0.593109 0.270599 0.199768
0.607452 0.275452 0.203552
0.621063 0.280365 0.207520
0.633575 0.285004 0.211304
0.645050 0.289520 0.214844
0.655426 0.293793 0.218597
0.664825 0.297852 0.222412
0.673035 0.301758 0.226288
0.680573 0.305481 0.230408
0.686890 0.309052 0.234314
0.171021 0.186676 0.119812
0.184357 0.188538 0.121399
0.202362 0.190796 0.123505
0.217072 0.189545 0.125977
0.236176 0.192535 0.129456
0.254547 0.195618 0.132690
0.273499 0.198578 0.136139
0.291504 0.201752 0.139465
0.309967 0.204865 0.142761
0.327881 0.208069 0.145691
0.345917 0.211212 0.148651
0.363953 0.214569 0.151703
0.382080 0.217926 0.154266
0.399780 0.221436 0.156830
0.418091 0.224792 0.159607
0.436218 0.228271 0.162018
0.454346 0.232056 0.164246
0.472717 0.235504 0.166809
0.490814 0.239166 0.168701
0.508514 0.242889 0.170959
0.526154 0.246552 0.173065
0.543304 0.250763 0.175903
0.560028 0.256073 0.179443
0.576111 0.261353 0.183289
0.591461 0.266510 0.187164
0.605774 0.271515 0.191040
0.619476 0.276398 0.194916
0.631958 0.281097 0.198517
0.643494 0.285645 0.202576
0.653992 0.289917 0.206390
0.663422 0.293945 0.210114
0.671600 0.297882 0.213959
0.679108 0.301575 0.217865
0.685486 0.305084 0.221710
0.175629 0.199585 0.122406
0.188629 0.201294 0.124084
0.205872 0.203857 0.125885
0.218292 0.200714 0.126831
0.236877 0.203918 0.130280
0.256042 0.206665 0.133850
0.274780 0.209564 0.137268
0.293182 0.212555 0.140656
0.311249 0.215820 0.143768
0.329407 0.218933 0.146973
0.347870 0.221893 0.150116
0.365784 0.225159 0.153015
0.384064 0.228485 0.155945
0.401825 0.231934 0.158569
0.420166 0.235321 0.161133
0.438293 0.238800 0.163666
0.456482 0.242371 0.166168
0.474945 0.245850 0.168732
0.493378 0.249390 0.170990
0.511108 0.253113 0.172852
0.528717 0.256653 0.175018
0.545410 0.260284 0.176941
0.561829 0.263794 0.179169
0.577393 0.266998 0.180817
0.592163 0.270325 0.182739
0.606049 0.273407 0.184418
0.619110 0.276520 0.185944
0.631042 0.279358 0.187622
0.642426 0.283417 0.190948
0.652924 0.287384 0.194550
0.662292 0.291321 0.198181
0.670593 0.294891 0.201782
0.677948 0.298309 0.205597
0.684235 0.301605 0.209167
0.179474 0.213593 0.124817
0.192963 0.214752 0.126251
0.210358 0.217041 0.128387
0.227264 0.219482 0.130219
0.238892 0.215118 0.131531
0.257233 0.218231 0.134979
0.276245 0.221100 0.138489
0.294739 0.224030 0.141846
0.312988 0.227173 0.144928
0.331207 0.230225 0.148315
0.349426 0.233398 0.151215
0.367584 0.236511 0.154236
0.386017 0.239746 0.157288
0.403778 0.243164 0.159821
0.422119 0.246429 0.162750
0.440277 0.249939 0.165253
0.458923 0.253204 0.167908
0.477112 0.256866 0.170410
0.495605 0.260345 0.172791
0.513580 0.263824 0.175140
0.531189 0.267365 0.177368
0.548065 0.270813 0.179321
0.564575 0.274261 0.181396
0.580078 0.277527 0.183350
0.595093 0.280853 0.185120
0.608795 0.283997 0.186615
0.621857 0.287018 0.188629
0.633942 0.289795 0.190277
0.645020 0.292358 0.191833
0.655029 0.294708 0.193665
0.663971 0.296997 0.195312
0.671570 0.298889 0.196930
0.678497 0.300568 0.198547
0.684174 0.302338 0.200073
0.187286 0.230408 0.128204
0.196228 0.229156 0.128693
0.214294 0.231140 0.130493
0.231842 0.233215 0.132538
0.249084 0.235413 0.134338
0.258881 0.230103 0.135986
0.277679 0.233154 0.139404
0.296051 0.236023 0.142700
0.314728 0.238983 0.146118
0.332703 0.242035 0.149292
0.351013 0.245148 0.152374
0.369171 0.248230 0.155273
0.387848 0.251312 0.158600
0.405823 0.254578 0.161438
0.424042 0.257965 0.164062
0.442474 0.261200 0.166992
0.460846 0.264709 0.169678
0.479401 0.268066 0.172150
0.497955 0.271545 0.174561
0.515930 0.275055 0.176758
0.533569 0.278564 0.179230
0.550537 0.281982 0.181488
0.567017 0.285309 0.183472
0.582703 0.288635 0.185516
0.597656 0.291840 0.187378
0.611633 0.294800 0.189270
0.624786 0.297729 0.190948
0.636810 0.300568 0.192810
0.648132 0.303040 0.194672
0.657928 0.305542 0.196167
0.666809 0.307739 0.197906
0.674622 0.309753 0.199493
0.681549 0.311523 0.201263
0.687378 0.313080 0.202942
0.192596 0.245880 0.131042
0.202637 0.245667 0.131683
0.218842 0.245544 0.133087
0.235718 0.247803 0.135010
0.253357 0.249908 0.136658
0.264618 0.247009 0.137756
0.278961 0.245605 0.139862
0.297577 0.248413 0.143585
0.316254 0.251373 0.147095
0.334473 0.254303 0.150208
0.353027 0.257263 0.153503
0.371033 0.260437 0.156616
0.389435 0.263458 0.159821
0.407532 0.266754 0.162598
0.426300 0.269928 0.165558
0.444580 0.273132 0.168396
0.463043 0.276611 0.170898
0.481506 0.280090 0.173553
0.500275 0.283417 0.176178
0.518402 0.286804 0.178864
0.536163 0.290131 0.181000
0.553131 0.293640 0.183258
0.569611 0.296906 0.185486
0.585358 0.300201 0.187653
0.600342 0.303284 0.189453
0.614197 0.306427 0.191376
0.627502 0.309296 0.193420
0.639709 0.311981 0.195068
0.650726 0.314545 0.196899
0.660919 0.316895 0.198883
0.669952 0.319000 0.200500
0.677826 0.320892 0.202332
0.684509 0.322723 0.203827
0.690430 0.324371 0.205444
0.197906 0.261536 0.134216
0.208710 0.262390 0.134521
0.222473 0.260559 0.135498
0.240173 0.262482 0.137146
0.257233 0.264740 0.139191
0.274384 0.266785 0.140839
0.280334 0.258331 0.140930
0.298920 0.261169 0.144409
0.317535 0.264099 0.147858
0.336212 0.266846 0.151245
0.354797 0.269806 0.154419
0.372925 0.272827 0.157684
0.391266 0.275970 0.160736
0.409454 0.279144 0.163849
0.427979 0.282318 0.166840
0.446503 0.285553 0.169708
0.465149 0.288788 0.172272
0.483734 0.292145 0.175171
0.502350 0.295593 0.177734
0.520416 0.298981 0.180145
0.538452 0.302277 0.182739
0.555481 0.305573 0.184967
0.571991 0.308868 0.187073
0.587769 0.312073 0.189514
0.602722 0.315186 0.191406
0.616974 0.318207 0.193604
0.630249 0.320984 0.195374
0.642456 0.323730 0.197327
0.653595 0.326202 0.199219
0.663727 0.328522 0.201080
0.672668 0.330688 0.202820
0.680725 0.332611 0.204590
0.687622 0.334351 0.206421
0.693512 0.335846 0.208069
0.203705 0.277679 0.137299
0.213409 0.278656 0.137665
0.230194 0.278748 0.138397
0.244080 0.277924 0.139618
0.261963 0.279907 0.141357
0.279053 0.282043 0.142944
0.295868 0.284210 0.144775
0.300354 0.274200 0.145111
0.319244 0.277069 0.148499
0.337830 0.279846 0.151917
0.356201 0.282776 0.155334
0.374573 0.285767 0.158630
0.393158 0.288879 0.161682
0.411377 0.291931 0.164734
0.429993 0.295074 0.167603
0.448517 0.298279 0.170624
0.467590 0.301544 0.173737
0.485931 0.304871 0.176361
0.504547 0.308105 0.179260
0.522858 0.311584 0.181610
0.540741 0.314758 0.184296
0.557739 0.317993 0.186646
0.574432 0.321259 0.188904
0.590149 0.324493 0.191193
0.605255 0.327515 0.193176
0.619446 0.330414 0.195282
0.632904 0.333282 0.197479
0.645020 0.335876 0.199371
0.656281 0.338562 0.201233
0.666412 0.340698 0.203094
0.675568 0.342773 0.204926
0.683533 0.344818 0.206818
0.690552 0.346344 0.208527
0.696411 0.347931 0.210327
0.209229 0.294312 0.139984
0.218658 0.294983 0.140350
0.236084 0.296692 0.141541
0.249237 0.293579 0.142090
0.266937 0.295258 0.143677
0.283478 0.297485 0.145325
0.300842 0.299438 0.147186
0.316254 0.300690 0.148346
0.320709 0.290497 0.149078
0.339417 0.293243 0.152496
0.357788 0.296112 0.155884
0.376221 0.299042 0.159393
0.394958 0.302002 0.162537
0.413361 0.304901 0.165710
0.431793 0.308167 0.168854
0.450439 0.311249 0.171631
0.469360 0.314514 0.174561
0.488098 0.317688 0.177521
0.506683 0.321045 0.180389
0.524994 0.324310 0.183014
0.542877 0.327545 0.185608
0.560150 0.330750 0.187897
0.576904 0.334045 0.190521
0.592712 0.337097 0.192657
0.607697 0.340179 0.194946
0.621887 0.343140 0.196899
0.635468 0.345856 0.199158
0.647644 0.348450 0.201263
0.658997 0.350983 0.203033
0.669128 0.353302 0.204956
0.678467 0.355469 0.206909
0.686401 0.357208 0.208801
0.693329 0.358887 0.210724
0.699402 0.360504 0.212402
0.214569 0.311432 0.143250
0.223846 0.311798 0.143341
0.241791 0.313385 0.144165
0.258545 0.314667 0.145050
0.271179 0.311462 0.145691
0.288300 0.313446 0.147308
0.305237 0.315582 0.149139
0.322144 0.317688 0.150543
0.333466 0.314331 0.151611
0.340851 0.307007 0.153381
0.359467 0.309845 0.156403
0.377930 0.312714 0.159698
0.396545 0.315613 0.163086
0.415192 0.318665 0.166321
0.433990 0.321625 0.169525
0.452362 0.324799 0.172424
0.471283 0.327942 0.175415
0.489960 0.331116 0.178436
0.508759 0.334351 0.181335
0.527222 0.337555 0.184143
0.545013 0.340790 0.186646
0.562408 0.343994 0.189301
0.579193 0.347290 0.191711
0.594910 0.350311 0.194153
0.610291 0.353271 0.196411
0.624390 0.356171 0.198578
0.638062 0.358917 0.200714
0.650238 0.361542 0.203033
0.661652 0.363922 0.204834
0.671844 0.366180 0.206696
0.681091 0.368286 0.208679
0.689240 0.370087 0.210571
0.696228 0.371887 0.212585
0.702240 0.373383 0.214355
0.220459 0.328857 0.145966
0.228516 0.329285 0.146088
0.246887 0.330597 0.146820
0.264526 0.332062 0.147614
0.278046 0.330261 0.148224
0.292572 0.329865 0.149323
0.310211 0.331787 0.151123
0.326965 0.333923 0.152679
0.343658 0.336090 0.154144
0.350708 0.328613 0.154968
0.361328 0.323730 0.156952
0.379791 0.326569 0.160309
0.398407 0.329498 0.163544
0.416992 0.332367 0.166962
0.435699 0.335449 0.170197
0.454193 0.338531 0.173096
0.473389 0.341614 0.176392
0.492065 0.344879 0.179413
0.510986 0.347992 0.182343
0.529236 0.351257 0.184937
0.547333 0.354370 0.187683
0.564545 0.357544 0.190247
0.581390 0.360748 0.192932
0.597351 0.363739 0.195435
0.612579 0.366638 0.197693
0.626953 0.369537 0.199890
0.640442 0.372314 0.202118
0.652771 0.374786 0.204285
0.664307 0.377197 0.206329
0.674438 0.379547 0.208344
0.683868 0.381561 0.210510
0.691956 0.383362 0.212311
0.698975 0.385132 0.214172
0.705048 0.386597 0.216278
0.225616 0.346985 0.148926
0.233490 0.347198 0.148834
0.252106 0.348358 0.149628
0.269806 0.349792 0.150269
0.287018 0.351379 0.151154
0.297729 0.347107 0.151428
0.314789 0.348572 0.153107
0.332031 0.350464 0.154480
0.348785 0.352631 0.156128
0.365509 0.354767 0.157806
0.368530 0.343445 0.157990
0.381531 0.340851 0.160461
0.400238 0.343811 0.163910
0.418823 0.346619 0.167267
0.437469 0.349640 0.170624
0.456207 0.352570 0.173645
0.475311 0.355774 0.176880
0.494049 0.358856 0.179932
0.512970 0.362030 0.182922
0.531494 0.365234 0.185669
0.549530 0.368317 0.188629
0.566803 0.371552 0.191223
0.583618 0.374634 0.193787
0.599518 0.377655 0.196136
0.614929 0.380524 0.198669
0.629303 0.383270 0.200928
0.642883 0.385925 0.203369
0.655212 0.388611 0.205505
0.666840 0.390991 0.207672
0.677185 0.393158 0.209991
0.686493 0.395203 0.211884
0.694519 0.397034 0.213898
0.701721 0.398804 0.215698
0.707855 0.400177 0.217834
0.230957 0.365387 0.152039
0.238281 0.365479 0.151794
0.257294 0.366455 0.152008
0.275360 0.367615 0.152618
0.292786 0.369171 0.153656
0.307983 0.369232 0.154114
0.319458 0.365570 0.154907
0.336578 0.367493 0.156464
0.353638 0.369507 0.157928
0.370453 0.371643 0.159424
0.387360 0.373840 0.160767
0.386780 0.358704 0.160950
0.401947 0.358215 0.163910
0.420715 0.361023 0.167480
0.439606 0.364044 0.170685
0.458008 0.367096 0.173889
0.477325 0.369965 0.177032
0.496094 0.373199 0.180115
0.514923 0.376312 0.183228
0.533539 0.379456 0.186157
0.551605 0.382477 0.189148
0.568817 0.385620 0.191895
0.585968 0.388672 0.194519
0.601929 0.391632 0.197113
0.617249 0.394531 0.199738
0.631714 0.397400 0.202087
0.645203 0.400024 0.204224
0.657715 0.402527 0.206726
0.669373 0.404968 0.208801
0.679718 0.407227 0.211060
0.689087 0.409241 0.213074
0.697205 0.411133 0.215240
0.704498 0.412628 0.217133
0.710541 0.414062 0.219238
0.236664 0.384308 0.154602
0.242584 0.384460 0.154541
0.262665 0.385071 0.154541
0.280823 0.386200 0.155121
0.298279 0.387695 0.155762
0.315430 0.389343 0.156586
0.328278 0.386810 0.156952
0.341614 0.385040 0.158020
0.358612 0.387085 0.159454
0.375610 0.389099 0.161133
0.392700 0.391235 0.162079
0.408295 0.392303 0.163696
0.405396 0.374756 0.163940
0.422455 0.376038 0.167267
0.441467 0.378876 0.170685
0.460266 0.381805 0.173920
0.479126 0.384949 0.177216
0.498169 0.387909 0.180359
0.517120 0.390991 0.183655
0.535614 0.394196 0.186493
0.553741 0.397186 0.189453
0.571198 0.400269 0.192505
0.588074 0.403381 0.194916
0.604126 0.406281 0.197601
0.619629 0.409119 0.200409
0.634125 0.411896 0.202789
0.647552 0.414642 0.204926
0.660187 0.417023 0.207367
0.671753 0.419525 0.209686
0.682312 0.421631 0.211914
0.691620 0.423615 0.214233
0.699890 0.425537 0.216370
0.707184 0.427124 0.218231
0.713287 0.428619 0.220337
0.241425 0.403900 0.157837
0.247131 0.403809 0.157471
0.267700 0.404144 0.157074
0.286163 0.405151 0.157501
0.303955 0.406494 0.158051
0.321289 0.408051 0.158722
0.338348 0.409576 0.159332
0.348602 0.404877 0.159882
0.363861 0.404785 0.160919
0.380798 0.406708 0.162201
0.397797 0.408844 0.163788
0.414612 0.410950 0.165039
0.427216 0.408722 0.166290
0.424500 0.391083 0.167053
0.443115 0.394073 0.170319
0.462067 0.396942 0.173706
0.481262 0.399872 0.177155
0.500275 0.402863 0.180450
0.519287 0.405975 0.183563
0.537811 0.409058 0.186646
0.555908 0.411987 0.189758
0.573334 0.415039 0.192657
0.590240 0.418243 0.195312
0.606354 0.420990 0.198090
0.621857 0.423920 0.200745
0.636475 0.426636 0.203247
0.650055 0.429321 0.205750
0.662506 0.431824 0.208099
0.674225 0.434082 0.210510
0.684814 0.436188 0.212616
0.694244 0.438232 0.215149
0.702454 0.440063 0.217255
0.709747 0.441681 0.219177
0.715942 0.443176 0.221466
0.246155 0.424225 0.160736
0.251556 0.423798 0.160522
0.272797 0.423889 0.159302
0.291656 0.424652 0.159637
0.309814 0.425964 0.159973
0.327209 0.427277 0.160828
0.344421 0.428864 0.161469
0.359650 0.429291 0.161987
0.369476 0.423676 0.162323
0.385834 0.425049 0.163513
0.403076 0.427032 0.164673
0.420258 0.429138 0.166260
0.437256 0.431396 0.167450
0.446899 0.426147 0.168732
0.445129 0.409668 0.169952
0.464081 0.412445 0.173401
0.483185 0.415375 0.176544
0.502258 0.418304 0.179962
0.521271 0.421448 0.183380
0.539948 0.424408 0.186432
0.558044 0.427490 0.189606
0.575623 0.430511 0.192627
0.592590 0.433441 0.195526
0.608612 0.436462 0.198181
0.624207 0.439178 0.200989
0.638763 0.441864 0.203613
0.652405 0.444489 0.205994
0.665009 0.446960 0.208405
0.676727 0.449219 0.210754
0.687286 0.451477 0.213257
0.696899 0.453552 0.215607
0.705139 0.455353 0.217773
0.712402 0.457123 0.220032
0.718719 0.458374 0.222076
0.250946 0.444855 0.163483
0.255280 0.444519 0.163239
0.277893 0.444000 0.161865
0.297394 0.444519 0.161774
0.315521 0.445740 0.162109
0.333221 0.447052 0.162354
0.350555 0.448456 0.163116
0.367401 0.450104 0.163483
0.380859 0.448273 0.164032
0.391266 0.443573 0.164307
0.408447 0.445587 0.165710
0.425598 0.447662 0.167114
0.442993 0.449768 0.168365
0.459900 0.451996 0.169495
0.466522 0.443756 0.171112
0.466034 0.428162 0.172516
0.485138 0.431091 0.175995
0.504272 0.434052 0.179504
0.523254 0.436981 0.182770
0.541962 0.440033 0.185883
0.560181 0.443054 0.189026
0.577545 0.446075 0.192200
0.594727 0.449036 0.195068
0.611023 0.451874 0.198090
0.626465 0.454681 0.200836
0.641022 0.457336 0.203766
0.654816 0.460022 0.206085
0.667419 0.462402 0.208740
0.679169 0.464752 0.211151
0.689819 0.466888 0.213531
0.699402 0.468964 0.215942
0.707733 0.470734 0.218140
0.715057 0.472229 0.220490
0.721313 0.473755 0.222748
0.254913 0.466339 0.166687
0.258331 0.466034 0.166260
0.282288 0.464905 0.164337
0.302460 0.465240 0.163940
0.321503 0.466034 0.163818
0.339111 0.467346 0.164062
0.356781 0.468719 0.164581
0.373840 0.470154 0.165283
0.390839 0.471893 0.165833
0.402283 0.468292 0.166016
0.413879 0.464630 0.166656
0.431030 0.466736 0.167603
0.448364 0.468842 0.168854
0.465546 0.470917 0.170288
0.483032 0.473206 0.171204
0.487061 0.462280 0.172852
0.487335 0.447418 0.174896
0.506378 0.450287 0.178192
0.525482 0.453308 0.181824
0.543976 0.456329 0.185028
0.562195 0.459167 0.188110
0.579987 0.462097 0.191437
0.597046 0.465057 0.194550
0.613281 0.467926 0.197571
0.628723 0.470642 0.200500
0.643311 0.473450 0.203125
0.657196 0.475861 0.205933
0.669800 0.478394 0.208313
0.681702 0.480652 0.210999
0.692291 0.482849 0.213470
0.701935 0.484772 0.215942
0.710297 0.486572 0.218201
0.717743 0.488068 0.220581
0.724091 0.489563 0.223022
0.259552 0.487823 0.169647
0.261322 0.487762 0.169312
0.287018 0.486053 0.166534
0.307648 0.486115 0.165710
0.327118 0.486725 0.165466
0.345093 0.487885 0.165344
0.362976 0.489105 0.165710
0.380188 0.490662 0.166229
0.397369 0.492249 0.166656
0.413940 0.494049 0.167328
0.423920 0.488495 0.167450
0.436554 0.485901 0.168030
0.453857 0.488007 0.169281
0.471313 0.490112 0.170319
0.488708 0.492310 0.171692
0.506012 0.494629 0.172485
0.507446 0.480865 0.174408
0.508484 0.466705 0.176605
0.527588 0.469635 0.180511
0.546173 0.472595 0.183868
0.564484 0.475555 0.187134
0.582153 0.478302 0.190521
0.599213 0.481293 0.193695
0.615448 0.484070 0.196747
0.630951 0.486877 0.199615
0.645782 0.489441 0.202332
0.659546 0.492096 0.205322
0.672241 0.494476 0.207916
0.684174 0.496674 0.210358
0.694855 0.498779 0.213196
0.704529 0.500824 0.215729
0.713043 0.502594 0.218109
0.720367 0.504272 0.220703
0.726715 0.505585 0.223053
0.263214 0.510223 0.172638
0.263977 0.510223 0.172455
0.290985 0.508057 0.168823
0.313141 0.507477 0.167145
0.333099 0.507843 0.166534
0.351440 0.508820 0.166595
0.369324 0.510071 0.166748
0.386810 0.511505 0.167084
0.404144 0.513000 0.167389
0.420868 0.514740 0.167786
0.436279 0.514832 0.168091
0.445984 0.509277 0.168518
0.459625 0.507599 0.169098
0.477051 0.509521 0.170349
0.494659 0.511719 0.171326
0.511932 0.513947 0.172150
0.529419 0.516174 0.173096
0.528442 0.500397 0.175995
0.529938 0.486389 0.178558
0.548584 0.489319 0.181885
0.566803 0.492279 0.185699
0.584442 0.495209 0.188995
0.601624 0.497925 0.192169
0.617737 0.500763 0.195404
0.633545 0.503448 0.198456
0.648132 0.506104 0.201416
0.661926 0.508575 0.204285
0.674774 0.510986 0.207123
0.686707 0.513184 0.209747
0.697418 0.515350 0.212463
0.707001 0.517334 0.214996
0.715607 0.518982 0.217712
0.723053 0.520477 0.220276
0.729370 0.521881 0.222534
0.270172 0.531342 0.173859
0.270172 0.531342 0.173859
0.294189 0.530060 0.171753
0.317841 0.528961 0.168701
0.338165 0.529236 0.167908
0.357513 0.529846 0.167419
0.375488 0.531036 0.167267
0.393372 0.532257 0.167480
0.410767 0.533844 0.167633
0.427551 0.535492 0.168304
0.444916 0.537109 0.168671
0.458282 0.535431 0.169037
0.468140 0.529663 0.169189
0.482910 0.529022 0.169861
0.500427 0.531128 0.170776
0.518066 0.533234 0.171661
0.535431 0.535583 0.172394
0.552338 0.537720 0.173279
0.549194 0.519867 0.176819
0.550629 0.506256 0.179871
0.568939 0.509155 0.183655
0.586700 0.511932 0.187256
0.603882 0.514679 0.190460
0.620117 0.517456 0.193787
0.635864 0.520172 0.196808
0.650604 0.522675 0.200073
0.664459 0.525146 0.203003
0.677277 0.527588 0.205688
0.689209 0.529724 0.208435
0.699982 0.531799 0.211517
0.709656 0.533722 0.214142
0.718109 0.535522 0.216797
0.725677 0.537018 0.219391
0.732117 0.538422 0.221924
0.278229 0.552155 0.174530
0.278229 0.552155 0.174530
0.296112 0.552979 0.174347
0.322388 0.550873 0.170258
0.344147 0.550598 0.168854
0.363525 0.551117 0.167969
0.381744 0.552216 0.167938
0.399902 0.553375 0.167542
0.417480 0.554749 0.167938
0.434601 0.556305 0.168243
0.451843 0.557922 0.168579
0.468933 0.559784 0.168701
0.480774 0.556183 0.169281
0.490540 0.550537 0.168732
0.506531 0.550751 0.169769
0.523956 0.552887 0.170685
0.541443 0.555023 0.171204
0.558350 0.557251 0.172058
0.573273 0.557709 0.173065
0.569946 0.539825 0.177124
0.571289 0.526215 0.180725
0.589142 0.529114 0.184357
0.606171 0.531769 0.187988
0.622528 0.534424 0.191376
0.638214 0.537109 0.194672
0.652985 0.539642 0.197693
0.666931 0.542053 0.201202
0.679688 0.544373 0.203949
0.691742 0.546570 0.207123
0.702545 0.548645 0.209869
0.712372 0.550537 0.212860
0.720886 0.552216 0.215515
0.728363 0.553772 0.218048
0.734894 0.555237 0.221100
0.286469 0.572540 0.174591
0.286469 0.572540 0.174591
0.298248 0.575195 0.177368
0.326355 0.572449 0.172119
0.349060 0.571869 0.169373
0.368927 0.572174 0.168457
0.388184 0.572998 0.167725
0.406189 0.574097 0.167480
0.424103 0.575378 0.167480
0.441467 0.576904 0.167572
0.458923 0.578522 0.167480
0.475952 0.580170 0.168060
0.493256 0.581848 0.168335
0.503082 0.576172 0.167969
0.512939 0.570709 0.168213
0.529907 0.572174 0.168732
0.547333 0.574280 0.169739
0.564178 0.576416 0.170166
0.580719 0.578644 0.170624
0.593750 0.577271 0.172028
0.590332 0.559662 0.177094
0.591339 0.546143 0.180939
0.608521 0.548828 0.184906
0.624939 0.551422 0.188477
0.640625 0.554108 0.191864
0.655457 0.556549 0.195282
0.669342 0.559021 0.198456
0.682251 0.561310 0.201752
0.694366 0.563446 0.204895
0.705078 0.565430 0.207642
0.714874 0.567261 0.210846
