device/zink2.cube
#Created by: Adobe Photoshop Export Color Lookup Plugin
#Copyright: (C) Copyright 2026 汉图
TITLE "mint本征源文件.psd"
#LUT size
LUT_3D_SIZE 4
#data domain
DOMAIN_MIN 0.0 0.0 0.0
DOMAIN_MAX 1.0 1.0 1.0
#LUT data points
0.113464 0.115143 0.086975
0.353333 0.171570 0.141693
0.586090 0.231262 0.187500
0.735016 0.280029 0.230957
0.162323 0.299255 0.114990
0.364960 0.300690 0.130341
0.598602 0.330505 0.157532
0.747925 0.354553 0.178162
0.203186 0.552917 0.142303
0.434357 0.555542 0.133331
0.620911 0.535889 0.153503
0.777710 0.555634 0.184143
0.280975 0.784851 0.124725
0.498322 0.789886 0.093689
0.711639 0.804382 0.082581
0.807159 0.770660 0.128723
0.160065 0.155487 0.239471
0.340607 0.168976 0.270966
0.572266 0.229370 0.319305
0.733459 0.280426 0.363892
0.170197 0.314484 0.254547
0.372040 0.339172 0.290100
0.608765 0.391632 0.343109
0.768005 0.437714 0.390930
0.204865 0.538879 0.261108
0.423462 0.571960 0.319733
0.623688 0.571014 0.334961
0.784698 0.591003 0.363525
0.269043 0.761383 0.257416
0.477203 0.792358 0.352570
0.692017 0.805359 0.360413
0.806091 0.789551 0.370880
0.227081 0.200470 0.417145
0.326477 0.183044 0.427460
0.553375 0.225372 0.470703
0.733093 0.280457 0.520874
0.237640 0.359283 0.435730
0.377563 0.364471 0.463165
0.595581 0.388641 0.500519
0.768188 0.437378 0.548706
0.249939 0.552460 0.438477
0.401855 0.586884 0.482422
0.634247 0.615936 0.524353
0.803314 0.658875 0.573608
0.298340 0.756744 0.440216
0.415466 0.788910 0.489655
0.685486 0.817657 0.558197
0.817444 0.818390 0.567688
0.297028 0.246643 0.581482
0.344238 0.200256 0.585602
0.523041 0.237549 0.605530
0.700165 0.271973 0.618591
0.307068 0.404938 0.600098
0.420471 0.425934 0.623810
0.570892 0.405396 0.636017
0.741241 0.430847 0.648834
0.321747 0.617645 0.622406
0.427612 0.634827 0.644653
0.649994 0.661377 0.674774
0.788910 0.655518 0.683075
0.342773 0.759125 0.607697
0.406036 0.792999 0.646729
0.655243 0.819519 0.683319
0.829041 0.843384 0.710724
