opt for zink/09.portrait-baoman.cube
#Created by: Adobe Photoshop Export Color Lookup Plugin
#Copyright: (C) Copyright 2026 小米
TITLE "人像+相机模拟+黑白.psd"
#LUT size
LUT_3D_SIZE 6
#data domain
DOMAIN_MIN 0.0 0.0 0.0
DOMAIN_MAX 1.0 1.0 1.0
#LUT data points
0.000000 0.000000 0.000000
0.212433 0.000000 0.000000
0.432556 0.000000 0.000000
0.646301 0.000000 0.000000
0.855103 0.000000 0.000000
1.000000 0.000000 0.000000
0.033386 0.191132 0.013580
0.215851 0.206696 0.000000
0.431793 0.207703 0.000000
0.649231 0.207855 0.000000
0.856262 0.204315 0.000000
1.000000 0.195618 0.000000
0.119385 0.396179 0.080994
0.238678 0.399475 0.069702
0.440186 0.422882 0.000000
0.653564 0.421448 0.000000
0.850494 0.411774 0.000000
1.000000 0.401825 0.000000
0.197174 0.593658 0.148865
0.297058 0.592773 0.157990
0.443726 0.607971 0.097595
0.645752 0.622040 0.000000
0.843292 0.612335 0.000000
1.000000 0.601440 0.000000
0.279327 0.786835 0.231079
0.363434 0.785522 0.237030
0.484406 0.788361 0.225769
0.641205 0.802551 0.130463
0.841003 0.812500 0.000000
1.000000 0.801147 0.000000
0.408478 0.976746 0.377380
0.479370 0.975800 0.381897
0.586456 0.974579 0.398987
0.698242 0.982941 0.348877
0.859558 0.993408 0.188019
1.000000 0.994141 0.000000
0.000000 0.000000 0.188324
0.205078 0.000000 0.188049
0.428589 0.000000 0.186951
0.643433 0.000000 0.180328
0.847717 0.000000 0.175171
1.000000 0.000000 0.167542
0.007507 0.203766 0.187317
0.218018 0.203827 0.182922
0.430603 0.200531 0.177124
0.645538 0.200928 0.173462
0.846558 0.198486 0.168610
1.000000 0.190491 0.161987
0.132019 0.400482 0.211792
0.251709 0.396851 0.219543
0.435669 0.416870 0.166779
0.646423 0.412598 0.144501
0.841827 0.404175 0.142914
1.000000 0.396332 0.140137
0.204132 0.593506 0.251923
0.301422 0.591217 0.257721
0.443176 0.601654 0.231110
0.639954 0.615662 0.140228
0.838776 0.607178 0.092163
1.000000 0.597046 0.071625
0.281006 0.785187 0.314453
0.364166 0.783081 0.318695
0.487762 0.784027 0.320099
0.640106 0.799683 0.249695
0.838104 0.809570 0.092468
1.000000 0.798218 0.050629
0.404785 0.975830 0.441254
0.478119 0.975891 0.447876
0.584747 0.974274 0.462891
0.699432 0.981171 0.426971
0.857971 0.992035 0.290497
1.000000 0.993225 0.081024
0.000000 0.000000 0.390991
0.211212 0.000000 0.390961
0.422333 0.000000 0.389557
0.642487 0.000000 0.391541
0.843475 0.000000 0.383728
1.000000 0.003235 0.382324
0.029907 0.203735 0.389740
0.219879 0.203430 0.389282
0.426910 0.202789 0.388489
0.642944 0.199341 0.388062
0.841888 0.202118 0.382294
1.000000 0.197601 0.379089
0.070160 0.415833 0.388245
0.233765 0.415771 0.387360
0.438110 0.414307 0.379639
0.644714 0.408295 0.373932
0.841736 0.403229 0.371185
1.000000 0.393860 0.366913
0.203979 0.605743 0.401398
0.310272 0.603058 0.406067
0.457306 0.599609 0.413239
0.642334 0.616211 0.365326
0.841156 0.604156 0.346375
1.000000 0.592834 0.342468
0.286499 0.791840 0.445404
0.371490 0.790497 0.449219
0.500916 0.786743 0.460388
0.643494 0.798584 0.425354
0.839111 0.810608 0.350708
1.000000 0.798035 0.322723
0.398041 0.980011 0.535919
0.469910 0.978821 0.538879
0.580444 0.977539 0.552643
0.707092 0.979919 0.550507
0.857605 0.992035 0.456787
1.000000 0.993835 0.352936
0.015808 0.000000 0.590271
0.215912 0.000000 0.590057
0.424011 0.000000 0.589111
0.634491 0.000000 0.588654
0.839020 0.000000 0.583496
1.000000 0.001770 0.577942
0.047943 0.203278 0.588928
0.223755 0.203064 0.588837
0.428528 0.202606 0.589111
0.636322 0.200653 0.587372
0.837921 0.201538 0.581757
1.000000 0.207489 0.578369
0.086945 0.413391 0.587402
0.239075 0.413269 0.586975
0.435852 0.412842 0.585876
0.639099 0.411224 0.583466
0.834747 0.411865 0.580109
1.000000 0.412323 0.582214
0.126038 0.617706 0.581055
0.258514 0.617065 0.580475
0.446594 0.614807 0.579987
0.639923 0.612244 0.572662
0.838562 0.600311 0.567169
1.000000 0.589874 0.564362
0.261353 0.801117 0.594910
0.354523 0.800323 0.597900
0.495667 0.797485 0.605438
0.650330 0.792938 0.612061
0.835785 0.809052 0.560699
1.000000 0.794189 0.542389
0.372253 0.985748 0.653961
0.439270 0.985443 0.652435
0.556030 0.983612 0.659912
0.706512 0.980011 0.679474
0.853943 0.990021 0.636871
1.000000 0.994049 0.565826
0.035034 0.000000 0.790253
0.220642 0.000000 0.790527
0.426056 0.000000 0.789703
0.633362 0.000000 0.787323
0.840820 0.000000 0.784821
1.000000 0.000000 0.770294
0.053436 0.203064 0.790131
0.225159 0.202179 0.789368
0.427521 0.200226 0.788116
0.634033 0.196594 0.786285
0.841888 0.191681 0.784851
1.000000 0.203339 0.770355
0.074158 0.409973 0.786774
0.232208 0.409607 0.786316
0.430389 0.408936 0.785858
0.635132 0.407135 0.784576
0.840820 0.404144 0.782654
1.000000 0.407867 0.771423
0.100494 0.615112 0.782990
0.242554 0.614716 0.782867
0.431396 0.613098 0.782562
0.630859 0.609894 0.781952
0.834717 0.607513 0.779358
1.000000 0.608063 0.776642
0.136200 0.815247 0.777283
0.260406 0.814545 0.777191
0.439026 0.812683 0.777069
0.632080 0.809753 0.777618
0.829315 0.806366 0.774689
1.000000 0.795776 0.773315
0.309692 0.994324 0.794037
0.394989 0.993805 0.796204
0.529633 0.992310 0.803131
0.695160 0.989349 0.818665
0.857056 0.985077 0.829773
1.000000 0.995178 0.789459
0.034332 0.000000 0.990662
0.219727 0.000000 0.990479
0.424805 0.000000 0.989960
0.632660 0.000000 0.989105
0.840851 0.000000 0.988007
1.000000 0.000000 0.986847
0.028931 0.198792 0.990204
0.218323 0.198059 0.990021
0.424103 0.195618 0.989563
0.632019 0.190826 0.988739
0.840210 0.183594 0.987732
1.000000 0.173615 0.986664
0.002350 0.406128 0.989105
0.211548 0.405762 0.988953
0.420380 0.404602 0.988556
0.629089 0.402588 0.987915
0.837372 0.399658 0.987030
1.000000 0.395935 0.986237
0.000000 0.606598 0.987671
0.168365 0.605927 0.987671
0.402405 0.605530 0.987579
0.620636 0.606995 0.986847
0.830109 0.604980 0.986237
1.000000 0.603180 0.985840
0.000000 0.815186 0.985504
0.187683 0.814606 0.985535
0.404999 0.812927 0.985626
0.613617 0.810211 0.985748
0.819824 0.808746 0.985718
1.000000 0.812500 0.985840
0.133484 1.000000 0.986053
0.261597 1.000000 0.985931
0.445221 1.000000 0.985596
0.649994 1.000000 0.985474
0.855865 1.000000 0.987244
1.000000 1.000000 1.000000
