opt for zink/09.portrait-baoman.cube
#Created by: Adobe Photoshop Export Color Lookup Plugin
#Copyright: (C) Copyright 2026 小米
TITLE "人像+相机模拟+黑白.psd"
#LUT size
LUT_3D_SIZE 36
#data domain
DOMAIN_MIN 0.0 0.0 0.0
DOMAIN_MAX 1.0 1.0 1.0
#LUT data points
0.000000 0.000000 0.000000
0.007172 0.000000 0.000000
0.038391 0.000000 0.000000
0.076843 0.000000 0.000000
0.113312 0.000000 0.000000
0.147064 0.000000 0.000000
0.179901 0.000000 0.000000
0.212433 0.000000 0.000000
0.244751 0.000000 0.000000
0.276611 0.000000 0.000000
0.308197 0.000000 0.000000
0.339478 0.000000 0.000000
0.370605 0.000000 0.000000
0.401611 0.000000 0.000000
0.432556 0.000000 0.000000
0.463348 0.000000 0.000000
0.494019 0.000000 0.000000
0.524536 0.000000 0.000000
0.554962 0.000000 0.000000
0.585327 0.000000 0.000000
0.615784 0.000000 0.000000
0.646301 0.000000 0.000000
0.677887 0.000000 0.000000
0.709778 0.000000 0.000000
0.740509 0.000000 0.000000
0.770142 0.000000 0.000000
0.799011 0.000000 0.000000
0.827301 0.000000 0.000000
0.855103 0.000000 0.000000
0.882629 0.000000 0.000000
0.910004 0.000000 0.000000
0.937317 0.000000 0.000000
0.964233 0.000000 0.000000
0.985657 0.000000 0.000000
0.992828 0.000000 0.000000
1.000000 0.000000 0.000000
0.000000 0.013184 0.000000
0.014252 0.015442 0.000000
0.047394 0.016327 0.000000
0.081390 0.015930 0.000000
0.114960 0.015106 0.000000
0.147644 0.014191 0.000000
0.180023 0.013245 0.000000
0.212250 0.012238 0.000000
0.244263 0.011200 0.000000
0.276001 0.011017 0.000000
0.307434 0.010895 0.000000
0.338562 0.011444 0.000000
0.369629 0.011841 0.000000
0.400574 0.011810 0.000000
0.431458 0.011658 0.000000
0.462219 0.011749 0.000000
0.492828 0.012024 0.000000
0.523254 0.012573 0.000000
0.553741 0.012726 0.000000
0.584137 0.012726 0.000000
0.614624 0.012024 0.000000
0.645142 0.011383 0.000000
0.676788 0.010864 0.000000
0.708557 0.010345 0.000000
0.738892 0.009674 0.000000
0.768250 0.008942 0.000000
0.796906 0.008575 0.000000
0.825073 0.007202 0.000000
0.852783 0.007172 0.000000
0.880341 0.007172 0.000000
0.907684 0.007172 0.000000
0.935028 0.007172 0.000000
0.962433 0.007172 0.000000
0.984833 0.007172 0.000000
0.992828 0.007172 0.000000
1.000000 0.007172 0.000000
0.000000 0.044037 0.000000
0.017975 0.044159 0.000000
0.048828 0.047333 0.000000
0.083160 0.047150 0.000000
0.115784 0.046509 0.000000
0.147949 0.045959 0.000000
0.180145 0.045349 0.000000
0.212250 0.044708 0.000000
0.243988 0.044281 0.000000
0.275574 0.044342 0.000000
0.306946 0.044525 0.000000
0.338013 0.044373 0.000000
0.368988 0.044525 0.000000
0.399902 0.044525 0.000000
0.430725 0.044342 0.000000
0.461456 0.044373 0.000000
0.492035 0.044708 0.000000
0.522461 0.045258 0.000000
0.552917 0.045258 0.000000
0.583282 0.044800 0.000000
0.613770 0.044495 0.000000
0.644775 0.043884 0.000000
0.676331 0.043243 0.000000
0.707855 0.042694 0.000000
0.737946 0.042023 0.000000
0.767090 0.041046 0.000000
0.795654 0.039978 0.000000
0.823669 0.038574 0.000000
0.851349 0.037262 0.000000
0.878876 0.035492 0.000000
0.906250 0.034210 0.000000
0.933624 0.032532 0.000000
0.961090 0.030792 0.000000
0.983978 0.028992 0.000000
0.992828 0.026794 0.000000
1.000000 0.024597 0.000000
0.000000 0.073914 0.000641
0.022949 0.073395 0.001343
0.049896 0.076874 0.000000
0.083893 0.080017 0.000000
0.116852 0.080078 0.000000
0.148865 0.079987 0.000000
0.180725 0.079987 0.000000
0.212616 0.079773 0.000000
0.244171 0.079773 0.000000
0.275574 0.079803 0.000000
0.306732 0.079803 0.000000
0.337738 0.079895 0.000000
0.368561 0.079773 0.000000
0.399353 0.079773 0.000000
0.430054 0.079712 0.000000
0.460663 0.079742 0.000000
0.491211 0.079926 0.000000
0.521606 0.080231 0.000000
0.551971 0.080017 0.000000
0.582275 0.079498 0.000000
0.612640 0.079224 0.000000
0.643982 0.078888 0.000000
0.675385 0.078491 0.000000
0.706451 0.077850 0.000000
0.736298 0.077179 0.000000
0.765350 0.076385 0.000000
0.793915 0.075562 0.000000
0.822052 0.074371 0.000000
0.849945 0.073059 0.000000
0.877625 0.071838 0.000000
0.905182 0.070099 0.000000
0.932678 0.068542 0.000000
0.960266 0.066467 0.000000
0.983368 0.064423 0.000000
0.992828 0.062103 0.000000
1.000000 0.059631 0.000000
0.004272 0.102051 0.001404
0.029419 0.101318 0.002991
0.054169 0.104462 0.000488
0.083771 0.108765 0.000000
0.117218 0.111603 0.000000
0.149719 0.112335 0.000000
0.181305 0.112610 0.000000
0.212830 0.112793 0.000000
0.244141 0.112885 0.000000
0.275299 0.112976 0.000000
0.306305 0.112976 0.000000
0.337128 0.112915 0.000000
0.367859 0.113068 0.000000
0.398590 0.112976 0.000000
0.429230 0.113037 0.000000
0.459778 0.113098 0.000000
0.490326 0.113159 0.000000
0.520721 0.113190 0.000000
0.551117 0.112885 0.000000
0.581451 0.112457 0.000000
0.612091 0.112183 0.000000
0.643494 0.112183 0.000000
0.674805 0.111877 0.000000
0.705444 0.111450 0.000000
0.734985 0.110748 0.000000
0.763977 0.110016 0.000000
0.792542 0.109283 0.000000
0.820770 0.108398 0.000000
0.848755 0.107330 0.000000
0.876587 0.106140 0.000000
0.904236 0.104980 0.000000
0.931824 0.103607 0.000000
0.959442 0.102234 0.000000
0.982819 0.100433 0.000000
0.992828 0.098633 0.000000
1.000000 0.096649 0.000000
0.012268 0.130463 0.004028
0.037720 0.129608 0.005951
0.060486 0.131836 0.003204
0.086670 0.135864 0.000000
0.117126 0.140320 0.000000
0.149719 0.142822 0.000000
0.181915 0.143890 0.000000
0.213226 0.144287 0.000000
0.244232 0.144440 0.000000
0.275177 0.144592 0.000000
0.306000 0.144562 0.000000
0.336761 0.144623 0.000000
0.367401 0.144653 0.000000
0.398010 0.144775 0.000000
0.428680 0.144714 0.000000
0.459229 0.144775 0.000000
0.489777 0.144745 0.000000
0.520203 0.144623 0.000000
0.550659 0.144348 0.000000
0.581055 0.143982 0.000000
0.612305 0.144073 0.000000
0.643768 0.143982 0.000000
0.674957 0.143890 0.000000
0.705231 0.143463 0.000000
0.737793 0.143738 0.000000
0.768829 0.143707 0.000000
0.797394 0.142822 0.000000
0.825470 0.142029 0.000000
0.853302 0.141083 0.000000
0.880920 0.139984 0.000000
0.908356 0.138763 0.000000
0.935699 0.137512 0.000000
0.961334 0.136261 0.000000
0.983215 0.134918 0.000000
0.992828 0.133331 0.000000
1.000000 0.131683 0.000000
0.022095 0.160278 0.008698
0.046753 0.159454 0.010468
0.068237 0.160522 0.008789
0.091980 0.163727 0.003540
0.119446 0.167999 0.000000
0.150574 0.172455 0.000000
0.182526 0.174469 0.000000
0.214600 0.175812 0.000000
0.245575 0.176147 0.000000
0.276337 0.176239 0.000000
0.307068 0.176208 0.000000
0.337769 0.176239 0.000000
0.368439 0.176239 0.000000
0.399048 0.176208 0.000000
0.429626 0.176208 0.000000
0.460205 0.176117 0.000000
0.490662 0.176025 0.000000
0.521088 0.175842 0.000000
0.551514 0.175568 0.000000
0.582550 0.175476 0.000000
0.614197 0.175812 0.000000
0.645996 0.175964 0.000000
0.677124 0.175842 0.000000
0.707397 0.175476 0.000000
0.736847 0.174866 0.000000
0.774445 0.176666 0.000000
0.803131 0.175934 0.000000
0.831299 0.175079 0.000000
0.859100 0.174164 0.000000
0.886566 0.173065 0.000000
0.913757 0.171814 0.000000
0.940857 0.170563 0.000000
0.967041 0.169312 0.000000
0.985657 0.167999 0.000000
0.992828 0.166687 0.000000
1.000000 0.165253 0.000000
0.033386 0.191132 0.013580
0.056366 0.190460 0.015320
0.076996 0.190491 0.015686
0.099091 0.192902 0.010223
0.124268 0.196564 0.003540
0.152893 0.200867 0.000000
0.184540 0.205170 0.000000
0.215851 0.206696 0.000000
0.247803 0.207916 0.000000
0.278625 0.208160 0.000000
0.309265 0.208099 0.000000
0.339966 0.208069 0.000000
0.370667 0.207977 0.000000
0.401245 0.207855 0.000000
0.431793 0.207703 0.000000
0.462311 0.207520 0.000000
0.492737 0.207367 0.000000
0.523163 0.207184 0.000000
0.553772 0.207001 0.000000
0.585663 0.207336 0.000000
0.617554 0.207672 0.000000
0.649231 0.207855 0.000000
0.680359 0.207825 0.000000
0.710724 0.207581 0.000000
0.740601 0.207062 0.000000
0.770233 0.206573 0.000000
0.799469 0.205963 0.000000
0.828156 0.205170 0.000000
0.856262 0.204315 0.000000
0.883942 0.203247 0.000000
0.911285 0.202087 0.000000
0.938477 0.200867 0.000000
0.965240 0.199677 0.000000
0.985657 0.198425 0.000000
0.992828 0.197052 0.000000
1.000000 0.195618 0.000000
0.045502 0.220062 0.019806
0.066162 0.219513 0.021545
0.085693 0.218933 0.023804
0.106171 0.220612 0.019348
0.129120 0.223694 0.010925
0.155273 0.227448 0.003326
0.184662 0.231628 0.000000
0.216522 0.235809 0.000000
0.247284 0.236877 0.000000
0.278809 0.237976 0.000000
0.309509 0.238037 0.000000
0.340027 0.238068 0.000000
0.370575 0.237976 0.000000
0.401062 0.237793 0.000000
0.431458 0.237579 0.000000
0.461945 0.237457 0.000000
0.492340 0.237335 0.000000
0.523041 0.237274 0.000000
0.554657 0.237701 0.000000
0.586029 0.237885 0.000000
0.617310 0.238007 0.000000
0.648468 0.238037 0.000000
0.679077 0.237885 0.000000
0.709045 0.237518 0.000000
0.738647 0.237000 0.000000
0.768066 0.236481 0.000000
0.797180 0.235840 0.000000
0.825836 0.235107 0.000000
0.853973 0.234192 0.000000
0.881714 0.233063 0.000000
0.909119 0.231964 0.000000
0.936401 0.230774 0.000000
0.963593 0.229462 0.000000
0.985657 0.228241 0.000000
0.992828 0.226959 0.000000
1.000000 0.225616 0.000000
0.057678 0.249115 0.028137
0.076508 0.248596 0.029877
0.094818 0.248077 0.032013
0.114136 0.248810 0.029877
0.135468 0.251129 0.022278
0.159393 0.254364 0.011597
0.186310 0.258087 0.002930
0.216187 0.262268 0.000000
0.248077 0.266296 0.000000
0.278412 0.266846 0.000000
0.309875 0.267883 0.000000
0.340424 0.267975 0.000000
0.370880 0.267914 0.000000
0.401276 0.267761 0.000000
0.431641 0.267609 0.000000
0.462311 0.267639 0.000000
0.493591 0.267914 0.000000
0.524658 0.268005 0.000000
0.555511 0.268127 0.000000
0.586426 0.268219 0.000000
0.617401 0.268219 0.000000
0.648132 0.268188 0.000000
0.678375 0.267914 0.000000
0.708099 0.267456 0.000000
0.737549 0.266876 0.000000
0.766876 0.266296 0.000000
0.795898 0.265778 0.000000
0.824493 0.264923 0.000000
0.852600 0.263916 0.000000
0.880371 0.262848 0.000000
0.907776 0.261658 0.000000
0.935089 0.260468 0.000000
0.962311 0.259247 0.000000
0.984619 0.257996 0.000000
0.992828 0.256653 0.000000
1.000000 0.255371 0.000000
0.069550 0.277893 0.037781
0.086914 0.277435 0.039490
0.104095 0.276917 0.041351
0.122742 0.276764 0.042267
0.142578 0.278473 0.036469
0.164734 0.281311 0.025940
0.189606 0.284576 0.012848
0.217194 0.288300 0.002289
0.247406 0.292389 0.000000
0.279327 0.296234 0.000000
0.309143 0.296417 0.000000
0.340240 0.297302 0.000000
0.371216 0.297699 0.000000
0.402069 0.298004 0.000000
0.432861 0.298218 0.000000
0.463684 0.298340 0.000000
0.494629 0.298462 0.000000
0.525421 0.298462 0.000000
0.556213 0.298431 0.000000
0.586975 0.298370 0.000000
0.617798 0.298431 0.000000
0.648254 0.298279 0.000000
0.678101 0.297913 0.000000
0.707458 0.297302 0.000000
0.736481 0.296539 0.000000
0.765381 0.295776 0.000000
0.794006 0.294952 0.000000
0.822296 0.294037 0.000000
0.850250 0.292969 0.000000
0.877960 0.291840 0.000000
0.905457 0.290680 0.000000
0.932861 0.289490 0.000000
0.960236 0.288300 0.000000
0.983185 0.287109 0.000000
0.992828 0.285889 0.000000
1.000000 0.284576 0.000000
0.081573 0.306030 0.047699
0.097534 0.305634 0.049194
0.113586 0.305237 0.050781
0.131622 0.304657 0.052948
0.150543 0.305664 0.049896
0.170959 0.308136 0.041351
0.194092 0.311157 0.029083
0.219818 0.314575 0.013428
0.247925 0.318420 0.001312
0.278595 0.322662 0.000000
0.310913 0.326721 0.000000
0.340973 0.327087 0.000000
0.372162 0.328033 0.000000
0.403290 0.328583 0.000000
0.434113 0.328827 0.000000
0.464752 0.328857 0.000000
0.495453 0.328827 0.000000
0.526031 0.328735 0.000000
0.556671 0.328613 0.000000
0.587189 0.328552 0.000000
0.617828 0.328339 0.000000
0.647949 0.328033 0.000000
0.677490 0.327454 0.000000
0.706604 0.326752 0.000000
0.735474 0.325928 0.000000
0.764191 0.325104 0.000000
0.792633 0.324280 0.000000
0.820831 0.323242 0.000000
0.848755 0.322144 0.000000
0.876434 0.321014 0.000000
0.903992 0.319885 0.000000
0.931458 0.318695 0.000000
0.958893 0.317444 0.000000
0.982208 0.316223 0.000000
0.992828 0.315002 0.000000
1.000000 0.313751 0.000000
0.093262 0.334320 0.057892
0.108215 0.333984 0.059143
0.123657 0.333679 0.060608
0.140778 0.333344 0.062531
0.159363 0.333527 0.062775
0.178772 0.335632 0.056580
0.200287 0.338593 0.046661
0.224457 0.341949 0.032593
0.250854 0.345642 0.014709
0.279816 0.349792 0.000214
0.310883 0.354248 0.000000
0.343109 0.357941 0.000000
0.373138 0.358124 0.000000
0.407990 0.362244 0.000000
0.440125 0.363495 0.000000
0.471039 0.363556 0.000000
0.501709 0.363373 0.000000
0.532318 0.363129 0.000000
0.562958 0.362854 0.000000
0.593536 0.362549 0.000000
0.623779 0.362061 0.000000
0.653534 0.361206 0.000000
0.682709 0.360321 0.000000
0.711456 0.359314 0.000000
0.740021 0.358215 0.000000
0.768433 0.357117 0.000000
0.796570 0.356018 0.000000
0.824402 0.354736 0.000000
0.851959 0.353455 0.000000
0.879303 0.352020 0.000000
0.906525 0.350647 0.000000
0.933716 0.349304 0.000000
0.960876 0.347931 0.000000
0.983276 0.346558 0.000000
0.992828 0.345184 0.000000
1.000000 0.343842 0.000000
0.106323 0.365204 0.069427
0.120514 0.364960 0.070557
0.135315 0.364594 0.071808
0.151703 0.364197 0.073486
0.169983 0.363708 0.075592
0.188599 0.365173 0.071747
0.208710 0.367828 0.063568
0.231323 0.370941 0.052368
0.256165 0.374451 0.036682
0.283417 0.378357 0.015656
0.312927 0.382629 0.000031
0.344482 0.387085 0.000000
0.376770 0.390594 0.000000
0.407104 0.390930 0.000000
0.441833 0.394806 0.000000
0.473511 0.395416 0.000000
0.504578 0.395477 0.000000
0.535217 0.395233 0.000000
0.565796 0.394867 0.000000
0.596252 0.394440 0.000000
0.626251 0.393707 0.000000
0.655579 0.392670 0.000000
0.684479 0.391357 0.000000
0.713074 0.390076 0.000000
0.741394 0.388794 0.000000
0.769592 0.387482 0.000000
0.797516 0.386200 0.000000
0.825256 0.384766 0.000000
0.852661 0.383392 0.000000
0.879974 0.381958 0.000000
0.907135 0.380463 0.000000
0.934204 0.378998 0.000000
0.961243 0.377502 0.000000
0.983948 0.376099 0.000000
0.992828 0.374634 0.000000
1.000000 0.373230 0.000000
0.119385 0.396179 0.080994
0.132996 0.395935 0.082062
0.147186 0.395538 0.083099
0.162903 0.395020 0.084625
0.180298 0.394379 0.086517
0.198792 0.394470 0.086273
0.217651 0.396759 0.079071
0.238678 0.399475 0.069702
0.261963 0.402618 0.057251
0.287506 0.406189 0.039764
0.315430 0.410217 0.016083
0.345520 0.414612 0.000000
0.377380 0.419128 0.000000
0.409668 0.422455 0.000000
0.440186 0.422882 0.000000
0.471436 0.423523 0.000000
0.503204 0.424286 0.000000
0.534119 0.424347 0.000000
0.564545 0.424011 0.000000
0.594788 0.423523 0.000000
0.624481 0.422638 0.000000
0.653564 0.421448 0.000000
0.682251 0.420105 0.000000
0.710724 0.418701 0.000000
0.739105 0.417328 0.000000
0.767242 0.415894 0.000000
0.795227 0.414551 0.000000
0.822998 0.413147 0.000000
0.850494 0.411774 0.000000
0.877869 0.410339 0.000000
0.905121 0.408875 0.000000
0.932343 0.407440 0.000000
0.959503 0.406006 0.000000
0.982666 0.404633 0.000000
0.992828 0.403229 0.000000
1.000000 0.401825 0.000000
0.131195 0.424957 0.091370
0.144257 0.424683 0.092316
0.157745 0.424255 0.093231
0.172943 0.423676 0.094574
0.189667 0.422943 0.096313
0.207611 0.422516 0.097168
0.225830 0.423798 0.092957
0.245514 0.426208 0.084869
0.267303 0.429016 0.074402
0.291351 0.432312 0.061005
0.317566 0.436066 0.041321
0.345947 0.440186 0.016357
0.376312 0.444641 0.000000
0.408264 0.449066 0.000000
0.440308 0.452026 0.000000
0.470642 0.452301 0.000000
0.501434 0.452637 0.000000
0.533020 0.453278 0.000000
0.563690 0.453217 0.000000
0.593628 0.452576 0.000000
0.623047 0.451569 0.000000
0.651917 0.450256 0.000000
0.680481 0.448822 0.000000
0.708923 0.447418 0.000000
0.737244 0.446045 0.000000
0.765472 0.444550 0.000000
0.793518 0.443085 0.000000
0.821289 0.441681 0.000000
0.848846 0.440247 0.000000
0.876343 0.438812 0.000000
0.903687 0.437408 0.000000
0.931000 0.435974 0.000000
0.958252 0.434601 0.000000
0.981628 0.433258 0.000000
0.992828 0.431854 0.000000
1.000000 0.430511 0.000000
0.142822 0.453247 0.101471
0.155304 0.453003 0.102234
0.168121 0.452637 0.103149
0.182678 0.452087 0.104340
0.198944 0.451385 0.105865
0.216492 0.450653 0.107391
0.234680 0.450928 0.106140
0.253143 0.453094 0.098969
0.273651 0.455719 0.090210
0.296356 0.458771 0.078949
0.321075 0.462280 0.063965
0.347870 0.466156 0.042572
0.376617 0.470398 0.016571
0.407257 0.474854 0.000000
0.439209 0.479065 0.000000
0.470886 0.481598 0.000000
0.500916 0.481659 0.000000
0.531342 0.481628 0.000000
0.562775 0.482208 0.000000
0.592804 0.481720 0.000000
0.621918 0.480530 0.000000
0.650604 0.479126 0.000000
0.679077 0.477631 0.000000
0.707489 0.476196 0.000000
0.735779 0.474762 0.000000
0.763977 0.473267 0.000000
0.791962 0.471832 0.000000
0.819763 0.470306 0.000000
0.847382 0.468750 0.000000
0.874969 0.467316 0.000000
0.902435 0.465912 0.000000
0.929871 0.464569 0.000000
0.957306 0.463196 0.000000
0.980988 0.461945 0.000000
0.992828 0.460663 0.000000
1.000000 0.459351 0.000000
0.153625 0.481171 0.111053
0.165894 0.480988 0.111816
0.178497 0.480682 0.112701
0.192444 0.480286 0.113770
0.208160 0.479706 0.115204
0.225433 0.479004 0.117004
0.243439 0.478882 0.117157
0.261566 0.480499 0.112518
0.281158 0.483032 0.104919
0.302521 0.485992 0.095337
0.326080 0.489258 0.083130
0.351410 0.492859 0.067108
0.378601 0.496765 0.043854
0.407562 0.500793 0.016663
0.438202 0.505005 0.000000
0.469757 0.508789 0.000000
0.500885 0.510559 0.000000
0.530548 0.510254 0.000000
0.560455 0.509888 0.000000
0.591248 0.510010 0.000000
0.620575 0.509033 0.000000
0.649170 0.507629 0.000000
0.677704 0.506226 0.000000
0.706116 0.504822 0.000000
0.734467 0.503418 0.000000
0.762695 0.501953 0.000000
0.790741 0.500519 0.000000
0.818634 0.499054 0.000000
0.846313 0.497559 0.000000
0.874054 0.496063 0.000000
0.901642 0.494598 0.000000
0.929169 0.493195 0.000000
0.956573 0.491852 0.000000
0.980377 0.490540 0.000000
0.992828 0.489136 0.000000
1.000000 0.487823 0.000000
0.164337 0.508698 0.120087
0.176086 0.508453 0.120941
0.188232 0.508179 0.121704
0.201813 0.507812 0.122711
0.217010 0.507324 0.124023
0.233734 0.506744 0.125702
0.251526 0.506348 0.126892
0.269836 0.507050 0.125061
0.288391 0.509399 0.118073
0.308777 0.512115 0.109863
0.330963 0.515198 0.099518
0.354980 0.518585 0.086334
0.380890 0.522217 0.069031
0.408356 0.526062 0.043579
0.437378 0.529938 0.015869
0.467957 0.533905 0.000000
0.499329 0.537262 0.000000
0.529816 0.538483 0.000000
0.559174 0.538025 0.000000
0.588837 0.537567 0.000000
0.619019 0.537323 0.000000
0.648041 0.536224 0.000000
0.676544 0.534821 0.000000
0.704956 0.533386 0.000000
0.733276 0.531982 0.000000
0.761505 0.530579 0.000000
0.789581 0.529144 0.000000
0.817474 0.527649 0.000000
0.845306 0.526215 0.000000
0.873077 0.524780 0.000000
0.900787 0.523315 0.000000
0.928406 0.521851 0.000000
0.955933 0.520447 0.000000
0.979889 0.519104 0.000000
0.992828 0.517761 0.000000
1.000000 0.516418 0.000000
0.175018 0.536774 0.129303
0.186554 0.536621 0.130035
0.200775 0.540619 0.133026
0.214294 0.540588 0.134064
0.229126 0.540100 0.135315
0.245483 0.539520 0.136902
0.263092 0.538818 0.138794
0.281311 0.538788 0.138855
0.299286 0.540649 0.133240
0.318726 0.543091 0.125732
0.339905 0.545837 0.116730
0.362823 0.548889 0.105591
0.387360 0.552094 0.091705
0.413483 0.555450 0.073364
0.441071 0.558899 0.046539
0.470154 0.562378 0.017303
0.500580 0.565857 0.000000
0.531555 0.568604 0.000000
0.561493 0.569153 0.000000
0.590485 0.568390 0.000000
0.619904 0.567627 0.000000
0.649445 0.566895 0.000000
0.678009 0.565430 0.000000
0.706177 0.563782 0.000000
0.734283 0.562195 0.000000
0.762329 0.560547 0.000000
0.790192 0.558929 0.000000
0.817871 0.557251 0.000000
0.845459 0.555573 0.000000
0.873016 0.553986 0.000000
0.900543 0.552399 0.000000
0.928070 0.550842 0.000000
0.955566 0.549316 0.000000
0.979614 0.547821 0.000000
0.992828 0.546387 0.000000
1.000000 0.544983 0.000000
0.186554 0.566071 0.139374
0.197998 0.566193 0.140259
0.209747 0.566650 0.141235
0.223572 0.567871 0.142914
0.238129 0.567657 0.144135
0.254028 0.567230 0.145721
0.271271 0.566620 0.147491
0.289429 0.566132 0.148773
0.307404 0.567108 0.145813
0.325867 0.569336 0.139099
0.346039 0.571808 0.130920
0.367706 0.574493 0.121368
0.391083 0.577454 0.109528
0.415924 0.580505 0.094757
0.442139 0.583679 0.075470
0.469818 0.586853 0.047028
0.498810 0.590088 0.016235
0.529083 0.593292 0.000000
0.559814 0.595825 0.000000
0.589355 0.596130 0.000000
0.618439 0.595490 0.000000
0.647705 0.594818 0.000000
0.676880 0.593903 0.000000
0.705322 0.592346 0.000000
0.733459 0.590759 0.000000
0.761444 0.589142 0.000000
0.789276 0.587524 0.000000
0.816925 0.585785 0.000000
0.844513 0.584137 0.000000
0.872070 0.582489 0.000000
0.899536 0.580872 0.000000
0.927002 0.579315 0.000000
0.954498 0.577759 0.000000
0.978882 0.576233 0.000000
0.992828 0.574768 0.000000
1.000000 0.573242 0.000000
0.197174 0.593658 0.148865
0.208405 0.593872 0.149689
0.219788 0.594116 0.150574
0.232574 0.594208 0.151611
0.246765 0.594177 0.152832
0.262299 0.593903 0.154327
0.279083 0.593445 0.156067
0.297058 0.592773 0.157990
0.315247 0.592834 0.157898
0.332947 0.594849 0.151855
0.352234 0.597046 0.144501
0.372925 0.599518 0.135864
0.395020 0.602203 0.125702
0.418671 0.605072 0.113159
0.443726 0.607971 0.097595
0.470123 0.610992 0.077393
0.497864 0.614014 0.047028
0.526825 0.617096 0.015747
0.556915 0.620148 0.000000
0.587463 0.622498 0.000000
0.616760 0.622589 0.000000
0.645752 0.622040 0.000000
0.674988 0.621521 0.000000
0.703827 0.620392 0.000000
0.732147 0.618866 0.000000
0.760193 0.617279 0.000000
0.788025 0.615692 0.000000
0.815704 0.613983 0.000000
0.843292 0.612335 0.000000
0.870850 0.610687 0.000000
0.898346 0.609070 0.000000
0.925812 0.607483 0.000000
0.953308 0.605957 0.000000
0.977997 0.604431 0.000000
0.992828 0.602966 0.000000
1.000000 0.601440 0.000000
0.207458 0.620514 0.158325
0.218445 0.620758 0.159149
0.229706 0.621002 0.159973
0.242218 0.621124 0.161011
0.255951 0.621094 0.162201
0.271057 0.620880 0.163544
0.287445 0.620483 0.165192
0.304901 0.619934 0.167084
0.323181 0.619354 0.168823
0.340790 0.620667 0.164825
0.359222 0.622711 0.158142
0.378998 0.624969 0.150330
0.400085 0.627411 0.141144
0.422577 0.629974 0.130310
0.446472 0.632721 0.117096
0.471680 0.635529 0.100861
0.498260 0.638458 0.079620
0.526031 0.641357 0.047577
0.554962 0.644379 0.015411
0.585083 0.647369 0.000000
0.615631 0.649719 0.000000
0.644836 0.649780 0.000000
0.673920 0.649445 0.000000
0.703278 0.649078 0.000000
0.731873 0.647858 0.000000
0.760071 0.646332 0.000000
0.788025 0.644745 0.000000
0.815857 0.643188 0.000000
0.843567 0.641571 0.000000
0.871185 0.639984 0.000000
0.898712 0.638367 0.000000
0.926208 0.636810 0.000000
0.953705 0.635254 0.000000
0.977966 0.633728 0.000000
0.992828 0.632202 0.000000
1.000000 0.630676 0.000000
0.218781 0.648529 0.169067
0.229431 0.648712 0.169769
0.240479 0.648804 0.170502
0.252625 0.648865 0.171417
0.266022 0.648743 0.172516
0.280640 0.648499 0.173767
0.296509 0.648102 0.175262
0.313538 0.647583 0.177032
0.331482 0.646973 0.179016
0.349548 0.647217 0.178375
0.367279 0.649048 0.172302
0.386139 0.651123 0.165161
0.406372 0.653351 0.156830
0.427795 0.655762 0.147095
0.450592 0.658264 0.135712
0.474701 0.660889 0.121918
0.500092 0.663605 0.104889
0.526733 0.666382 0.082611
0.554596 0.669281 0.048676
0.583618 0.672211 0.015930
0.613739 0.675171 0.000000
0.644196 0.677399 0.000000
0.673279 0.677368 0.000000
0.702362 0.677124 0.000000
0.731812 0.676910 0.000000
0.760223 0.675568 0.000000
0.788208 0.673950 0.000000
0.816101 0.672302 0.000000
0.843903 0.670776 0.000000
0.871613 0.669250 0.000000
0.899200 0.667664 0.000000
0.926758 0.666138 0.000000
0.954285 0.664612 0.000000
0.978790 0.663055 0.000000
0.992828 0.661499 0.000000
1.000000 0.659912 0.000000
0.230865 0.677246 0.180756
0.241180 0.677246 0.181335
0.251953 0.677216 0.181946
0.263702 0.677124 0.182739
0.276672 0.676910 0.183655
0.290894 0.676544 0.184814
0.306274 0.676086 0.186157
0.322754 0.675568 0.187775
0.340332 0.674988 0.189697
0.358826 0.674469 0.191589
0.376190 0.675903 0.187012
0.394318 0.677826 0.180420
0.413666 0.679901 0.172821
0.434235 0.682159 0.164001
0.455994 0.684479 0.153778
0.479065 0.686920 0.141876
