opt for zink/09.portrait-baoman.cube
#Created by: Adobe Photoshop Export Color Lookup Plugin
#Copyright: (C) Copyright 2026 小米
TITLE "人像+相机模拟+黑白.psd"
#LUT size
LUT_3D_SIZE 8
#data domain
DOMAIN_MIN 0.0 0.0 0.0
DOMAIN_MAX 1.0 1.0 1.0
#LUT data points
0.000000 0.000000 0.000000
0.147064 0.000000 0.000000
0.308197 0.000000 0.000000
0.463348 0.000000 0.000000
0.615784 0.000000 0.000000
0.770142 0.000000 0.000000
0.910004 0.000000 0.000000
1.000000 0.000000 0.000000
0.012268 0.130463 0.004028
0.149719 0.142822 0.000000
0.306000 0.144562 0.000000
0.459229 0.144775 0.000000
0.612305 0.144073 0.000000
0.768829 0.143707 0.000000
0.908356 0.138763 0.000000
1.000000 0.131683 0.000000
0.069550 0.277893 0.037781
0.164734 0.281311 0.025940
0.309143 0.296417 0.000000
0.463684 0.298340 0.000000
0.617798 0.298431 0.000000
0.765381 0.295776 0.000000
0.905457 0.290680 0.000000
1.000000 0.284576 0.000000
0.131195 0.424957 0.091370
0.207611 0.422516 0.097168
0.317566 0.436066 0.041321
0.470642 0.452301 0.000000
0.623047 0.451569 0.000000
0.765472 0.444550 0.000000
0.903687 0.437408 0.000000
1.000000 0.430511 0.000000
0.186554 0.566071 0.139374
0.254028 0.567230 0.145721
0.346039 0.571808 0.130920
0.469818 0.586853 0.047028
0.618439 0.595490 0.000000
0.761444 0.589142 0.000000
0.899536 0.580872 0.000000
1.000000 0.573242 0.000000
0.242126 0.704468 0.192047
0.300934 0.703796 0.195953
0.385040 0.702240 0.201233
0.483612 0.712311 0.160248
0.611694 0.725006 0.052460
0.758392 0.731750 0.000000
0.896790 0.723389 0.000000
1.000000 0.716003 0.000000
0.309387 0.842743 0.264343
0.362335 0.842194 0.267548
0.438934 0.841278 0.276642
0.525604 0.845703 0.263794
0.627228 0.855042 0.209351
0.755219 0.865662 0.081543
0.899658 0.869324 0.000000
1.000000 0.859497 0.000000
0.408478 0.976746 0.377380
0.455750 0.976166 0.379730
0.520905 0.975342 0.387512
0.602905 0.974731 0.399689
0.679962 0.981384 0.360474
0.782928 0.989319 0.281921
0.916321 0.995422 0.048126
1.000000 0.994141 0.000000
0.000000 0.000000 0.129669
0.142975 0.000000 0.130188
0.304871 0.000000 0.130707
0.459442 0.000000 0.123688
0.611450 0.000000 0.118896
0.762695 0.000000 0.112854
0.902313 0.000000 0.105347
1.000000 0.000000 0.096283
0.000122 0.140625 0.128693
0.151794 0.141327 0.125946
0.305511 0.140503 0.121796
0.457825 0.139771 0.117371
0.611389 0.139313 0.112671
0.762573 0.138885 0.107758
0.902527 0.135071 0.100830
1.000000 0.127014 0.091064
0.083313 0.283661 0.144775
0.176575 0.280823 0.150452
0.309784 0.295258 0.112762
0.463776 0.294495 0.096069
0.615204 0.293549 0.091461
0.760712 0.291260 0.088348
0.900146 0.286835 0.082825
1.000000 0.281067 0.074005
0.139099 0.425598 0.174774
0.214203 0.422974 0.179321
0.318665 0.432617 0.157440
0.466492 0.447510 0.090759
0.617310 0.445374 0.054138
0.759430 0.438812 0.050354
0.898041 0.432739 0.050537
1.000000 0.426666 0.050079
0.191406 0.565948 0.209076
0.257385 0.565826 0.213562
0.348663 0.567383 0.209351
0.467499 0.582245 0.159210
0.614655 0.591370 0.057190
0.758057 0.585510 0.035858
0.896912 0.577911 0.035858
1.000000 0.570587 0.035858
0.244690 0.703552 0.251984
0.302673 0.702332 0.254822
0.387329 0.699585 0.262756
0.483887 0.709045 0.231140
0.609619 0.721924 0.160461
0.756134 0.729340 0.037476
0.896301 0.722443 0.035858
1.000000 0.714600 0.035858
0.311188 0.842743 0.317505
0.364105 0.842224 0.320496
0.440338 0.841125 0.328827
0.528259 0.844269 0.322845
0.627594 0.853699 0.273590
0.753357 0.863556 0.174652
0.897644 0.867371 0.035858
1.000000 0.857666 0.035858
0.406067 0.975922 0.420319
0.454559 0.975861 0.423859
0.522186 0.976196 0.434082
0.604919 0.975189 0.447418
0.682709 0.981476 0.414459
0.784088 0.989410 0.342255
0.916168 0.995544 0.152374
1.000000 0.994232 0.035858
0.000000 0.000000 0.275635
0.146942 0.000000 0.275543
0.298950 0.000000 0.274628
0.457825 0.000000 0.276215
0.611298 0.000000 0.271912
0.760162 0.000000 0.266846
0.899231 0.000000 0.265106
1.000000 0.000000 0.260223
0.007233 0.141479 0.274170
0.154510 0.141296 0.273926
0.303528 0.140442 0.273315
0.457672 0.137054 0.272278
0.611206 0.133698 0.268707
0.757843 0.137817 0.265869
0.897766 0.136169 0.262115
1.000000 0.125275 0.257355
0.033142 0.294037 0.272491
0.164795 0.294067 0.272003
0.312531 0.294037 0.266907
0.464386 0.290955 0.263275
0.614380 0.290192 0.260956
0.757935 0.288544 0.258270
0.897522 0.284668 0.255219
1.000000 0.278473 0.251587
0.134796 0.434601 0.283081
0.219910 0.432343 0.287384
0.327881 0.430603 0.291504
0.465698 0.444824 0.257080
0.616913 0.440887 0.243073
0.759186 0.435089 0.240601
0.898163 0.430298 0.241486
1.000000 0.424469 0.240234
0.199524 0.570587 0.308258
0.264648 0.569305 0.310974
0.358978 0.565582 0.317810
0.468323 0.578400 0.290863
0.612549 0.588165 0.245941
0.756073 0.581635 0.224915
0.896088 0.574341 0.219543
1.000000 0.567169 0.217194
0.251251 0.706421 0.340454
0.308868 0.705048 0.342560
0.393555 0.702606 0.348938
0.490112 0.707336 0.338074
0.610168 0.720673 0.292267
0.755585 0.728363 0.234161
0.895721 0.720490 0.203064
1.000000 0.712219 0.196869
0.313995 0.843567 0.392700
0.367035 0.843079 0.395386
0.443573 0.842163 0.402954
0.536896 0.842010 0.411682
0.630310 0.851898 0.371643
0.753052 0.862823 0.301880
0.897003 0.866882 0.219269
1.000000 0.857178 0.174591
0.407288 0.978455 0.482452
0.455109 0.978027 0.484833
0.520813 0.977203 0.491699
0.604248 0.976013 0.504425
0.686920 0.980255 0.488159
0.785065 0.988556 0.427551
0.914856 0.995117 0.293030
1.000000 0.994110 0.228760
0.000366 0.000000 0.419861
0.151917 0.000000 0.419952
0.302155 0.000000 0.419189
0.452789 0.000000 0.418091
0.612000 0.000000 0.421692
0.759308 0.000000 0.416534
0.899170 0.000000 0.411682
1.000000 0.005798 0.411102
0.018890 0.141785 0.418304
0.158264 0.141541 0.418182
0.305176 0.140625 0.417389
0.454010 0.139557 0.416382
0.610840 0.134247 0.418701
0.756897 0.134674 0.413818
0.896759 0.140533 0.410309
1.000000 0.149200 0.410675
0.050415 0.293396 0.416443
0.170288 0.293854 0.416595
0.313080 0.294708 0.416870
0.461029 0.294342 0.416901
0.612732 0.292297 0.415161
0.755829 0.292603 0.411255
0.895264 0.292480 0.409485
1.000000 0.282501 0.405121
0.078400 0.444916 0.415833
0.183777 0.445007 0.415558
0.324036 0.443665 0.414734
0.468414 0.443359 0.406952
0.615997 0.437714 0.401825
0.756958 0.434052 0.399933
0.896606 0.428894 0.397675
1.000000 0.421600 0.394623
0.178680 0.581055 0.419403
0.255005 0.580444 0.422028
0.364929 0.576843 0.428528
0.476715 0.577301 0.429871
0.614380 0.588165 0.396484
0.757629 0.579071 0.382507
0.897919 0.570465 0.377533
1.000000 0.563599 0.378326
0.252686 0.712311 0.445557
0.310944 0.711243 0.446808
0.397766 0.708588 0.451447
0.502258 0.704773 0.460663
0.610748 0.718262 0.429352
0.754517 0.727020 0.386902
0.896454 0.718292 0.366394
1.000000 0.708862 0.361084
0.309174 0.847076 0.482697
0.363098 0.846466 0.484711
0.441315 0.845184 0.490479
0.538666 0.843353 0.501068
0.634796 0.848480 0.487457
0.751495 0.860931 0.437256
0.895752 0.866302 0.377869
1.000000 0.856445 0.350769
0.393585 0.980347 0.549591
0.441803 0.979675 0.551117
0.509796 0.978729 0.557129
0.596375 0.977600 0.568787
0.692017 0.977539 0.577271
0.785004 0.986847 0.529663
0.911865 0.994232 0.434357
1.000000 0.993683 0.382538
0.013123 0.000000 0.562134
0.156616 0.000000 0.562103
0.304199 0.000000 0.561249
0.453735 0.000000 0.560547
0.605103 0.000000 0.560913
0.755859 0.000000 0.559906
0.896179 0.000000 0.553802
1.000000 0.003204 0.550690
0.033203 0.142212 0.560822
0.162903 0.141998 0.560852
0.307251 0.141083 0.560089
0.455963 0.140167 0.560120
0.605103 0.138458 0.559113
0.754028 0.135681 0.557373
0.894318 0.140686 0.552307
1.000000 0.148285 0.550232
0.066376 0.294525 0.560333
0.176666 0.294464 0.560242
0.315277 0.294250 0.560120
0.460938 0.293793 0.559448
0.608429 0.292664 0.558044
0.753967 0.292389 0.555145
0.892426 0.293121 0.551300
1.000000 0.295532 0.551422
0.090851 0.442719 0.557709
0.189911 0.442657 0.557434
0.322662 0.442505 0.556732
0.466888 0.443390 0.557068
0.611267 0.442078 0.554932
0.751373 0.441864 0.552826
0.890106 0.441711 0.553467
1.000000 0.440186 0.555542
0.119080 0.589691 0.553894
0.207733 0.589600 0.553619
0.333099 0.588806 0.552734
0.476776 0.585663 0.553436
0.612732 0.584869 0.544739
0.755463 0.575684 0.539703
0.895111 0.569122 0.537781
1.000000 0.561462 0.535583
0.222961 0.720825 0.558014
0.289520 0.720154 0.559357
0.388794 0.718414 0.563385
0.503204 0.715179 0.570221
0.614258 0.714966 0.569946
0.752960 0.726013 0.535492
0.896484 0.715027 0.521149
1.000000 0.703918 0.516144
0.303070 0.853027 0.588806
0.357941 0.852539 0.590454
0.431549 0.851746 0.591339
0.528564 0.849976 0.595337
0.642029 0.846161 0.607056
0.750031 0.858704 0.575745
0.893555 0.865845 0.530243
1.000000 0.855743 0.510681
0.363251 0.984894 0.628967
0.412811 0.984406 0.629791
0.486938 0.983368 0.635101
0.580444 0.981781 0.644928
0.686554 0.979431 0.659546
0.786285 0.984406 0.644592
0.907562 0.993256 0.577850
1.000000 0.993805 0.534607
0.028259 0.000000 0.703857
0.161194 0.000000 0.703888
0.306458 0.000000 0.703735
0.455139 0.000000 0.703644
0.604004 0.000000 0.702271
0.752350 0.000000 0.700287
0.890747 0.000000 0.691559
1.000000 0.000000 0.687714
0.042603 0.142181 0.703583
0.166321 0.141968 0.703796
0.309235 0.140869 0.703400
0.456268 0.138947 0.702484
0.603943 0.135742 0.700684
0.752167 0.131439 0.699066
0.889984 0.138672 0.690613
1.000000 0.144073 0.687469
0.068451 0.293976 0.704071
0.177399 0.293579 0.703583
0.314636 0.292755 0.702515
0.459717 0.291748 0.701660
0.606537 0.290131 0.700195
0.754517 0.288483 0.699066
0.890137 0.291931 0.690430
1.000000 0.293304 0.688477
0.091858 0.442200 0.701599
0.189453 0.441681 0.700958
0.321045 0.441162 0.700287
0.463928 0.441162 0.700317
0.609314 0.440216 0.699371
0.755157 0.438690 0.697754
0.888519 0.439911 0.690765
1.000000 0.438995 0.691071
0.112396 0.587433 0.697021
0.201935 0.587158 0.696777
0.327576 0.586517 0.696228
0.466614 0.586914 0.697296
0.607117 0.584412 0.696289
0.749664 0.582886 0.693695
0.886169 0.582001 0.692657
1.000000 0.581238 0.695587
0.146301 0.729980 0.692139
0.225403 0.729919 0.692322
0.339935 0.728973 0.692139
0.471222 0.727539 0.692078
0.611816 0.723785 0.692841
0.748627 0.722717 0.686462
0.892029 0.713074 0.682617
1.000000 0.705658 0.682007
0.240479 0.860748 0.696411
0.303284 0.860413 0.697327
0.397949 0.859650 0.699890
0.514496 0.858185 0.705383
0.637238 0.855438 0.713898
0.751587 0.854034 0.715790
0.889801 0.865021 0.680939
1.000000 0.855011 0.669464
0.352539 0.989594 0.732269
0.404938 0.989288 0.733795
0.480530 0.988525 0.738312
0.576416 0.987152 0.746704
0.664948 0.986023 0.744995
0.789551 0.981964 0.761688
0.902466 0.992035 0.723389
1.000000 0.994476 0.688110
0.037842 0.000000 0.847839
0.164276 0.000000 0.847717
0.307983 0.000000 0.847321
0.455566 0.000000 0.846619
0.604004 0.000000 0.845551
0.752533 0.000000 0.844269
0.901031 0.000000 0.842773
1.000000 0.000000 0.827240
0.044800 0.141327 0.847412
0.166840 0.140747 0.847260
0.309235 0.139282 0.846893
0.456207 0.136627 0.846161
0.604370 0.132446 0.845184
0.752747 0.126404 0.843933
0.901093 0.117676 0.842499
1.000000 0.141052 0.826691
0.055786 0.291138 0.846313
0.171387 0.290924 0.846161
0.311310 0.290253 0.845795
0.457245 0.288971 0.845184
0.604828 0.287109 0.844299
0.752838 0.284393 0.843170
0.900879 0.280762 0.841827
1.000000 0.290955 0.825806
0.057098 0.437927 0.844788
0.172729 0.437988 0.844666
0.312439 0.437988 0.844330
0.457397 0.437073 0.843781
0.604340 0.435699 0.842987
0.751740 0.433838 0.842010
0.899292 0.431244 0.840881
1.000000 0.436279 0.826691
0.074249 0.585144 0.842529
0.178864 0.584930 0.842468
0.312500 0.584137 0.842377
0.454010 0.582489 0.842224
0.600433 0.580872 0.841644
0.748077 0.579010 0.840820
0.895935 0.576630 0.839874
1.000000 0.579346 0.829651
0.090363 0.731140 0.840149
0.186768 0.730835 0.840118
0.315613 0.729950 0.840057
0.454895 0.728363 0.839996
0.597046 0.725769 0.839905
0.741486 0.722260 0.839691
0.887604 0.721069 0.837189
1.000000 0.722839 0.836609
0.123535 0.873627 0.836060
0.207947 0.873230 0.835999
0.328064 0.872223 0.835876
0.462494 0.870483 0.835815
0.602173 0.868164 0.836182
0.745117 0.864868 0.837860
0.882690 0.863464 0.837128
1.000000 0.859100 0.838654
0.271759 0.997711 0.838684
0.331329 0.997406 0.839539
0.420319 0.996704 0.841949
0.531067 0.995483 0.847107
0.655731 0.993500 0.856049
0.787781 0.990479 0.871216
0.902740 0.988739 0.877594
1.000000 0.995941 0.860840
0.034332 0.000000 0.990662
0.162842 0.000000 0.990570
0.306915 0.000000 0.990295
0.454437 0.000000 0.989838
0.602936 0.000000 0.989227
0.751648 0.000000 0.988495
0.900360 0.000000 0.987671
1.000000 0.000000 0.986847
0.031616 0.137878 0.990387
0.162048 0.137329 0.990295
0.306519 0.135437 0.990051
0.454102 0.132233 0.989655
0.602631 0.126953 0.989014
0.751312 0.119324 0.988312
0.899994 0.108887 0.987518
1.000000 0.093903 0.986755
0.021484 0.288239 0.989807
0.158752 0.287872 0.989716
0.304657 0.287109 0.989471
0.452759 0.285706 0.989105
0.601440 0.283569 0.988556
0.750183 0.280670 0.987915
0.898834 0.276947 0.987213
1.000000 0.272827 0.986481
0.000000 0.435455 0.988922
0.149567 0.435272 0.988831
0.299744 0.434784 0.988647
0.449280 0.433838 0.988312
0.598480 0.432526 0.987854
0.747437 0.430725 0.987274
0.896057 0.428436 0.986664
1.000000 0.425873 0.986176
0.000000 0.576508 0.988037
0.072479 0.576111 0.988037
0.271973 0.575165 0.988037
0.441589 0.579529 0.987457
0.592255 0.578400 0.987061
0.741913 0.576874 0.986603
0.891083 0.575287 0.986206
1.000000 0.573853 0.985901
0.000000 0.726135 0.986206
0.093719 0.725800 0.986237
0.276184 0.724915 0.986267
0.431335 0.723419 0.986298
0.581482 0.721283 0.986389
0.734192 0.721619 0.986023
0.883881 0.721008 0.985840
1.000000 0.720978 0.985809
0.000000 0.874237 0.985260
0.137115 0.873932 0.985291
0.290955 0.873108 0.985352
0.439850 0.871674 0.985443
0.587616 0.869720 0.985596
0.734436 0.867645 0.985748
0.876251 0.867157 0.985962
1.000000 0.874603 0.985565
0.133484 1.000000 0.986053
0.216553 1.000000 0.985992
0.336670 1.000000 0.985779
0.473480 1.000000 0.985535
0.620026 1.000000 0.985443
0.769867 1.000000 0.986023
0.908173 0.999420 0.988708
1.000000 1.000000 1.000000
